/PROG  LOWWALL.LS
/ATTR
OWNER       = MNEDITOR;
COMMENT     = "";
PROG_SIZE   = 636;
CREATE      = DATE 23-01-07  TIME 11:59:14;
MODIFIED    = DATE 23-01-07  TIME 12:02:18;
FILE_NAME   = ;
VERSION     = 0;
LINE_COUNT  = 4;
MEMORY_SIZE = 992;
PROTECT     = READ_WRITE;
TCD:  STACK_SIZE	= 0,
      TASK_PRIORITY	= 50,
      TIME_SLICE	= 0,
      BUSY_LAMP_OFF	= 0,
      ABORT_REQUEST	= 0,
      PAUSE_REQUEST	= 0;
DEFAULT_GROUP	= 1,*,*,*,*;
CONTROL_CODE	= 00000000 00000000;
/MN
   1:J P[1] 100% FINE    ;
   2:L P[2] 100mm/sec CNT0    ;
   3:L P[3] 100mm/sec CNT0    ;
   4:L P[4] 100mm/sec CNT0    ;
   5:L P[5] 100mm/sec CNT0    ;
   6:L P[6] 100mm/sec CNT0    ;
   7:L P[7] 100mm/sec CNT0    ;
   8:L P[8] 100mm/sec CNT0    ;
   9:L P[9] 100mm/sec CNT0    ;
   10:L P[10] 100mm/sec CNT0    ;
   11:L P[11] 100mm/sec CNT0    ;
   12:L P[12] 100mm/sec CNT0    ;
   13:L P[13] 100mm/sec CNT0    ;
   14:L P[14] 100mm/sec CNT0    ;
   15:L P[15] 100mm/sec CNT0    ;
   16:L P[16] 100mm/sec CNT0    ;
   17:L P[17] 100mm/sec CNT0    ;
   18:L P[18] 100mm/sec CNT0    ;
   19:L P[19] 100mm/sec CNT0    ;
   20:L P[20] 100mm/sec CNT0    ;
   21:L P[21] 100mm/sec CNT0    ;
   22:L P[22] 100mm/sec CNT0    ;
   23:L P[23] 100mm/sec CNT0    ;
   24:L P[24] 100mm/sec CNT0    ;
   25:L P[25] 100mm/sec CNT0    ;
   26:L P[26] 100mm/sec CNT0    ;
   27:L P[27] 100mm/sec CNT0    ;
   28:L P[28] 100mm/sec CNT0    ;
   29:L P[29] 100mm/sec CNT0    ;
   30:L P[30] 100mm/sec CNT0    ;
   31:L P[31] 100mm/sec CNT0    ;
   32:L P[32] 100mm/sec CNT0    ;
   33:L P[33] 100mm/sec CNT0    ;
   34:L P[34] 100mm/sec CNT0    ;
   35:L P[35] 100mm/sec CNT0    ;
   36:L P[36] 100mm/sec CNT0    ;
   37:L P[37] 100mm/sec CNT0    ;
   38:L P[38] 100mm/sec CNT0    ;
   39:L P[39] 100mm/sec CNT0    ;
   40:L P[40] 100mm/sec CNT0    ;
   41:L P[41] 100mm/sec CNT0    ;
   42:L P[42] 100mm/sec CNT0    ;
   43:L P[43] 100mm/sec CNT0    ;
   44:L P[44] 100mm/sec CNT0    ;
   45:L P[45] 100mm/sec CNT0    ;
   46:L P[46] 100mm/sec CNT0    ;
   47:L P[47] 100mm/sec CNT0    ;
   48:L P[48] 100mm/sec CNT0    ;
   49:L P[49] 100mm/sec CNT0    ;
   50:L P[50] 100mm/sec CNT0    ;
   51:L P[51] 100mm/sec CNT0    ;
   52:L P[52] 100mm/sec CNT0    ;
   53:L P[53] 100mm/sec CNT0    ;
   54:L P[54] 100mm/sec CNT0    ;
   55:L P[55] 100mm/sec CNT0    ;
   56:L P[56] 100mm/sec CNT0    ;
   57:L P[57] 100mm/sec CNT0    ;
   58:L P[58] 100mm/sec CNT0    ;
   59:L P[59] 100mm/sec CNT0    ;
   60:L P[60] 100mm/sec CNT0    ;
   61:L P[61] 100mm/sec CNT0    ;
   62:L P[62] 100mm/sec CNT0    ;
   63:L P[63] 100mm/sec CNT0    ;
   64:L P[64] 100mm/sec CNT0    ;
   65:L P[65] 100mm/sec CNT0    ;
   66:L P[66] 100mm/sec CNT0    ;
   67:L P[67] 100mm/sec CNT0    ;
   68:L P[68] 100mm/sec CNT0    ;
   69:L P[69] 100mm/sec CNT0    ;
   70:L P[70] 100mm/sec CNT0    ;
   71:L P[71] 100mm/sec CNT0    ;
   72:L P[72] 100mm/sec CNT0    ;
   73:L P[73] 100mm/sec CNT0    ;
   74:L P[74] 100mm/sec CNT0    ;
   75:L P[75] 100mm/sec CNT0    ;
   76:L P[76] 100mm/sec CNT0    ;
   77:L P[77] 100mm/sec CNT0    ;
   78:L P[78] 100mm/sec CNT0    ;
   79:L P[79] 100mm/sec CNT0    ;
   80:L P[80] 100mm/sec CNT0    ;
   81:L P[81] 100mm/sec CNT0    ;
   82:L P[82] 100mm/sec CNT0    ;
   83:L P[83] 100mm/sec CNT0    ;
   84:L P[84] 100mm/sec CNT0    ;
   85:L P[85] 100mm/sec CNT0    ;
   86:L P[86] 100mm/sec CNT0    ;
   87:L P[87] 100mm/sec CNT0    ;
   88:L P[88] 100mm/sec CNT0    ;
   89:L P[89] 100mm/sec CNT0    ;
   90:L P[90] 100mm/sec CNT0    ;
   91:L P[91] 100mm/sec CNT0    ;
   92:L P[92] 100mm/sec CNT0    ;
   93:L P[93] 100mm/sec CNT0    ;
   94:L P[94] 100mm/sec CNT0    ;
   95:L P[95] 100mm/sec CNT0    ;
   96:L P[96] 100mm/sec CNT0    ;
   97:L P[97] 100mm/sec CNT0    ;
   98:L P[98] 100mm/sec CNT0    ;
   99:L P[99] 100mm/sec CNT0    ;
   100:L P[100] 100mm/sec CNT0    ;
   101:L P[101] 100mm/sec CNT0    ;
   102:L P[102] 100mm/sec CNT0    ;
   103:L P[103] 100mm/sec CNT0    ;
   104:L P[104] 100mm/sec CNT0    ;
   105:L P[105] 100mm/sec CNT0    ;
   106:L P[106] 100mm/sec CNT0    ;
   107:L P[107] 100mm/sec CNT0    ;
   108:L P[108] 100mm/sec CNT0    ;
   109:L P[109] 100mm/sec CNT0    ;
   110:L P[110] 100mm/sec CNT0    ;
   111:L P[111] 100mm/sec CNT0    ;
   112:L P[112] 100mm/sec CNT0    ;
   113:L P[113] 100mm/sec CNT0    ;
   114:L P[114] 100mm/sec CNT0    ;
   115:L P[115] 100mm/sec CNT0    ;
   116:L P[116] 100mm/sec CNT0    ;
   117:L P[117] 100mm/sec CNT0    ;
   118:L P[118] 100mm/sec CNT0    ;
   119:L P[119] 100mm/sec CNT0    ;
   120:L P[120] 100mm/sec CNT0    ;
   121:L P[121] 100mm/sec CNT0    ;
   122:L P[122] 100mm/sec CNT0    ;
   123:L P[123] 100mm/sec CNT0    ;
   124:L P[124] 100mm/sec CNT0    ;
   125:L P[125] 100mm/sec CNT0    ;
   126:L P[126] 100mm/sec CNT0    ;
   127:L P[127] 100mm/sec CNT0    ;
   128:L P[128] 100mm/sec CNT0    ;
   129:L P[129] 100mm/sec CNT0    ;
   130:L P[130] 100mm/sec CNT0    ;
   131:L P[131] 100mm/sec CNT0    ;
   132:L P[132] 100mm/sec CNT0    ;
   133:L P[133] 100mm/sec CNT0    ;
   134:L P[134] 100mm/sec CNT0    ;
   135:L P[135] 100mm/sec CNT0    ;
   136:L P[136] 100mm/sec CNT0    ;
   137:L P[137] 100mm/sec CNT0    ;
   138:L P[138] 100mm/sec CNT0    ;
   139:L P[139] 100mm/sec CNT0    ;
   140:L P[140] 100mm/sec CNT0    ;
   141:L P[141] 100mm/sec CNT0    ;
   142:L P[142] 100mm/sec CNT0    ;
   143:L P[143] 100mm/sec CNT0    ;
   144:L P[144] 100mm/sec CNT0    ;
   145:L P[145] 100mm/sec CNT0    ;
   146:L P[146] 100mm/sec CNT0    ;
   147:L P[147] 100mm/sec CNT0    ;
   148:L P[148] 100mm/sec CNT0    ;
   149:L P[149] 100mm/sec CNT0    ;
   150:L P[150] 100mm/sec CNT0    ;
   151:L P[151] 100mm/sec CNT0    ;
   152:L P[152] 100mm/sec CNT0    ;
   153:L P[153] 100mm/sec CNT0    ;
   154:L P[154] 100mm/sec CNT0    ;
   155:L P[155] 100mm/sec CNT0    ;
   156:L P[156] 100mm/sec CNT0    ;
   157:L P[157] 100mm/sec CNT0    ;
   158:L P[158] 100mm/sec CNT0    ;
   159:L P[159] 100mm/sec CNT0    ;
   160:L P[160] 100mm/sec CNT0    ;
   161:L P[161] 100mm/sec CNT0    ;
   162:L P[162] 100mm/sec CNT0    ;
   163:L P[163] 100mm/sec CNT0    ;
   164:L P[164] 100mm/sec CNT0    ;
   165:L P[165] 100mm/sec CNT0    ;
   166:L P[166] 100mm/sec CNT0    ;
   167:L P[167] 100mm/sec CNT0    ;
   168:L P[168] 100mm/sec CNT0    ;
   169:L P[169] 100mm/sec CNT0    ;
   170:L P[170] 100mm/sec CNT0    ;
   171:L P[171] 100mm/sec CNT0    ;
   172:L P[172] 100mm/sec CNT0    ;
   173:L P[173] 100mm/sec CNT0    ;
   174:L P[174] 100mm/sec CNT0    ;
   175:L P[175] 100mm/sec CNT0    ;
   176:L P[176] 100mm/sec CNT0    ;
   177:L P[177] 100mm/sec CNT0    ;
   178:L P[178] 100mm/sec CNT0    ;
   179:L P[179] 100mm/sec CNT0    ;
   180:L P[180] 100mm/sec CNT0    ;
   181:L P[181] 100mm/sec CNT0    ;
   182:L P[182] 100mm/sec CNT0    ;
   183:L P[183] 100mm/sec CNT0    ;
   184:L P[184] 100mm/sec CNT0    ;
   185:L P[185] 100mm/sec CNT0    ;
   186:L P[186] 100mm/sec CNT0    ;
   187:L P[187] 100mm/sec CNT0    ;
   188:L P[188] 100mm/sec CNT0    ;
   189:L P[189] 100mm/sec CNT0    ;
   190:L P[190] 100mm/sec CNT0    ;
   191:L P[191] 100mm/sec CNT0    ;
   192:L P[192] 100mm/sec CNT0    ;
   193:L P[193] 100mm/sec CNT0    ;
   194:L P[194] 100mm/sec CNT0    ;
   195:L P[195] 100mm/sec CNT0    ;
   196:L P[196] 100mm/sec CNT0    ;
   197:L P[197] 100mm/sec CNT0    ;
   198:L P[198] 100mm/sec CNT0    ;
   199:L P[199] 100mm/sec CNT0    ;
   200:L P[200] 100mm/sec CNT0    ;
   201:L P[201] 100mm/sec CNT0    ;
   202:L P[202] 100mm/sec CNT0    ;
   203:L P[203] 100mm/sec CNT0    ;
   204:L P[204] 100mm/sec CNT0    ;
   205:L P[205] 100mm/sec CNT0    ;
   206:L P[206] 100mm/sec CNT0    ;
   207:L P[207] 100mm/sec CNT0    ;
   208:L P[208] 100mm/sec CNT0    ;
   209:L P[209] 100mm/sec CNT0    ;
   210:L P[210] 100mm/sec CNT0    ;
   211:L P[211] 100mm/sec CNT0    ;
   212:L P[212] 100mm/sec CNT0    ;
   213:L P[213] 100mm/sec CNT0    ;
   214:L P[214] 100mm/sec CNT0    ;
   215:L P[215] 100mm/sec CNT0    ;
   216:L P[216] 100mm/sec CNT0    ;
   217:L P[217] 100mm/sec CNT0    ;
   218:L P[218] 100mm/sec CNT0    ;
   219:L P[219] 100mm/sec CNT0    ;
   220:L P[220] 100mm/sec CNT0    ;
   221:L P[221] 100mm/sec CNT0    ;
   222:L P[222] 100mm/sec CNT0    ;
   223:L P[223] 100mm/sec CNT0    ;
   224:L P[224] 100mm/sec CNT0    ;
   225:L P[225] 100mm/sec CNT0    ;
   226:L P[226] 100mm/sec CNT0    ;
   227:L P[227] 100mm/sec CNT0    ;
   228:L P[228] 100mm/sec CNT0    ;
   229:L P[229] 100mm/sec CNT0    ;
   230:L P[230] 100mm/sec CNT0    ;
   231:L P[231] 100mm/sec CNT0    ;
   232:L P[232] 100mm/sec CNT0    ;
   233:L P[233] 100mm/sec CNT0    ;
   234:L P[234] 100mm/sec CNT0    ;
   235:L P[235] 100mm/sec CNT0    ;
   236:L P[236] 100mm/sec CNT0    ;
   237:L P[237] 100mm/sec CNT0    ;
   238:L P[238] 100mm/sec CNT0    ;
   239:L P[239] 100mm/sec CNT0    ;
   240:L P[240] 100mm/sec CNT0    ;
   241:L P[241] 100mm/sec CNT0    ;
   242:L P[242] 100mm/sec CNT0    ;
   243:L P[243] 100mm/sec CNT0    ;
   244:L P[244] 100mm/sec CNT0    ;
   245:L P[245] 100mm/sec CNT0    ;
   246:L P[246] 100mm/sec CNT0    ;
   247:L P[247] 100mm/sec CNT0    ;
   248:L P[248] 100mm/sec CNT0    ;
   249:L P[249] 100mm/sec CNT0    ;
   250:L P[250] 100mm/sec CNT0    ;
   251:L P[251] 100mm/sec CNT0    ;
   252:L P[252] 100mm/sec CNT0    ;
   253:L P[253] 100mm/sec CNT0    ;
   254:L P[254] 100mm/sec CNT0    ;
   255:L P[255] 100mm/sec CNT0    ;
   256:L P[256] 100mm/sec CNT0    ;
   257:L P[257] 100mm/sec CNT0    ;
   258:L P[258] 100mm/sec CNT0    ;
   259:L P[259] 100mm/sec CNT0    ;
   260:L P[260] 100mm/sec CNT0    ;
   261:L P[261] 100mm/sec CNT0    ;
   262:L P[262] 100mm/sec CNT0    ;
   263:L P[263] 100mm/sec CNT0    ;
   264:L P[264] 100mm/sec CNT0    ;
   265:L P[265] 100mm/sec CNT0    ;
   266:L P[266] 100mm/sec CNT0    ;
   267:L P[267] 100mm/sec CNT0    ;
   268:L P[268] 100mm/sec CNT0    ;
   269:L P[269] 100mm/sec CNT0    ;
   270:L P[270] 100mm/sec CNT0    ;
   271:L P[271] 100mm/sec CNT0    ;
   272:L P[272] 100mm/sec CNT0    ;
   273:L P[273] 100mm/sec CNT0    ;
   274:L P[274] 100mm/sec CNT0    ;
   275:L P[275] 100mm/sec CNT0    ;
   276:L P[276] 100mm/sec CNT0    ;
   277:L P[277] 100mm/sec CNT0    ;
   278:L P[278] 100mm/sec CNT0    ;
   279:L P[279] 100mm/sec CNT0    ;
   280:L P[280] 100mm/sec CNT0    ;
   281:L P[281] 100mm/sec CNT0    ;
   282:L P[282] 100mm/sec CNT0    ;
   283:L P[283] 100mm/sec CNT0    ;
   284:L P[284] 100mm/sec CNT0    ;
   285:L P[285] 100mm/sec CNT0    ;
   286:L P[286] 100mm/sec CNT0    ;
   287:L P[287] 100mm/sec CNT0    ;
   288:L P[288] 100mm/sec CNT0    ;
   289:L P[289] 100mm/sec CNT0    ;
   290:L P[290] 100mm/sec CNT0    ;
   291:L P[291] 100mm/sec CNT0    ;
   292:L P[292] 100mm/sec CNT0    ;
   293:L P[293] 100mm/sec CNT0    ;
   294:L P[294] 100mm/sec CNT0    ;
   295:L P[295] 100mm/sec CNT0    ;
   296:L P[296] 100mm/sec CNT0    ;
   297:L P[297] 100mm/sec CNT0    ;
   298:L P[298] 100mm/sec CNT0    ;
   299:L P[299] 100mm/sec CNT0    ;
   300:L P[300] 100mm/sec CNT0    ;
   301:L P[301] 100mm/sec CNT0    ;
   302:L P[302] 100mm/sec CNT0    ;
   303:L P[303] 100mm/sec CNT0    ;
   304:L P[304] 100mm/sec CNT0    ;
   305:L P[305] 100mm/sec CNT0    ;
   306:L P[306] 100mm/sec CNT0    ;
   307:L P[307] 100mm/sec CNT0    ;
   308:L P[308] 100mm/sec CNT0    ;
   309:L P[309] 100mm/sec CNT0    ;
   310:L P[310] 100mm/sec CNT0    ;
   311:L P[311] 100mm/sec CNT0    ;
   312:L P[312] 100mm/sec CNT0    ;
   313:L P[313] 100mm/sec CNT0    ;
   314:L P[314] 100mm/sec CNT0    ;
   315:L P[315] 100mm/sec CNT0    ;
   316:L P[316] 100mm/sec CNT0    ;
   317:L P[317] 100mm/sec CNT0    ;
   318:L P[318] 100mm/sec CNT0    ;
   319:L P[319] 100mm/sec CNT0    ;
   320:L P[320] 100mm/sec CNT0    ;
   321:L P[321] 100mm/sec CNT0    ;
   322:L P[322] 100mm/sec CNT0    ;
   323:L P[323] 100mm/sec CNT0    ;
   324:L P[324] 100mm/sec CNT0    ;
   325:L P[325] 100mm/sec CNT0    ;
   326:L P[326] 100mm/sec CNT0    ;
   327:L P[327] 100mm/sec CNT0    ;
   328:L P[328] 100mm/sec CNT0    ;
   329:L P[329] 100mm/sec CNT0    ;
   330:L P[330] 100mm/sec CNT0    ;
   331:L P[331] 100mm/sec CNT0    ;
   332:L P[332] 100mm/sec CNT0    ;
   333:L P[333] 100mm/sec CNT0    ;
   334:L P[334] 100mm/sec CNT0    ;
   335:L P[335] 100mm/sec CNT0    ;
   336:L P[336] 100mm/sec CNT0    ;
   337:L P[337] 100mm/sec CNT0    ;
   338:L P[338] 100mm/sec CNT0    ;
   339:L P[339] 100mm/sec CNT0    ;
   340:L P[340] 100mm/sec CNT0    ;
   341:L P[341] 100mm/sec CNT0    ;
   342:L P[342] 100mm/sec CNT0    ;
   343:L P[343] 100mm/sec CNT0    ;
   344:L P[344] 100mm/sec CNT0    ;
   345:L P[345] 100mm/sec CNT0    ;
   346:L P[346] 100mm/sec CNT0    ;
   347:L P[347] 100mm/sec CNT0    ;
   348:L P[348] 100mm/sec CNT0    ;
   349:L P[349] 100mm/sec CNT0    ;
   350:L P[350] 100mm/sec CNT0    ;
   351:L P[351] 100mm/sec CNT0    ;
   352:L P[352] 100mm/sec CNT0    ;
   353:L P[353] 100mm/sec CNT0    ;
   354:L P[354] 100mm/sec CNT0    ;
   355:L P[355] 100mm/sec CNT0    ;
   356:L P[356] 100mm/sec CNT0    ;
   357:L P[357] 100mm/sec CNT0    ;
   358:L P[358] 100mm/sec CNT0    ;
   359:L P[359] 100mm/sec CNT0    ;
   360:L P[360] 100mm/sec CNT0    ;
   361:L P[361] 100mm/sec CNT0    ;
   362:L P[362] 100mm/sec CNT0    ;
   363:L P[363] 100mm/sec CNT0    ;
   364:L P[364] 100mm/sec CNT0    ;
   365:L P[365] 100mm/sec CNT0    ;
   366:L P[366] 100mm/sec CNT0    ;
   367:L P[367] 100mm/sec CNT0    ;
   368:L P[368] 100mm/sec CNT0    ;
   369:L P[369] 100mm/sec CNT0    ;
   370:L P[370] 100mm/sec CNT0    ;
   371:L P[371] 100mm/sec CNT0    ;
   372:L P[372] 100mm/sec CNT0    ;
   373:L P[373] 100mm/sec CNT0    ;
   374:L P[374] 100mm/sec CNT0    ;
   375:L P[375] 100mm/sec CNT0    ;
   376:L P[376] 100mm/sec CNT0    ;
   377:L P[377] 100mm/sec CNT0    ;
   378:L P[378] 100mm/sec CNT0    ;
   379:L P[379] 100mm/sec CNT0    ;
   380:L P[380] 100mm/sec CNT0    ;
   381:L P[381] 100mm/sec CNT0    ;
   382:L P[382] 100mm/sec CNT0    ;
   383:L P[383] 100mm/sec CNT0    ;
   384:L P[384] 100mm/sec CNT0    ;
   385:L P[385] 100mm/sec CNT0    ;
   386:L P[386] 100mm/sec CNT0    ;
   387:L P[387] 100mm/sec CNT0    ;
   388:L P[388] 100mm/sec CNT0    ;
   389:L P[389] 100mm/sec CNT0    ;
   390:L P[390] 100mm/sec CNT0    ;
   391:L P[391] 100mm/sec CNT0    ;
   392:L P[392] 100mm/sec CNT0    ;
   393:L P[393] 100mm/sec CNT0    ;
   394:L P[394] 100mm/sec CNT0    ;
   395:L P[395] 100mm/sec CNT0    ;
   396:L P[396] 100mm/sec CNT0    ;
   397:L P[397] 100mm/sec CNT0    ;
   398:L P[398] 100mm/sec CNT0    ;
   399:L P[399] 100mm/sec CNT0    ;
   400:L P[400] 100mm/sec CNT0    ;
   401:L P[401] 100mm/sec CNT0    ;
   402:L P[402] 100mm/sec CNT0    ;
   403:L P[403] 100mm/sec CNT0    ;
   404:L P[404] 100mm/sec CNT0    ;
   405:L P[405] 100mm/sec CNT0    ;
   406:L P[406] 100mm/sec CNT0    ;
   407:L P[407] 100mm/sec CNT0    ;
   408:L P[408] 100mm/sec CNT0    ;
   409:L P[409] 100mm/sec CNT0    ;
   410:L P[410] 100mm/sec CNT0    ;
   411:L P[411] 100mm/sec CNT0    ;
   412:L P[412] 100mm/sec CNT0    ;
   413:L P[413] 100mm/sec CNT0    ;
   414:L P[414] 100mm/sec CNT0    ;
   415:L P[415] 100mm/sec CNT0    ;
   416:L P[416] 100mm/sec CNT0    ;
   417:L P[417] 100mm/sec CNT0    ;
   418:L P[418] 100mm/sec CNT0    ;
   419:L P[419] 100mm/sec CNT0    ;
   420:L P[420] 100mm/sec CNT0    ;
   421:L P[421] 100mm/sec CNT0    ;
   422:L P[422] 100mm/sec CNT0    ;
   423:L P[423] 100mm/sec CNT0    ;
   424:L P[424] 100mm/sec CNT0    ;
   425:L P[425] 100mm/sec CNT0    ;
   426:L P[426] 100mm/sec CNT0    ;
   427:L P[427] 100mm/sec CNT0    ;
   428:L P[428] 100mm/sec CNT0    ;
   429:L P[429] 100mm/sec CNT0    ;
   430:L P[430] 100mm/sec CNT0    ;
   431:L P[431] 100mm/sec CNT0    ;
   432:L P[432] 100mm/sec CNT0    ;
   433:L P[433] 100mm/sec CNT0    ;
   434:L P[434] 100mm/sec CNT0    ;
   435:L P[435] 100mm/sec CNT0    ;
   436:L P[436] 100mm/sec CNT0    ;
   437:L P[437] 100mm/sec CNT0    ;
   438:L P[438] 100mm/sec CNT0    ;
   439:L P[439] 100mm/sec CNT0    ;
   440:L P[440] 100mm/sec CNT0    ;
   441:L P[441] 100mm/sec CNT0    ;
   442:L P[442] 100mm/sec CNT0    ;
   443:L P[443] 100mm/sec CNT0    ;
   444:L P[444] 100mm/sec CNT0    ;
   445:L P[445] 100mm/sec CNT0    ;
   446:L P[446] 100mm/sec CNT0    ;
   447:L P[447] 100mm/sec CNT0    ;
   448:L P[448] 100mm/sec CNT0    ;
   449:L P[449] 100mm/sec CNT0    ;
   450:L P[450] 100mm/sec CNT0    ;
   451:L P[451] 100mm/sec CNT0    ;
   452:L P[452] 100mm/sec CNT0    ;
   453:L P[453] 100mm/sec CNT0    ;
   454:L P[454] 100mm/sec CNT0    ;
   455:L P[455] 100mm/sec CNT0    ;
   456:L P[456] 100mm/sec CNT0    ;
   457:L P[457] 100mm/sec CNT0    ;
   458:L P[458] 100mm/sec CNT0    ;
   459:L P[459] 100mm/sec CNT0    ;
   460:L P[460] 100mm/sec CNT0    ;
   461:L P[461] 100mm/sec CNT0    ;
   462:L P[462] 100mm/sec CNT0    ;
   463:L P[463] 100mm/sec CNT0    ;
   464:L P[464] 100mm/sec CNT0    ;
   465:L P[465] 100mm/sec CNT0    ;
   466:L P[466] 100mm/sec CNT0    ;
   467:L P[467] 100mm/sec CNT0    ;
   468:L P[468] 100mm/sec CNT0    ;
   469:L P[469] 100mm/sec CNT0    ;
   470:L P[470] 100mm/sec CNT0    ;
   471:L P[471] 100mm/sec CNT0    ;
   472:L P[472] 100mm/sec CNT0    ;
   473:L P[473] 100mm/sec CNT0    ;
   474:L P[474] 100mm/sec CNT0    ;
   475:L P[475] 100mm/sec CNT0    ;
   476:L P[476] 100mm/sec CNT0    ;
   477:L P[477] 100mm/sec CNT0    ;
   478:L P[478] 100mm/sec CNT0    ;
   479:L P[479] 100mm/sec CNT0    ;
   480:L P[480] 100mm/sec CNT0    ;
   481:L P[481] 100mm/sec CNT0    ;
   482:L P[482] 100mm/sec CNT0    ;
   483:L P[483] 100mm/sec CNT0    ;
   484:L P[484] 100mm/sec CNT0    ;
   485:L P[485] 100mm/sec CNT0    ;
   486:L P[486] 100mm/sec CNT0    ;
   487:L P[487] 100mm/sec CNT0    ;
   488:L P[488] 100mm/sec CNT0    ;
   489:L P[489] 100mm/sec CNT0    ;
   490:L P[490] 100mm/sec CNT0    ;
   491:L P[491] 100mm/sec CNT0    ;
   492:L P[492] 100mm/sec CNT0    ;
   493:L P[493] 100mm/sec CNT0    ;
   494:L P[494] 100mm/sec CNT0    ;
   495:L P[495] 100mm/sec CNT0    ;
   496:L P[496] 100mm/sec CNT0    ;
   497:L P[497] 100mm/sec CNT0    ;
   498:L P[498] 100mm/sec CNT0    ;
   499:L P[499] 100mm/sec CNT0    ;
   500:L P[500] 100mm/sec CNT0    ;
   501:L P[501] 100mm/sec CNT0    ;
   502:L P[502] 100mm/sec CNT0    ;
   503:L P[503] 100mm/sec CNT0    ;
   504:L P[504] 100mm/sec CNT0    ;
   505:L P[505] 100mm/sec CNT0    ;
   506:L P[506] 100mm/sec CNT0    ;
   507:L P[507] 100mm/sec CNT0    ;
   508:L P[508] 100mm/sec CNT0    ;
   509:L P[509] 100mm/sec CNT0    ;
   510:L P[510] 100mm/sec CNT0    ;
   511:L P[511] 100mm/sec CNT0    ;
   512:L P[512] 100mm/sec CNT0    ;
   513:L P[513] 100mm/sec CNT0    ;
   514:L P[514] 100mm/sec CNT0    ;
   515:L P[515] 100mm/sec CNT0    ;
   516:L P[516] 100mm/sec CNT0    ;
   517:L P[517] 100mm/sec CNT0    ;
   518:L P[518] 100mm/sec CNT0    ;
   519:L P[519] 100mm/sec CNT0    ;
   520:L P[520] 100mm/sec CNT0    ;
   521:L P[521] 100mm/sec CNT0    ;
   522:L P[522] 100mm/sec CNT0    ;
   523:L P[523] 100mm/sec CNT0    ;
   524:L P[524] 100mm/sec CNT0    ;
   525:L P[525] 100mm/sec CNT0    ;
   526:L P[526] 100mm/sec CNT0    ;
   527:L P[527] 100mm/sec CNT0    ;
   528:L P[528] 100mm/sec CNT0    ;
   529:L P[529] 100mm/sec CNT0    ;
   530:L P[530] 100mm/sec CNT0    ;
   531:L P[531] 100mm/sec CNT0    ;
   532:L P[532] 100mm/sec CNT0    ;
   533:L P[533] 100mm/sec CNT0    ;
   534:L P[534] 100mm/sec CNT0    ;
   535:L P[535] 100mm/sec CNT0    ;
   536:L P[536] 100mm/sec CNT0    ;
   537:L P[537] 100mm/sec CNT0    ;
   538:L P[538] 100mm/sec CNT0    ;
   539:L P[539] 100mm/sec CNT0    ;
   540:L P[540] 100mm/sec CNT0    ;
   541:L P[541] 100mm/sec CNT0    ;
   542:L P[542] 100mm/sec CNT0    ;
   543:L P[543] 100mm/sec CNT0    ;
   544:L P[544] 100mm/sec CNT0    ;
   545:L P[545] 100mm/sec CNT0    ;
   546:L P[546] 100mm/sec CNT0    ;
   547:L P[547] 100mm/sec CNT0    ;
   548:L P[548] 100mm/sec CNT0    ;
   549:L P[549] 100mm/sec CNT0    ;
   550:L P[550] 100mm/sec CNT0    ;
   551:L P[551] 100mm/sec CNT0    ;
   552:L P[552] 100mm/sec CNT0    ;
   553:L P[553] 100mm/sec CNT0    ;
   554:L P[554] 100mm/sec CNT0    ;
   555:L P[555] 100mm/sec CNT0    ;
   556:L P[556] 100mm/sec CNT0    ;
   557:L P[557] 100mm/sec CNT0    ;
   558:L P[558] 100mm/sec CNT0    ;
   559:L P[559] 100mm/sec CNT0    ;
   560:L P[560] 100mm/sec CNT0    ;
   561:L P[561] 100mm/sec CNT0    ;
   562:L P[562] 100mm/sec CNT0    ;
   563:L P[563] 100mm/sec CNT0    ;
   564:L P[564] 100mm/sec CNT0    ;
   565:L P[565] 100mm/sec CNT0    ;
   566:L P[566] 100mm/sec CNT0    ;
   567:L P[567] 100mm/sec CNT0    ;
   568:L P[568] 100mm/sec CNT0    ;
   569:L P[569] 100mm/sec CNT0    ;
   570:L P[570] 100mm/sec CNT0    ;
   571:L P[571] 100mm/sec CNT0    ;
   572:L P[572] 100mm/sec CNT0    ;
   573:L P[573] 100mm/sec CNT0    ;
   574:L P[574] 100mm/sec CNT0    ;
   575:L P[575] 100mm/sec CNT0    ;
   576:L P[576] 100mm/sec CNT0    ;
   577:L P[577] 100mm/sec CNT0    ;
   578:L P[578] 100mm/sec CNT0    ;
   579:L P[579] 100mm/sec CNT0    ;
   580:L P[580] 100mm/sec CNT0    ;
   581:L P[581] 100mm/sec CNT0    ;
   582:L P[582] 100mm/sec CNT0    ;
   583:L P[583] 100mm/sec CNT0    ;
   584:L P[584] 100mm/sec CNT0    ;
   585:L P[585] 100mm/sec CNT0    ;
   586:L P[586] 100mm/sec CNT0    ;
   587:L P[587] 100mm/sec CNT0    ;
   588:L P[588] 100mm/sec CNT0    ;
   589:L P[589] 100mm/sec CNT0    ;
   590:L P[590] 100mm/sec CNT0    ;
   591:L P[591] 100mm/sec CNT0    ;
   592:L P[592] 100mm/sec CNT0    ;
   593:L P[593] 100mm/sec CNT0    ;
   594:L P[594] 100mm/sec CNT0    ;
   595:L P[595] 100mm/sec CNT0    ;
   596:L P[596] 100mm/sec CNT0    ;
   597:L P[597] 100mm/sec CNT0    ;
   598:L P[598] 100mm/sec CNT0    ;
   599:L P[599] 100mm/sec CNT0    ;
   600:L P[600] 100mm/sec CNT0    ;
   601:L P[601] 100mm/sec CNT0    ;
   602:L P[602] 100mm/sec CNT0    ;
   603:L P[603] 100mm/sec CNT0    ;
   604:L P[604] 100mm/sec CNT0    ;
   605:L P[605] 100mm/sec CNT0    ;
   606:L P[606] 100mm/sec CNT0    ;
   607:L P[607] 100mm/sec CNT0    ;
   608:L P[608] 100mm/sec CNT0    ;
   609:L P[609] 100mm/sec CNT0    ;
   610:L P[610] 100mm/sec CNT0    ;
   611:L P[611] 100mm/sec CNT0    ;
   612:L P[612] 100mm/sec CNT0    ;
   613:L P[613] 100mm/sec CNT0    ;
   614:L P[614] 100mm/sec CNT0    ;
   615:L P[615] 100mm/sec CNT0    ;
   616:L P[616] 100mm/sec CNT0    ;
   617:L P[617] 100mm/sec CNT0    ;
   618:L P[618] 100mm/sec CNT0    ;
   619:L P[619] 100mm/sec CNT0    ;
   620:L P[620] 100mm/sec CNT0    ;
   621:L P[621] 100mm/sec CNT0    ;
   622:L P[622] 100mm/sec CNT0    ;
   623:L P[623] 100mm/sec CNT0    ;
   624:L P[624] 100mm/sec CNT0    ;
   625:L P[625] 100mm/sec CNT0    ;
   626:L P[626] 100mm/sec CNT0    ;
   627:L P[627] 100mm/sec CNT0    ;
   628:L P[628] 100mm/sec CNT0    ;
   629:L P[629] 100mm/sec CNT0    ;
   630:L P[630] 100mm/sec CNT0    ;
   631:L P[631] 100mm/sec CNT0    ;
   632:L P[632] 100mm/sec CNT0    ;
   633:L P[633] 100mm/sec CNT0    ;
   634:L P[634] 100mm/sec CNT0    ;
   635:L P[635] 100mm/sec CNT0    ;
   636:L P[636] 100mm/sec CNT0    ;
   637:L P[637] 100mm/sec CNT0    ;
   638:L P[638] 100mm/sec CNT0    ;
   639:L P[639] 100mm/sec CNT0    ;
   640:L P[640] 100mm/sec CNT0    ;
   641:L P[641] 100mm/sec CNT0    ;
   642:L P[642] 100mm/sec CNT0    ;
   643:L P[643] 100mm/sec CNT0    ;
   644:L P[644] 100mm/sec CNT0    ;
   645:L P[645] 100mm/sec CNT0    ;
   646:L P[646] 100mm/sec CNT0    ;
   647:L P[647] 100mm/sec CNT0    ;
   648:L P[648] 100mm/sec CNT0    ;
   649:L P[649] 100mm/sec CNT0    ;
   650:L P[650] 100mm/sec CNT0    ;
   651:L P[651] 100mm/sec CNT0    ;
   652:L P[652] 100mm/sec CNT0    ;
   653:L P[653] 100mm/sec CNT0    ;
   654:L P[654] 100mm/sec CNT0    ;
   655:L P[655] 100mm/sec CNT0    ;
   656:L P[656] 100mm/sec CNT0    ;
   657:L P[657] 100mm/sec CNT0    ;
   658:L P[658] 100mm/sec CNT0    ;
   659:L P[659] 100mm/sec CNT0    ;
   660:L P[660] 100mm/sec CNT0    ;
   661:L P[661] 100mm/sec CNT0    ;
   662:L P[662] 100mm/sec CNT0    ;
   663:L P[663] 100mm/sec CNT0    ;
   664:L P[664] 100mm/sec CNT0    ;
   665:L P[665] 100mm/sec CNT0    ;
   666:L P[666] 100mm/sec CNT0    ;
   667:L P[667] 100mm/sec CNT0    ;
   668:L P[668] 100mm/sec CNT0    ;
   669:L P[669] 100mm/sec CNT0    ;
   670:L P[670] 100mm/sec CNT0    ;
   671:L P[671] 100mm/sec CNT0    ;
   672:L P[672] 100mm/sec CNT0    ;
   673:L P[673] 100mm/sec CNT0    ;
   674:L P[674] 100mm/sec CNT0    ;
   675:L P[675] 100mm/sec CNT0    ;
   676:L P[676] 100mm/sec CNT0    ;
   677:L P[677] 100mm/sec CNT0    ;
   678:L P[678] 100mm/sec CNT0    ;
   679:L P[679] 100mm/sec CNT0    ;
   680:L P[680] 100mm/sec CNT0    ;
   681:L P[681] 100mm/sec CNT0    ;
   682:L P[682] 100mm/sec CNT0    ;
   683:L P[683] 100mm/sec CNT0    ;
   684:L P[684] 100mm/sec CNT0    ;
   685:L P[685] 100mm/sec CNT0    ;
   686:L P[686] 100mm/sec CNT0    ;
   687:L P[687] 100mm/sec CNT0    ;
   688:L P[688] 100mm/sec CNT0    ;
   689:L P[689] 100mm/sec CNT0    ;
   690:L P[690] 100mm/sec CNT0    ;
   691:L P[691] 100mm/sec CNT0    ;
   692:L P[692] 100mm/sec CNT0    ;
   693:L P[693] 100mm/sec CNT0    ;
   694:L P[694] 100mm/sec CNT0    ;
   695:L P[695] 100mm/sec CNT0    ;
   696:L P[696] 100mm/sec CNT0    ;
   697:L P[697] 100mm/sec CNT0    ;
   698:L P[698] 100mm/sec CNT0    ;
   699:L P[699] 100mm/sec CNT0    ;
   700:L P[700] 100mm/sec CNT0    ;
   701:L P[701] 100mm/sec CNT0    ;
   702:L P[702] 100mm/sec CNT0    ;
   703:L P[703] 100mm/sec CNT0    ;
   704:L P[704] 100mm/sec CNT0    ;
   705:L P[705] 100mm/sec CNT0    ;
   706:L P[706] 100mm/sec CNT0    ;
   707:L P[707] 100mm/sec CNT0    ;
   708:L P[708] 100mm/sec CNT0    ;
   709:L P[709] 100mm/sec CNT0    ;
   710:L P[710] 100mm/sec CNT0    ;
   711:L P[711] 100mm/sec CNT0    ;
   712:L P[712] 100mm/sec CNT0    ;
   713:L P[713] 100mm/sec CNT0    ;
   714:L P[714] 100mm/sec CNT0    ;
   715:L P[715] 100mm/sec CNT0    ;
   716:L P[716] 100mm/sec CNT0    ;
   717:L P[717] 100mm/sec CNT0    ;
   718:L P[718] 100mm/sec CNT0    ;
   719:L P[719] 100mm/sec CNT0    ;
   720:L P[720] 100mm/sec CNT0    ;
   721:L P[721] 100mm/sec CNT0    ;
   722:L P[722] 100mm/sec CNT0    ;
   723:L P[723] 100mm/sec CNT0    ;
   724:L P[724] 100mm/sec CNT0    ;
   725:L P[725] 100mm/sec CNT0    ;
   726:L P[726] 100mm/sec CNT0    ;
   727:L P[727] 100mm/sec CNT0    ;
   728:L P[728] 100mm/sec CNT0    ;
   729:L P[729] 100mm/sec CNT0    ;
   730:L P[730] 100mm/sec CNT0    ;
   731:L P[731] 100mm/sec CNT0    ;
   732:L P[732] 100mm/sec CNT0    ;
   733:L P[733] 100mm/sec CNT0    ;
   734:L P[734] 100mm/sec CNT0    ;
   735:L P[735] 100mm/sec CNT0    ;
   736:L P[736] 100mm/sec CNT0    ;
   737:L P[737] 100mm/sec CNT0    ;
   738:L P[738] 100mm/sec CNT0    ;
   739:L P[739] 100mm/sec CNT0    ;
   740:L P[740] 100mm/sec CNT0    ;
   741:L P[741] 100mm/sec CNT0    ;
   742:L P[742] 100mm/sec CNT0    ;
   743:L P[743] 100mm/sec CNT0    ;
   744:L P[744] 100mm/sec CNT0    ;
   745:L P[745] 100mm/sec CNT0    ;
   746:L P[746] 100mm/sec CNT0    ;
   747:L P[747] 100mm/sec CNT0    ;
   748:L P[748] 100mm/sec CNT0    ;
   749:L P[749] 100mm/sec CNT0    ;
   750:L P[750] 100mm/sec CNT0    ;
   751:L P[751] 100mm/sec CNT0    ;
   752:L P[752] 100mm/sec CNT0    ;
   753:L P[753] 100mm/sec CNT0    ;
   754:L P[754] 100mm/sec CNT0    ;
   755:L P[755] 100mm/sec CNT0    ;
   756:L P[756] 100mm/sec CNT0    ;
   757:L P[757] 100mm/sec CNT0    ;
   758:L P[758] 100mm/sec CNT0    ;
   759:L P[759] 100mm/sec CNT0    ;
   760:L P[760] 100mm/sec CNT0    ;
   761:L P[761] 100mm/sec CNT0    ;
   762:L P[762] 100mm/sec CNT0    ;
   763:L P[763] 100mm/sec CNT0    ;
   764:L P[764] 100mm/sec CNT0    ;
   765:L P[765] 100mm/sec CNT0    ;
   766:L P[766] 100mm/sec CNT0    ;
   767:L P[767] 100mm/sec CNT0    ;
   768:L P[768] 100mm/sec CNT0    ;
   769:L P[769] 100mm/sec CNT0    ;
   770:L P[770] 100mm/sec CNT0    ;
   771:L P[771] 100mm/sec CNT0    ;
   772:L P[772] 100mm/sec CNT0    ;
   773:L P[773] 100mm/sec CNT0    ;
   774:L P[774] 100mm/sec CNT0    ;
   775:L P[775] 100mm/sec CNT0    ;
   776:L P[776] 100mm/sec CNT0    ;
   777:L P[777] 100mm/sec CNT0    ;
   778:L P[778] 100mm/sec CNT0    ;
   779:L P[779] 100mm/sec CNT0    ;
   780:L P[780] 100mm/sec CNT0    ;
   781:L P[781] 100mm/sec CNT0    ;
   782:L P[782] 100mm/sec CNT0    ;
   783:L P[783] 100mm/sec CNT0    ;
   784:L P[784] 100mm/sec CNT0    ;
   785:L P[785] 100mm/sec CNT0    ;
   786:L P[786] 100mm/sec CNT0    ;
   787:L P[787] 100mm/sec CNT0    ;
   788:L P[788] 100mm/sec CNT0    ;
   789:L P[789] 100mm/sec CNT0    ;
   790:L P[790] 100mm/sec CNT0    ;
   791:L P[791] 100mm/sec CNT0    ;
   792:L P[792] 100mm/sec CNT0    ;
   793:L P[793] 100mm/sec CNT0    ;
   794:L P[794] 100mm/sec CNT0    ;
   795:L P[795] 100mm/sec CNT0    ;
   796:L P[796] 100mm/sec CNT0    ;
   797:L P[797] 100mm/sec CNT0    ;
   798:L P[798] 100mm/sec CNT0    ;
   799:L P[799] 100mm/sec CNT0    ;
   800:L P[800] 100mm/sec CNT0    ;
   801:L P[801] 100mm/sec CNT0    ;
   802:L P[802] 100mm/sec CNT0    ;
   803:L P[803] 100mm/sec CNT0    ;
   804:L P[804] 100mm/sec CNT0    ;
   805:L P[805] 100mm/sec CNT0    ;
   806:L P[806] 100mm/sec CNT0    ;
   807:L P[807] 100mm/sec CNT0    ;
   808:L P[808] 100mm/sec CNT0    ;
   809:L P[809] 100mm/sec CNT0    ;
   810:L P[810] 100mm/sec CNT0    ;
   811:L P[811] 100mm/sec CNT0    ;
   812:L P[812] 100mm/sec CNT0    ;
   813:L P[813] 100mm/sec CNT0    ;
   814:L P[814] 100mm/sec CNT0    ;
   815:L P[815] 100mm/sec CNT0    ;
   816:L P[816] 100mm/sec CNT0    ;
   817:L P[817] 100mm/sec CNT0    ;
   818:L P[818] 100mm/sec CNT0    ;
   819:L P[819] 100mm/sec CNT0    ;
   820:L P[820] 100mm/sec CNT0    ;
   821:L P[821] 100mm/sec CNT0    ;
   822:L P[822] 100mm/sec CNT0    ;
   823:L P[823] 100mm/sec CNT0    ;
   824:L P[824] 100mm/sec CNT0    ;
   825:L P[825] 100mm/sec CNT0    ;
   826:L P[826] 100mm/sec CNT0    ;
   827:L P[827] 100mm/sec CNT0    ;
   828:L P[828] 100mm/sec CNT0    ;
   829:L P[829] 100mm/sec CNT0    ;
   830:L P[830] 100mm/sec CNT0    ;
   831:L P[831] 100mm/sec CNT0    ;
   832:L P[832] 100mm/sec CNT0    ;
   833:L P[833] 100mm/sec CNT0    ;
   834:L P[834] 100mm/sec CNT0    ;
   835:L P[835] 100mm/sec CNT0    ;
   836:L P[836] 100mm/sec CNT0    ;
   837:L P[837] 100mm/sec CNT0    ;
   838:L P[838] 100mm/sec CNT0    ;
   839:L P[839] 100mm/sec CNT0    ;
   840:L P[840] 100mm/sec CNT0    ;
   841:L P[841] 100mm/sec CNT0    ;
   842:L P[842] 100mm/sec CNT0    ;
   843:L P[843] 100mm/sec CNT0    ;
   844:L P[844] 100mm/sec CNT0    ;
   845:L P[845] 100mm/sec CNT0    ;
   846:L P[846] 100mm/sec CNT0    ;
   847:L P[847] 100mm/sec CNT0    ;
   848:L P[848] 100mm/sec CNT0    ;
   849:L P[849] 100mm/sec CNT0    ;
   850:L P[850] 100mm/sec CNT0    ;
   851:L P[851] 100mm/sec CNT0    ;
   852:L P[852] 100mm/sec CNT0    ;
   853:L P[853] 100mm/sec CNT0    ;
   854:L P[854] 100mm/sec CNT0    ;
   855:L P[855] 100mm/sec CNT0    ;
   856:L P[856] 100mm/sec CNT0    ;
   857:L P[857] 100mm/sec CNT0    ;
   858:L P[858] 100mm/sec CNT0    ;
   859:L P[859] 100mm/sec CNT0    ;
   860:L P[860] 100mm/sec CNT0    ;
   861:L P[861] 100mm/sec CNT0    ;
   862:L P[862] 100mm/sec CNT0    ;
   863:L P[863] 100mm/sec CNT0    ;
   864:L P[864] 100mm/sec CNT0    ;
   865:L P[865] 100mm/sec CNT0    ;
   866:L P[866] 100mm/sec CNT0    ;
   867:L P[867] 100mm/sec CNT0    ;
   868:L P[868] 100mm/sec CNT0    ;
   869:L P[869] 100mm/sec CNT0    ;
   870:L P[870] 100mm/sec CNT0    ;
   871:L P[871] 100mm/sec CNT0    ;
   872:L P[872] 100mm/sec CNT0    ;
   873:L P[873] 100mm/sec CNT0    ;
   874:L P[874] 100mm/sec CNT0    ;
   875:L P[875] 100mm/sec CNT0    ;
   876:L P[876] 100mm/sec CNT0    ;
   877:L P[877] 100mm/sec CNT0    ;
   878:L P[878] 100mm/sec CNT0    ;
   879:L P[879] 100mm/sec CNT0    ;
   880:L P[880] 100mm/sec CNT0    ;
   881:L P[881] 100mm/sec CNT0    ;
   882:L P[882] 100mm/sec CNT0    ;
   883:L P[883] 100mm/sec CNT0    ;
   884:L P[884] 100mm/sec CNT0    ;
   885:L P[885] 100mm/sec CNT0    ;
   886:L P[886] 100mm/sec CNT0    ;
   887:L P[887] 100mm/sec CNT0    ;
   888:L P[888] 100mm/sec CNT0    ;
   889:L P[889] 100mm/sec CNT0    ;
   890:L P[890] 100mm/sec CNT0    ;
   891:L P[891] 100mm/sec CNT0    ;
   892:L P[892] 100mm/sec CNT0    ;
   893:L P[893] 100mm/sec CNT0    ;
   894:L P[894] 100mm/sec CNT0    ;
   895:L P[895] 100mm/sec CNT0    ;
   896:L P[896] 100mm/sec CNT0    ;
   897:L P[897] 100mm/sec CNT0    ;
   898:L P[898] 100mm/sec CNT0    ;
   899:L P[899] 100mm/sec CNT0    ;
   900:L P[900] 100mm/sec CNT0    ;
   901:L P[901] 100mm/sec CNT0    ;
   902:L P[902] 100mm/sec CNT0    ;
   903:L P[903] 100mm/sec CNT0    ;
   904:L P[904] 100mm/sec CNT0    ;
   905:L P[905] 100mm/sec CNT0    ;
   906:L P[906] 100mm/sec CNT0    ;
   907:L P[907] 100mm/sec CNT0    ;
   908:L P[908] 100mm/sec CNT0    ;
   909:L P[909] 100mm/sec CNT0    ;
   910:L P[910] 100mm/sec CNT0    ;
   911:L P[911] 100mm/sec CNT0    ;
   912:L P[912] 100mm/sec CNT0    ;
   913:L P[913] 100mm/sec CNT0    ;
   914:L P[914] 100mm/sec CNT0    ;
   915:L P[915] 100mm/sec CNT0    ;
   916:L P[916] 100mm/sec CNT0    ;
   917:L P[917] 100mm/sec CNT0    ;
   918:L P[918] 100mm/sec CNT0    ;
   919:L P[919] 100mm/sec CNT0    ;
   920:L P[920] 100mm/sec CNT0    ;
   921:L P[921] 100mm/sec CNT0    ;
   922:L P[922] 100mm/sec CNT0    ;
   923:L P[923] 100mm/sec CNT0    ;
   924:L P[924] 100mm/sec CNT0    ;
   925:L P[925] 100mm/sec CNT0    ;
   926:L P[926] 100mm/sec CNT0    ;
   927:L P[927] 100mm/sec CNT0    ;
   928:L P[928] 100mm/sec CNT0    ;
   929:L P[929] 100mm/sec CNT0    ;
   930:L P[930] 100mm/sec CNT0    ;
   931:L P[931] 100mm/sec CNT0    ;
   932:L P[932] 100mm/sec CNT0    ;
   933:L P[933] 100mm/sec CNT0    ;
   934:L P[934] 100mm/sec CNT0    ;
   935:L P[935] 100mm/sec CNT0    ;
   936:L P[936] 100mm/sec CNT0    ;
   937:L P[937] 100mm/sec CNT0    ;
   938:L P[938] 100mm/sec CNT0    ;
   939:L P[939] 100mm/sec CNT0    ;
   940:L P[940] 100mm/sec CNT0    ;
   941:L P[941] 100mm/sec CNT0    ;
   942:L P[942] 100mm/sec CNT0    ;
   943:L P[943] 100mm/sec CNT0    ;
   944:L P[944] 100mm/sec CNT0    ;
   945:L P[945] 100mm/sec CNT0    ;
   946:L P[946] 100mm/sec CNT0    ;
   947:L P[947] 100mm/sec CNT0    ;
   948:L P[948] 100mm/sec CNT0    ;
   949:L P[949] 100mm/sec CNT0    ;
   950:L P[950] 100mm/sec CNT0    ;
   951:L P[951] 100mm/sec CNT0    ;
   952:L P[952] 100mm/sec CNT0    ;
   953:L P[953] 100mm/sec CNT0    ;
   954:L P[954] 100mm/sec CNT0    ;
   955:L P[955] 100mm/sec CNT0    ;
   956:L P[956] 100mm/sec CNT0    ;
   957:L P[957] 100mm/sec CNT0    ;
   958:L P[958] 100mm/sec CNT0    ;
   959:L P[959] 100mm/sec CNT0    ;
   960:L P[960] 100mm/sec CNT0    ;
   961:L P[961] 100mm/sec CNT0    ;
   962:L P[962] 100mm/sec CNT0    ;
   963:L P[963] 100mm/sec CNT0    ;
   964:L P[964] 100mm/sec CNT0    ;
   965:L P[965] 100mm/sec CNT0    ;
   966:L P[966] 100mm/sec CNT0    ;
   967:L P[967] 100mm/sec CNT0    ;
   968:L P[968] 100mm/sec CNT0    ;
   969:L P[969] 100mm/sec CNT0    ;
   970:L P[970] 100mm/sec CNT0    ;
   971:L P[971] 100mm/sec CNT0    ;
   972:L P[972] 100mm/sec CNT0    ;
   973:L P[973] 100mm/sec CNT0    ;
   974:L P[974] 100mm/sec CNT0    ;
   975:L P[975] 100mm/sec CNT0    ;
   976:L P[976] 100mm/sec CNT0    ;
   977:L P[977] 100mm/sec CNT0    ;
   978:L P[978] 100mm/sec CNT0    ;
   979:L P[979] 100mm/sec CNT0    ;
   980:L P[980] 100mm/sec CNT0    ;
   981:L P[981] 100mm/sec CNT0    ;
   982:L P[982] 100mm/sec CNT0    ;
   983:L P[983] 100mm/sec CNT0    ;
   984:L P[984] 100mm/sec CNT0    ;
   985:L P[985] 100mm/sec CNT0    ;
   986:L P[986] 100mm/sec CNT0    ;
   987:L P[987] 100mm/sec CNT0    ;
   988:L P[988] 100mm/sec CNT0    ;
   989:L P[989] 100mm/sec CNT0    ;
   990:L P[990] 100mm/sec CNT0    ;
   991:L P[991] 100mm/sec CNT0    ;
   992:L P[992] 100mm/sec CNT0    ;
   993:L P[993] 100mm/sec CNT0    ;
   994:L P[994] 100mm/sec CNT0    ;
   995:L P[995] 100mm/sec CNT0    ;
   996:L P[996] 100mm/sec CNT0    ;
   997:L P[997] 100mm/sec CNT0    ;
   998:L P[998] 100mm/sec CNT0    ;
   999:L P[999] 100mm/sec CNT0    ;
   1000:L P[1000] 100mm/sec CNT0    ;
   1001:L P[1001] 100mm/sec CNT0    ;
   1002:L P[1002] 100mm/sec CNT0    ;
   1003:L P[1003] 100mm/sec CNT0    ;
   1004:L P[1004] 100mm/sec CNT0    ;
   1005:L P[1005] 100mm/sec CNT0    ;
   1006:L P[1006] 100mm/sec CNT0    ;
   1007:L P[1007] 100mm/sec CNT0    ;
   1008:L P[1008] 100mm/sec CNT0    ;
   1009:L P[1009] 100mm/sec CNT0    ;
   1010:L P[1010] 100mm/sec CNT0    ;
   1011:L P[1011] 100mm/sec CNT0    ;
   1012:L P[1012] 100mm/sec CNT0    ;
   1013:L P[1013] 100mm/sec CNT0    ;
   1014:L P[1014] 100mm/sec CNT0    ;
   1015:L P[1015] 100mm/sec CNT0    ;
   1016:L P[1016] 100mm/sec CNT0    ;
   1017:L P[1017] 100mm/sec CNT0    ;
   1018:L P[1018] 100mm/sec CNT0    ;
   1019:L P[1019] 100mm/sec CNT0    ;
   1020:L P[1020] 100mm/sec CNT0    ;
   1021:L P[1021] 100mm/sec CNT0    ;
   1022:L P[1022] 100mm/sec CNT0    ;
   1023:L P[1023] 100mm/sec CNT0    ;
   1024:L P[1024] 100mm/sec CNT0    ;
   1025:L P[1025] 100mm/sec CNT0    ;
   1026:L P[1026] 100mm/sec CNT0    ;
   1027:L P[1027] 100mm/sec CNT0    ;
   1028:L P[1028] 100mm/sec CNT0    ;
   1029:L P[1029] 100mm/sec CNT0    ;
   1030:L P[1030] 100mm/sec CNT0    ;
   1031:L P[1031] 100mm/sec CNT0    ;
   1032:L P[1032] 100mm/sec CNT0    ;
   1033:L P[1033] 100mm/sec CNT0    ;
   1034:L P[1034] 100mm/sec CNT0    ;
   1035:L P[1035] 100mm/sec CNT0    ;
   1036:L P[1036] 100mm/sec CNT0    ;
   1037:L P[1037] 100mm/sec CNT0    ;
   1038:L P[1038] 100mm/sec CNT0    ;
   1039:L P[1039] 100mm/sec CNT0    ;
   1040:L P[1040] 100mm/sec CNT0    ;
   1041:L P[1041] 100mm/sec CNT0    ;
   1042:L P[1042] 100mm/sec CNT0    ;
   1043:L P[1043] 100mm/sec CNT0    ;
   1044:L P[1044] 100mm/sec CNT0    ;
   1045:L P[1045] 100mm/sec CNT0    ;
   1046:L P[1046] 100mm/sec CNT0    ;
   1047:L P[1047] 100mm/sec CNT0    ;
   1048:L P[1048] 100mm/sec CNT0    ;
   1049:L P[1049] 100mm/sec CNT0    ;
   1050:L P[1050] 100mm/sec CNT0    ;
   1051:L P[1051] 100mm/sec CNT0    ;
   1052:L P[1052] 100mm/sec CNT0    ;
   1053:L P[1053] 100mm/sec CNT0    ;
   1054:L P[1054] 100mm/sec CNT0    ;
   1055:L P[1055] 100mm/sec CNT0    ;
   1056:L P[1056] 100mm/sec CNT0    ;
   1057:L P[1057] 100mm/sec CNT0    ;
   1058:L P[1058] 100mm/sec CNT0    ;
   1059:L P[1059] 100mm/sec CNT0    ;
   1060:L P[1060] 100mm/sec CNT0    ;
   1061:L P[1061] 100mm/sec CNT0    ;
   1062:L P[1062] 100mm/sec CNT0    ;
   1063:L P[1063] 100mm/sec CNT0    ;
   1064:L P[1064] 100mm/sec CNT0    ;
   1065:L P[1065] 100mm/sec CNT0    ;
   1066:L P[1066] 100mm/sec CNT0    ;
   1067:L P[1067] 100mm/sec CNT0    ;
   1068:L P[1068] 100mm/sec CNT0    ;
   1069:L P[1069] 100mm/sec CNT0    ;
   1070:L P[1070] 100mm/sec CNT0    ;
   1071:L P[1071] 100mm/sec CNT0    ;
   1072:L P[1072] 100mm/sec CNT0    ;
   1073:L P[1073] 100mm/sec CNT0    ;
   1074:L P[1074] 100mm/sec CNT0    ;
   1075:L P[1075] 100mm/sec CNT0    ;
   1076:L P[1076] 100mm/sec CNT0    ;
   1077:L P[1077] 100mm/sec CNT0    ;
   1078:L P[1078] 100mm/sec CNT0    ;
   1079:L P[1079] 100mm/sec CNT0    ;
   1080:L P[1080] 100mm/sec CNT0    ;
   1081:L P[1081] 100mm/sec CNT0    ;
   1082:L P[1082] 100mm/sec CNT0    ;
   1083:L P[1083] 100mm/sec CNT0    ;
   1084:L P[1084] 100mm/sec CNT0    ;
   1085:L P[1085] 100mm/sec CNT0    ;
   1086:L P[1086] 100mm/sec CNT0    ;
   1087:L P[1087] 100mm/sec CNT0    ;
   1088:L P[1088] 100mm/sec CNT0    ;
   1089:L P[1089] 100mm/sec CNT0    ;
   1090:L P[1090] 100mm/sec CNT0    ;
   1091:L P[1091] 100mm/sec CNT0    ;
   1092:L P[1092] 100mm/sec CNT0    ;
   1093:L P[1093] 100mm/sec CNT0    ;
   1094:L P[1094] 100mm/sec CNT0    ;
   1095:L P[1095] 100mm/sec CNT0    ;
   1096:L P[1096] 100mm/sec CNT0    ;
   1097:L P[1097] 100mm/sec CNT0    ;
   1098:L P[1098] 100mm/sec CNT0    ;
   1099:L P[1099] 100mm/sec CNT0    ;
   1100:L P[1100] 100mm/sec CNT0    ;
   1101:L P[1101] 100mm/sec CNT0    ;
   1102:L P[1102] 100mm/sec CNT0    ;
   1103:L P[1103] 100mm/sec CNT0    ;
   1104:L P[1104] 100mm/sec CNT0    ;
   1105:L P[1105] 100mm/sec CNT0    ;
   1106:L P[1106] 100mm/sec CNT0    ;
   1107:L P[1107] 100mm/sec CNT0    ;
   1108:L P[1108] 100mm/sec CNT0    ;
   1109:L P[1109] 100mm/sec CNT0    ;
   1110:L P[1110] 100mm/sec CNT0    ;
   1111:L P[1111] 100mm/sec CNT0    ;
   1112:L P[1112] 100mm/sec CNT0    ;
   1113:L P[1113] 100mm/sec CNT0    ;
   1114:L P[1114] 100mm/sec CNT0    ;
   1115:L P[1115] 100mm/sec CNT0    ;
   1116:L P[1116] 100mm/sec CNT0    ;
   1117:L P[1117] 100mm/sec CNT0    ;
   1118:L P[1118] 100mm/sec CNT0    ;
   1119:L P[1119] 100mm/sec CNT0    ;
   1120:L P[1120] 100mm/sec CNT0    ;
   1121:L P[1121] 100mm/sec CNT0    ;
   1122:L P[1122] 100mm/sec CNT0    ;
   1123:L P[1123] 100mm/sec CNT0    ;
   1124:L P[1124] 100mm/sec CNT0    ;
   1125:L P[1125] 100mm/sec CNT0    ;
   1126:L P[1126] 100mm/sec CNT0    ;
   1127:L P[1127] 100mm/sec CNT0    ;
   1128:L P[1128] 100mm/sec CNT0    ;
   1129:L P[1129] 100mm/sec CNT0    ;
   1130:L P[1130] 100mm/sec CNT0    ;
   1131:L P[1131] 100mm/sec CNT0    ;
   1132:L P[1132] 100mm/sec CNT0    ;
   1133:L P[1133] 100mm/sec CNT0    ;
   1134:L P[1134] 100mm/sec CNT0    ;
   1135:L P[1135] 100mm/sec CNT0    ;
   1136:L P[1136] 100mm/sec CNT0    ;
   1137:L P[1137] 100mm/sec CNT0    ;
   1138:L P[1138] 100mm/sec CNT0    ;
   1139:L P[1139] 100mm/sec CNT0    ;
   1140:L P[1140] 100mm/sec CNT0    ;
   1141:L P[1141] 100mm/sec CNT0    ;
   1142:L P[1142] 100mm/sec CNT0    ;
   1143:L P[1143] 100mm/sec CNT0    ;
   1144:L P[1144] 100mm/sec CNT0    ;
   1145:L P[1145] 100mm/sec CNT0    ;
   1146:L P[1146] 100mm/sec CNT0    ;
   1147:L P[1147] 100mm/sec CNT0    ;
   1148:L P[1148] 100mm/sec CNT0    ;
   1149:L P[1149] 100mm/sec CNT0    ;
   1150:L P[1150] 100mm/sec CNT0    ;
   1151:L P[1151] 100mm/sec CNT0    ;
   1152:L P[1152] 100mm/sec CNT0    ;
   1153:L P[1153] 100mm/sec CNT0    ;
   1154:L P[1154] 100mm/sec CNT0    ;
   1155:L P[1155] 100mm/sec CNT0    ;
   1156:L P[1156] 100mm/sec CNT0    ;
   1157:L P[1157] 100mm/sec CNT0    ;
   1158:L P[1158] 100mm/sec CNT0    ;
   1159:L P[1159] 100mm/sec CNT0    ;
   1160:L P[1160] 100mm/sec CNT0    ;
   1161:L P[1161] 100mm/sec CNT0    ;
   1162:L P[1162] 100mm/sec CNT0    ;
   1163:L P[1163] 100mm/sec CNT0    ;
   1164:L P[1164] 100mm/sec CNT0    ;
   1165:L P[1165] 100mm/sec CNT0    ;
   1166:L P[1166] 100mm/sec CNT0    ;
   1167:L P[1167] 100mm/sec CNT0    ;
   1168:L P[1168] 100mm/sec CNT0    ;
   1169:L P[1169] 100mm/sec CNT0    ;
   1170:L P[1170] 100mm/sec CNT0    ;
   1171:L P[1171] 100mm/sec CNT0    ;
   1172:L P[1172] 100mm/sec CNT0    ;
   1173:L P[1173] 100mm/sec CNT0    ;
   1174:L P[1174] 100mm/sec CNT0    ;
   1175:L P[1175] 100mm/sec CNT0    ;
   1176:L P[1176] 100mm/sec CNT0    ;
   1177:L P[1177] 100mm/sec CNT0    ;
   1178:L P[1178] 100mm/sec CNT0    ;
   1179:L P[1179] 100mm/sec CNT0    ;
   1180:L P[1180] 100mm/sec CNT0    ;
   1181:L P[1181] 100mm/sec CNT0    ;
   1182:L P[1182] 100mm/sec CNT0    ;
   1183:L P[1183] 100mm/sec CNT0    ;
   1184:L P[1184] 100mm/sec CNT0    ;
   1185:L P[1185] 100mm/sec CNT0    ;
   1186:L P[1186] 100mm/sec CNT0    ;
   1187:L P[1187] 100mm/sec CNT0    ;
   1188:L P[1188] 100mm/sec CNT0    ;
   1189:L P[1189] 100mm/sec CNT0    ;
   1190:L P[1190] 100mm/sec CNT0    ;
   1191:L P[1191] 100mm/sec CNT0    ;
   1192:L P[1192] 100mm/sec CNT0    ;
   1193:L P[1193] 100mm/sec CNT0    ;
   1194:L P[1194] 100mm/sec CNT0    ;
   1195:L P[1195] 100mm/sec CNT0    ;
   1196:L P[1196] 100mm/sec CNT0    ;
   1197:L P[1197] 100mm/sec CNT0    ;
   1198:L P[1198] 100mm/sec CNT0    ;
   1199:L P[1199] 100mm/sec CNT0    ;
   1200:L P[1200] 100mm/sec CNT0    ;
   1201:L P[1201] 100mm/sec CNT0    ;
   1202:L P[1202] 100mm/sec CNT0    ;
   1203:L P[1203] 100mm/sec CNT0    ;
   1204:L P[1204] 100mm/sec CNT0    ;
   1205:L P[1205] 100mm/sec CNT0    ;
   1206:L P[1206] 100mm/sec CNT0    ;
   1207:L P[1207] 100mm/sec CNT0    ;
   1208:L P[1208] 100mm/sec CNT0    ;
   1209:L P[1209] 100mm/sec CNT0    ;
   1210:L P[1210] 100mm/sec CNT0    ;
   1211:L P[1211] 100mm/sec CNT0    ;
   1212:L P[1212] 100mm/sec CNT0    ;
   1213:L P[1213] 100mm/sec CNT0    ;
   1214:L P[1214] 100mm/sec CNT0    ;
   1215:L P[1215] 100mm/sec CNT0    ;
   1216:L P[1216] 100mm/sec CNT0    ;
   1217:L P[1217] 100mm/sec CNT0    ;
   1218:L P[1218] 100mm/sec CNT0    ;
   1219:L P[1219] 100mm/sec CNT0    ;
   1220:L P[1220] 100mm/sec CNT0    ;
   1221:L P[1221] 100mm/sec CNT0    ;
   1222:L P[1222] 100mm/sec CNT0    ;
   1223:L P[1223] 100mm/sec CNT0    ;
   1224:L P[1224] 100mm/sec CNT0    ;
   1225:L P[1225] 100mm/sec CNT0    ;
   1226:L P[1226] 100mm/sec CNT0    ;
   1227:L P[1227] 100mm/sec CNT0    ;
   1228:L P[1228] 100mm/sec CNT0    ;
   1229:L P[1229] 100mm/sec CNT0    ;
   1230:L P[1230] 100mm/sec CNT0    ;
   1231:L P[1231] 100mm/sec CNT0    ;
   1232:L P[1232] 100mm/sec CNT0    ;
   1233:L P[1233] 100mm/sec CNT0    ;
   1234:L P[1234] 100mm/sec CNT0    ;
   1235:L P[1235] 100mm/sec CNT0    ;
   1236:L P[1236] 100mm/sec CNT0    ;
   1237:L P[1237] 100mm/sec CNT0    ;
   1238:L P[1238] 100mm/sec CNT0    ;
   1239:L P[1239] 100mm/sec CNT0    ;
   1240:L P[1240] 100mm/sec CNT0    ;
   1241:L P[1241] 100mm/sec CNT0    ;
   1242:L P[1242] 100mm/sec CNT0    ;
   1243:L P[1243] 100mm/sec CNT0    ;
   1244:L P[1244] 100mm/sec CNT0    ;
   1245:L P[1245] 100mm/sec CNT0    ;
   1246:L P[1246] 100mm/sec CNT0    ;
   1247:L P[1247] 100mm/sec CNT0    ;
   1248:L P[1248] 100mm/sec CNT0    ;
   1249:L P[1249] 100mm/sec CNT0    ;
   1250:L P[1250] 100mm/sec CNT0    ;
   1251:L P[1251] 100mm/sec CNT0    ;
   1252:L P[1252] 100mm/sec CNT0    ;
   1253:L P[1253] 100mm/sec CNT0    ;
   1254:L P[1254] 100mm/sec CNT0    ;
   1255:L P[1255] 100mm/sec CNT0    ;
   1256:L P[1256] 100mm/sec CNT0    ;
   1257:L P[1257] 100mm/sec CNT0    ;
   1258:L P[1258] 100mm/sec CNT0    ;
   1259:L P[1259] 100mm/sec CNT0    ;
   1260:L P[1260] 100mm/sec CNT0    ;
   1261:L P[1261] 100mm/sec CNT0    ;
   1262:L P[1262] 100mm/sec CNT0    ;
   1263:L P[1263] 100mm/sec CNT0    ;
   1264:L P[1264] 100mm/sec CNT0    ;
   1265:L P[1265] 100mm/sec CNT0    ;
   1266:L P[1266] 100mm/sec CNT0    ;
   1267:L P[1267] 100mm/sec CNT0    ;
   1268:L P[1268] 100mm/sec CNT0    ;
   1269:L P[1269] 100mm/sec CNT0    ;
   1270:L P[1270] 100mm/sec CNT0    ;
   1271:L P[1271] 100mm/sec CNT0    ;
   1272:L P[1272] 100mm/sec CNT0    ;
   1273:L P[1273] 100mm/sec CNT0    ;
   1274:L P[1274] 100mm/sec CNT0    ;
   1275:L P[1275] 100mm/sec CNT0    ;
   1276:L P[1276] 100mm/sec CNT0    ;
   1277:L P[1277] 100mm/sec CNT0    ;
   1278:L P[1278] 100mm/sec CNT0    ;
   1279:L P[1279] 100mm/sec CNT0    ;
   1280:L P[1280] 100mm/sec CNT0    ;
   1281:L P[1281] 100mm/sec CNT0    ;
   1282:L P[1282] 100mm/sec CNT0    ;
   1283:L P[1283] 100mm/sec CNT0    ;
   1284:L P[1284] 100mm/sec CNT0    ;
   1285:L P[1285] 100mm/sec CNT0    ;
   1286:L P[1286] 100mm/sec CNT0    ;
   1287:L P[1287] 100mm/sec CNT0    ;
   1288:L P[1288] 100mm/sec CNT0    ;
   1289:L P[1289] 100mm/sec CNT0    ;
   1290:L P[1290] 100mm/sec CNT0    ;
   1291:L P[1291] 100mm/sec CNT0    ;
   1292:L P[1292] 100mm/sec CNT0    ;
   1293:L P[1293] 100mm/sec CNT0    ;
   1294:L P[1294] 100mm/sec CNT0    ;
   1295:L P[1295] 100mm/sec CNT0    ;
   1296:L P[1296] 100mm/sec CNT0    ;
   1297:L P[1297] 100mm/sec CNT0    ;
   1298:L P[1298] 100mm/sec CNT0    ;
   1299:L P[1299] 100mm/sec CNT0    ;
   1300:L P[1300] 100mm/sec CNT0    ;
   1301:L P[1301] 100mm/sec CNT0    ;
   1302:L P[1302] 100mm/sec CNT0    ;
   1303:L P[1303] 100mm/sec CNT0    ;
   1304:L P[1304] 100mm/sec CNT0    ;
   1305:L P[1305] 100mm/sec CNT0    ;
   1306:L P[1306] 100mm/sec CNT0    ;
   1307:L P[1307] 100mm/sec CNT0    ;
   1308:L P[1308] 100mm/sec CNT0    ;
   1309:L P[1309] 100mm/sec CNT0    ;
   1310:L P[1310] 100mm/sec CNT0    ;
   1311:L P[1311] 100mm/sec CNT0    ;
   1312:L P[1312] 100mm/sec CNT0    ;
   1313:L P[1313] 100mm/sec CNT0    ;
   1314:L P[1314] 100mm/sec CNT0    ;
   1315:L P[1315] 100mm/sec CNT0    ;
   1316:L P[1316] 100mm/sec CNT0    ;
   1317:L P[1317] 100mm/sec CNT0    ;
   1318:L P[1318] 100mm/sec CNT0    ;
   1319:L P[1319] 100mm/sec CNT0    ;
   1320:L P[1320] 100mm/sec CNT0    ;
   1321:L P[1321] 100mm/sec CNT0    ;
   1322:L P[1322] 100mm/sec CNT0    ;
   1323:L P[1323] 100mm/sec CNT0    ;
   1324:L P[1324] 100mm/sec CNT0    ;
   1325:L P[1325] 100mm/sec CNT0    ;
   1326:L P[1326] 100mm/sec CNT0    ;
   1327:L P[1327] 100mm/sec CNT0    ;
   1328:L P[1328] 100mm/sec CNT0    ;
   1329:L P[1329] 100mm/sec CNT0    ;
   1330:L P[1330] 100mm/sec CNT0    ;
   1331:L P[1331] 100mm/sec CNT0    ;
   1332:L P[1332] 100mm/sec CNT0    ;
   1333:L P[1333] 100mm/sec CNT0    ;
   1334:L P[1334] 100mm/sec CNT0    ;
   1335:L P[1335] 100mm/sec CNT0    ;
   1336:L P[1336] 100mm/sec CNT0    ;
/POS
P[1]{
   GP1:
	UF : 0, UT : 6,		CONFIG : 'N U T, 0, 0, 0',
	X =  -43.232  mm,	Y =   -365.196  mm,	Z =   -242.114  mm,
	W =  90.000 deg,	P =   0.000 deg,	R =   90.000 deg
};
P[2]{
   GP1:
	UF : 0, UT : 6,		CONFIG : 'N U T, 0, 0, 0',
	X =  -30.002  mm,	Y =   -357.606  mm,	Z =   -242.233  mm,
	W =  90.000 deg,	P =   0.000 deg,	R =   90.000 deg
};
P[3]{
   GP1:
	UF : 0, UT : 6,		CONFIG : 'N U T, 0, 0, 0',
	X =  -17.088  mm,	Y =   -350.151  mm,	Z =   -242.235  mm,
	W =  90.000 deg,	P =   0.000 deg,	R =   90.000 deg
};
P[4]{
   GP1:
	UF : 0, UT : 6,		CONFIG : 'N U T, 0, 0, 0',
	X =  -4.250  mm,	Y =   -342.752  mm,	Z =   -242.268  mm,
	W =  90.000 deg,	P =   0.000 deg,	R =   90.000 deg
};
P[5]{
   GP1:
	UF : 0, UT : 6,		CONFIG : 'N U T, 0, 0, 0',
	X =  8.728  mm,	Y =   -335.283  mm,	Z =   -242.328  mm,
	W =  90.000 deg,	P =   0.000 deg,	R =   90.000 deg
};
P[6]{
   GP1:
	UF : 0, UT : 6,		CONFIG : 'N U T, 0, 0, 0',
	X =  21.681  mm,	Y =   -327.775  mm,	Z =   -242.258  mm,
	W =  90.000 deg,	P =   0.000 deg,	R =   90.000 deg
};
P[7]{
   GP1:
	UF : 0, UT : 6,		CONFIG : 'N U T, 0, 0, 0',
	X =  34.716  mm,	Y =   -320.186  mm,	Z =   -242.106  mm,
	W =  90.000 deg,	P =   0.000 deg,	R =   90.000 deg
};
P[8]{
   GP1:
	UF : 0, UT : 6,		CONFIG : 'N U T, 0, 0, 0',
	X =  47.727  mm,	Y =   -312.635  mm,	Z =   -242.009  mm,
	W =  90.000 deg,	P =   0.000 deg,	R =   90.000 deg
};
P[9]{
   GP1:
	UF : 0, UT : 6,		CONFIG : 'N U T, 0, 0, 0',
	X =  60.952  mm,	Y =   -305.120  mm,	Z =   -242.306  mm,
	W =  90.000 deg,	P =   0.000 deg,	R =   90.000 deg
};
P[10]{
   GP1:
	UF : 0, UT : 6,		CONFIG : 'N U T, 0, 0, 0',
	X =  73.694  mm,	Y =   -297.718  mm,	Z =   -242.195  mm,
	W =  90.000 deg,	P =   0.000 deg,	R =   90.000 deg
};
P[11]{
   GP1:
	UF : 0, UT : 6,		CONFIG : 'N U T, 0, 0, 0',
	X =  86.606  mm,	Y =   -290.292  mm,	Z =   -242.267  mm,
	W =  90.000 deg,	P =   0.000 deg,	R =   90.000 deg
};
P[12]{
   GP1:
	UF : 0, UT : 6,		CONFIG : 'N U T, 0, 0, 0',
	X =  99.578  mm,	Y =   -282.758  mm,	Z =   -242.159  mm,
	W =  90.000 deg,	P =   0.000 deg,	R =   90.000 deg
};
P[13]{
   GP1:
	UF : 0, UT : 6,		CONFIG : 'N U T, 0, 0, 0',
	X =  112.732  mm,	Y =   -275.153  mm,	Z =   -242.136  mm,
	W =  90.000 deg,	P =   0.000 deg,	R =   90.000 deg
};
P[14]{
   GP1:
	UF : 0, UT : 6,		CONFIG : 'N U T, 0, 0, 0',
	X =  126.030  mm,	Y =   -267.529  mm,	Z =   -242.269  mm,
	W =  90.000 deg,	P =   0.000 deg,	R =   90.000 deg
};
P[15]{
   GP1:
	UF : 0, UT : 6,		CONFIG : 'N U T, 0, 0, 0',
	X =  138.680  mm,	Y =   -260.134  mm,	Z =   -242.045  mm,
	W =  90.000 deg,	P =   0.000 deg,	R =   90.000 deg
};
P[16]{
   GP1:
	UF : 0, UT : 6,		CONFIG : 'N U T, 0, 0, 0',
	X =  151.536  mm,	Y =   -252.823  mm,	Z =   -242.319  mm,
	W =  90.000 deg,	P =   0.000 deg,	R =   90.000 deg
};
P[17]{
   GP1:
	UF : 0, UT : 6,		CONFIG : 'N U T, 0, 0, 0',
	X =  164.525  mm,	Y =   -245.259  mm,	Z =   -242.162  mm,
	W =  90.000 deg,	P =   0.000 deg,	R =   90.000 deg
};
P[18]{
   GP1:
	UF : 0, UT : 6,		CONFIG : 'N U T, 0, 0, 0',
	X =  177.500  mm,	Y =   -237.859  mm,	Z =   -242.384  mm,
	W =  90.000 deg,	P =   0.000 deg,	R =   90.000 deg
};
P[19]{
   GP1:
	UF : 0, UT : 6,		CONFIG : 'N U T, 0, 0, 0',
	X =  190.631  mm,	Y =   -230.165  mm,	Z =   -242.113  mm,
	W =  90.000 deg,	P =   0.000 deg,	R =   90.000 deg
};
P[20]{
   GP1:
	UF : 0, UT : 6,		CONFIG : 'N U T, 0, 0, 0',
	X =  203.184  mm,	Y =   -222.991  mm,	Z =   -242.291  mm,
	W =  90.000 deg,	P =   0.000 deg,	R =   90.000 deg
};
P[21]{
   GP1:
	UF : 0, UT : 6,		CONFIG : 'N U T, 0, 0, 0',
	X =  216.210  mm,	Y =   -215.372  mm,	Z =   -242.055  mm,
	W =  90.000 deg,	P =   0.000 deg,	R =   90.000 deg
};
P[22]{
   GP1:
	UF : 0, UT : 6,		CONFIG : 'N U T, 0, 0, 0',
	X =  229.776  mm,	Y =   -207.584  mm,	Z =   -242.164  mm,
	W =  90.000 deg,	P =   0.000 deg,	R =   90.000 deg
};
P[23]{
   GP1:
	UF : 0, UT : 6,		CONFIG : 'N U T, 0, 0, 0',
	X =  242.607  mm,	Y =   -200.188  mm,	Z =   -242.194  mm,
	W =  90.000 deg,	P =   0.000 deg,	R =   90.000 deg
};
P[24]{
   GP1:
	UF : 0, UT : 6,		CONFIG : 'N U T, 0, 0, 0',
	X =  255.437  mm,	Y =   -192.774  mm,	Z =   -242.177  mm,
	W =  90.000 deg,	P =   0.000 deg,	R =   90.000 deg
};
P[25]{
   GP1:
	UF : 0, UT : 6,		CONFIG : 'N U T, 0, 0, 0',
	X =  268.587  mm,	Y =   -185.180  mm,	Z =   -242.175  mm,
	W =  90.000 deg,	P =   0.000 deg,	R =   90.000 deg
};
P[26]{
   GP1:
	UF : 0, UT : 6,		CONFIG : 'N U T, 0, 0, 0',
	X =  281.390  mm,	Y =   -177.739  mm,	Z =   -242.056  mm,
	W =  90.000 deg,	P =   0.000 deg,	R =   90.000 deg
};
P[27]{
   GP1:
	UF : 0, UT : 6,		CONFIG : 'N U T, 0, 0, 0',
	X =  294.480  mm,	Y =   -170.236  mm,	Z =   -242.191  mm,
	W =  90.000 deg,	P =   0.000 deg,	R =   90.000 deg
};
P[28]{
   GP1:
	UF : 0, UT : 6,		CONFIG : 'N U T, 0, 0, 0',
	X =  307.361  mm,	Y =   -162.810  mm,	Z =   -242.219  mm,
	W =  90.000 deg,	P =   0.000 deg,	R =   90.000 deg
};
P[29]{
   GP1:
	UF : 0, UT : 6,		CONFIG : 'N U T, 0, 0, 0',
	X =  320.430  mm,	Y =   -155.237  mm,	Z =   -242.153  mm,
	W =  90.000 deg,	P =   0.000 deg,	R =   90.000 deg
};
P[30]{
   GP1:
	UF : 0, UT : 6,		CONFIG : 'N U T, 0, 0, 0',
	X =  333.299  mm,	Y =   -147.800  mm,	Z =   -242.137  mm,
	W =  90.000 deg,	P =   0.000 deg,	R =   90.000 deg
};
P[31]{
   GP1:
	UF : 0, UT : 6,		CONFIG : 'N U T, 0, 0, 0',
	X =  345.945  mm,	Y =   -140.488  mm,	Z =   -242.112  mm,
	W =  90.000 deg,	P =   0.000 deg,	R =   90.000 deg
};
P[32]{
   GP1:
	UF : 0, UT : 6,		CONFIG : 'N U T, 0, 0, 0',
	X =  359.396  mm,	Y =   -132.764  mm,	Z =   -242.214  mm,
	W =  90.000 deg,	P =   0.000 deg,	R =   90.000 deg
};
P[33]{
   GP1:
	UF : 0, UT : 6,		CONFIG : 'N U T, 0, 0, 0',
	X =  372.610  mm,	Y =   -125.115  mm,	Z =   -242.168  mm,
	W =  90.000 deg,	P =   0.000 deg,	R =   90.000 deg
};
P[34]{
   GP1:
	UF : 0, UT : 6,		CONFIG : 'N U T, 0, 0, 0',
	X =  385.589  mm,	Y =   -117.594  mm,	Z =   -242.104  mm,
	W =  90.000 deg,	P =   0.000 deg,	R =   90.000 deg
};
P[35]{
   GP1:
	UF : 0, UT : 6,		CONFIG : 'N U T, 0, 0, 0',
	X =  398.494  mm,	Y =   -110.221  mm,	Z =   -242.293  mm,
	W =  90.000 deg,	P =   0.000 deg,	R =   90.000 deg
};
P[36]{
   GP1:
	UF : 0, UT : 6,		CONFIG : 'N U T, 0, 0, 0',
	X =  411.712  mm,	Y =   -102.537  mm,	Z =   -242.166  mm,
	W =  90.000 deg,	P =   0.000 deg,	R =   90.000 deg
};
P[37]{
   GP1:
	UF : 0, UT : 6,		CONFIG : 'N U T, 0, 0, 0',
	X =  424.856  mm,	Y =   -95.385  mm,	Z =   -242.158  mm,
	W =  90.000 deg,	P =   0.000 deg,	R =   90.000 deg
};
P[38]{
   GP1:
	UF : 0, UT : 6,		CONFIG : 'N U T, 0, 0, 0',
	X =  -56.249  mm,	Y =   -373.208  mm,	Z =   -242.242  mm,
	W =  90.000 deg,	P =   0.000 deg,	R =   90.000 deg
};
P[39]{
   GP1:
	UF : 0, UT : 6,		CONFIG : 'N U T, 0, 0, 0',
	X =  -62.794  mm,	Y =   -380.817  mm,	Z =   -241.926  mm,
	W =  90.000 deg,	P =   0.000 deg,	R =   90.000 deg
};
P[40]{
   GP1:
	UF : 0, UT : 6,		CONFIG : 'N U T, 0, 0, 0',
	X =  -53.543  mm,	Y =   -375.529  mm,	Z =   -250.962  mm,
	W =  90.000 deg,	P =   0.000 deg,	R =   90.000 deg
};
P[41]{
   GP1:
	UF : 0, UT : 6,		CONFIG : 'N U T, 0, 0, 0',
	X =  -41.580  mm,	Y =   -368.376  mm,	Z =   -252.146  mm,
	W =  90.000 deg,	P =   0.000 deg,	R =   90.000 deg
};
P[42]{
   GP1:
	UF : 0, UT : 6,		CONFIG : 'N U T, 0, 0, 0',
	X =  -28.556  mm,	Y =   -360.814  mm,	Z =   -252.045  mm,
	W =  90.000 deg,	P =   0.000 deg,	R =   90.000 deg
};
P[43]{
   GP1:
	UF : 0, UT : 6,		CONFIG : 'N U T, 0, 0, 0',
	X =  -15.527  mm,	Y =   -353.259  mm,	Z =   -251.966  mm,
	W =  90.000 deg,	P =   0.000 deg,	R =   90.000 deg
};
P[44]{
   GP1:
	UF : 0, UT : 6,		CONFIG : 'N U T, 0, 0, 0',
	X =  -2.350  mm,	Y =   -345.704  mm,	Z =   -252.095  mm,
	W =  90.000 deg,	P =   0.000 deg,	R =   90.000 deg
};
P[45]{
   GP1:
	UF : 0, UT : 6,		CONFIG : 'N U T, 0, 0, 0',
	X =  10.566  mm,	Y =   -338.253  mm,	Z =   -252.111  mm,
	W =  90.000 deg,	P =   0.000 deg,	R =   90.000 deg
};
P[46]{
   GP1:
	UF : 0, UT : 6,		CONFIG : 'N U T, 0, 0, 0',
	X =  23.520  mm,	Y =   -330.751  mm,	Z =   -252.058  mm,
	W =  90.000 deg,	P =   0.000 deg,	R =   90.000 deg
};
P[47]{
   GP1:
	UF : 0, UT : 6,		CONFIG : 'N U T, 0, 0, 0',
	X =  36.341  mm,	Y =   -323.175  mm,	Z =   -251.635  mm,
	W =  90.000 deg,	P =   0.000 deg,	R =   90.000 deg
};
P[48]{
   GP1:
	UF : 0, UT : 6,		CONFIG : 'N U T, 0, 0, 0',
	X =  49.331  mm,	Y =   -315.815  mm,	Z =   -251.978  mm,
	W =  90.000 deg,	P =   0.000 deg,	R =   90.000 deg
};
P[49]{
   GP1:
	UF : 0, UT : 6,		CONFIG : 'N U T, 0, 0, 0',
	X =  62.484  mm,	Y =   -308.192  mm,	Z =   -251.907  mm,
	W =  90.000 deg,	P =   0.000 deg,	R =   90.000 deg
};
P[50]{
   GP1:
	UF : 0, UT : 6,		CONFIG : 'N U T, 0, 0, 0',
	X =  75.289  mm,	Y =   -300.853  mm,	Z =   -252.041  mm,
	W =  90.000 deg,	P =   0.000 deg,	R =   90.000 deg
};
P[51]{
   GP1:
	UF : 0, UT : 6,		CONFIG : 'N U T, 0, 0, 0',
	X =  88.564  mm,	Y =   -293.142  mm,	Z =   -251.927  mm,
	W =  90.000 deg,	P =   0.000 deg,	R =   90.000 deg
};
P[52]{
   GP1:
	UF : 0, UT : 6,		CONFIG : 'N U T, 0, 0, 0',
	X =  101.358  mm,	Y =   -285.785  mm,	Z =   -252.000  mm,
	W =  90.000 deg,	P =   0.000 deg,	R =   90.000 deg
};
P[53]{
   GP1:
	UF : 0, UT : 6,		CONFIG : 'N U T, 0, 0, 0',
	X =  114.517  mm,	Y =   -278.271  mm,	Z =   -252.204  mm,
	W =  90.000 deg,	P =   0.000 deg,	R =   90.000 deg
};
P[54]{
   GP1:
	UF : 0, UT : 6,		CONFIG : 'N U T, 0, 0, 0',
	X =  127.419  mm,	Y =   -270.807  mm,	Z =   -252.170  mm,
	W =  90.000 deg,	P =   0.000 deg,	R =   90.000 deg
};
P[55]{
   GP1:
	UF : 0, UT : 6,		CONFIG : 'N U T, 0, 0, 0',
	X =  140.384  mm,	Y =   -263.223  mm,	Z =   -251.932  mm,
	W =  90.000 deg,	P =   0.000 deg,	R =   90.000 deg
};
P[56]{
   GP1:
	UF : 0, UT : 6,		CONFIG : 'N U T, 0, 0, 0',
	X =  153.559  mm,	Y =   -255.691  mm,	Z =   -252.112  mm,
	W =  90.000 deg,	P =   0.000 deg,	R =   90.000 deg
};
P[57]{
   GP1:
	UF : 0, UT : 6,		CONFIG : 'N U T, 0, 0, 0',
	X =  166.272  mm,	Y =   -248.324  mm,	Z =   -252.049  mm,
	W =  90.000 deg,	P =   0.000 deg,	R =   90.000 deg
};
P[58]{
   GP1:
	UF : 0, UT : 6,		CONFIG : 'N U T, 0, 0, 0',
	X =  179.297  mm,	Y =   -240.802  mm,	Z =   -252.045  mm,
	W =  90.000 deg,	P =   0.000 deg,	R =   90.000 deg
};
P[59]{
   GP1:
	UF : 0, UT : 6,		CONFIG : 'N U T, 0, 0, 0',
	X =  192.263  mm,	Y =   -233.320  mm,	Z =   -252.057  mm,
	W =  90.000 deg,	P =   0.000 deg,	R =   90.000 deg
};
P[60]{
   GP1:
	UF : 0, UT : 6,		CONFIG : 'N U T, 0, 0, 0',
	X =  205.401  mm,	Y =   -225.706  mm,	Z =   -251.987  mm,
	W =  90.000 deg,	P =   0.000 deg,	R =   90.000 deg
};
P[61]{
   GP1:
	UF : 0, UT : 6,		CONFIG : 'N U T, 0, 0, 0',
	X =  218.252  mm,	Y =   -218.327  mm,	Z =   -252.088  mm,
	W =  90.000 deg,	P =   0.000 deg,	R =   90.000 deg
};
P[62]{
   GP1:
	UF : 0, UT : 6,		CONFIG : 'N U T, 0, 0, 0',
	X =  231.292  mm,	Y =   -210.750  mm,	Z =   -251.971  mm,
	W =  90.000 deg,	P =   0.000 deg,	R =   90.000 deg
};
P[63]{
   GP1:
	UF : 0, UT : 6,		CONFIG : 'N U T, 0, 0, 0',
	X =  244.332  mm,	Y =   -203.097  mm,	Z =   -251.670  mm,
	W =  90.000 deg,	P =   0.000 deg,	R =   90.000 deg
};
P[64]{
   GP1:
	UF : 0, UT : 6,		CONFIG : 'N U T, 0, 0, 0',
	X =  257.333  mm,	Y =   -195.761  mm,	Z =   -252.085  mm,
	W =  90.000 deg,	P =   0.000 deg,	R =   90.000 deg
};
P[65]{
   GP1:
	UF : 0, UT : 6,		CONFIG : 'N U T, 0, 0, 0',
	X =  270.213  mm,	Y =   -188.290  mm,	Z =   -252.001  mm,
	W =  90.000 deg,	P =   0.000 deg,	R =   90.000 deg
};
P[66]{
   GP1:
	UF : 0, UT : 6,		CONFIG : 'N U T, 0, 0, 0',
	X =  283.001  mm,	Y =   -180.912  mm,	Z =   -252.015  mm,
	W =  90.000 deg,	P =   0.000 deg,	R =   90.000 deg
};
P[67]{
   GP1:
	UF : 0, UT : 6,		CONFIG : 'N U T, 0, 0, 0',
	X =  296.133  mm,	Y =   -173.368  mm,	Z =   -252.108  mm,
	W =  90.000 deg,	P =   0.000 deg,	R =   90.000 deg
};
P[68]{
   GP1:
	UF : 0, UT : 6,		CONFIG : 'N U T, 0, 0, 0',
	X =  309.243  mm,	Y =   -165.792  mm,	Z =   -252.092  mm,
	W =  90.000 deg,	P =   0.000 deg,	R =   90.000 deg
};
P[69]{
   GP1:
	UF : 0, UT : 6,		CONFIG : 'N U T, 0, 0, 0',
	X =  322.338  mm,	Y =   -158.180  mm,	Z =   -251.970  mm,
	W =  90.000 deg,	P =   0.000 deg,	R =   90.000 deg
};
P[70]{
   GP1:
	UF : 0, UT : 6,		CONFIG : 'N U T, 0, 0, 0',
	X =  335.339  mm,	Y =   -150.667  mm,	Z =   -251.954  mm,
	W =  90.000 deg,	P =   0.000 deg,	R =   90.000 deg
};
P[71]{
   GP1:
	UF : 0, UT : 6,		CONFIG : 'N U T, 0, 0, 0',
	X =  348.108  mm,	Y =   -143.327  mm,	Z =   -252.033  mm,
	W =  90.000 deg,	P =   0.000 deg,	R =   90.000 deg
};
P[72]{
   GP1:
	UF : 0, UT : 6,		CONFIG : 'N U T, 0, 0, 0',
	X =  361.233  mm,	Y =   -135.797  mm,	Z =   -252.150  mm,
	W =  90.000 deg,	P =   0.000 deg,	R =   90.000 deg
};
P[73]{
   GP1:
	UF : 0, UT : 6,		CONFIG : 'N U T, 0, 0, 0',
	X =  374.098  mm,	Y =   -128.331  mm,	Z =   -252.059  mm,
	W =  90.000 deg,	P =   0.000 deg,	R =   90.000 deg
};
P[74]{
   GP1:
	UF : 0, UT : 6,		CONFIG : 'N U T, 0, 0, 0',
	X =  387.211  mm,	Y =   -120.722  mm,	Z =   -251.968  mm,
	W =  90.000 deg,	P =   0.000 deg,	R =   90.000 deg
};
P[75]{
   GP1:
	UF : 0, UT : 6,		CONFIG : 'N U T, 0, 0, 0',
	X =  399.996  mm,	Y =   -113.292  mm,	Z =   -251.849  mm,
	W =  90.000 deg,	P =   0.000 deg,	R =   90.000 deg
};
P[76]{
   GP1:
	UF : 0, UT : 6,		CONFIG : 'N U T, 0, 0, 0',
	X =  413.229  mm,	Y =   -105.685  mm,	Z =   -251.931  mm,
	W =  90.000 deg,	P =   0.000 deg,	R =   90.000 deg
};
P[77]{
   GP1:
	UF : 0, UT : 6,		CONFIG : 'N U T, 0, 0, 0',
	X =  425.663  mm,	Y =   -98.899  mm,	Z =   -251.034  mm,
	W =  90.000 deg,	P =   0.000 deg,	R =   90.000 deg
};
P[78]{
   GP1:
	UF : 0, UT : 6,		CONFIG : 'N U T, 0, 0, 0',
	X =  435.318  mm,	Y =   -93.624  mm,	Z =   -241.866  mm,
	W =  90.000 deg,	P =   0.000 deg,	R =   90.000 deg
};
P[79]{
   GP1:
	UF : 0, UT : 6,		CONFIG : 'N U T, 0, 0, 0',
	X =  434.794  mm,	Y =   -95.643  mm,	Z =   -246.189  mm,
	W =  90.000 deg,	P =   0.000 deg,	R =   90.000 deg
};
P[80]{
   GP1:
	UF : 0, UT : 6,		CONFIG : 'N U T, 0, 0, 0',
	X =  -60.889  mm,	Y =   -381.979  mm,	Z =   -246.429  mm,
	W =  90.000 deg,	P =   0.000 deg,	R =   90.000 deg
};
P[81]{
   GP1:
	UF : 0, UT : 6,		CONFIG : 'N U T, 0, 0, 0',
	X =  -48.482  mm,	Y =   -375.728  mm,	Z =   -259.990  mm,
	W =  90.000 deg,	P =   0.000 deg,	R =   90.000 deg
};
P[82]{
   GP1:
	UF : 0, UT : 6,		CONFIG : 'N U T, 0, 0, 0',
	X =  -40.073  mm,	Y =   -370.872  mm,	Z =   -260.315  mm,
	W =  90.000 deg,	P =   0.000 deg,	R =   90.000 deg
};
P[83]{
   GP1:
	UF : 0, UT : 6,		CONFIG : 'N U T, 0, 0, 0',
	X =  -26.811  mm,	Y =   -363.147  mm,	Z =   -260.151  mm,
	W =  90.000 deg,	P =   0.000 deg,	R =   90.000 deg
};
P[84]{
   GP1:
	UF : 0, UT : 6,		CONFIG : 'N U T, 0, 0, 0',
	X =  -14.141  mm,	Y =   -355.891  mm,	Z =   -260.296  mm,
	W =  90.000 deg,	P =   0.000 deg,	R =   90.000 deg
};
P[85]{
   GP1:
	UF : 0, UT : 6,		CONFIG : 'N U T, 0, 0, 0',
	X =  -1.017  mm,	Y =   -348.257  mm,	Z =   -260.160  mm,
	W =  90.000 deg,	P =   0.000 deg,	R =   90.000 deg
};
P[86]{
   GP1:
	UF : 0, UT : 6,		CONFIG : 'N U T, 0, 0, 0',
	X =  12.153  mm,	Y =   -340.710  mm,	Z =   -260.299  mm,
	W =  90.000 deg,	P =   0.000 deg,	R =   90.000 deg
};
P[87]{
   GP1:
	UF : 0, UT : 6,		CONFIG : 'N U T, 0, 0, 0',
	X =  25.440  mm,	Y =   -333.003  mm,	Z =   -260.214  mm,
	W =  90.000 deg,	P =   0.000 deg,	R =   90.000 deg
};
P[88]{
   GP1:
	UF : 0, UT : 6,		CONFIG : 'N U T, 0, 0, 0',
	X =  38.275  mm,	Y =   -325.608  mm,	Z =   -260.252  mm,
	W =  90.000 deg,	P =   0.000 deg,	R =   90.000 deg
};
P[89]{
   GP1:
	UF : 0, UT : 6,		CONFIG : 'N U T, 0, 0, 0',
	X =  50.836  mm,	Y =   -318.366  mm,	Z =   -260.277  mm,
	W =  90.000 deg,	P =   0.000 deg,	R =   90.000 deg
};
P[90]{
   GP1:
	UF : 0, UT : 6,		CONFIG : 'N U T, 0, 0, 0',
	X =  63.972  mm,	Y =   -310.741  mm,	Z =   -260.179  mm,
	W =  90.000 deg,	P =   0.000 deg,	R =   90.000 deg
};
P[91]{
   GP1:
	UF : 0, UT : 6,		CONFIG : 'N U T, 0, 0, 0',
	X =  77.160  mm,	Y =   -303.167  mm,	Z =   -260.278  mm,
	W =  90.000 deg,	P =   0.000 deg,	R =   90.000 deg
};
P[92]{
   GP1:
	UF : 0, UT : 6,		CONFIG : 'N U T, 0, 0, 0',
	X =  89.733  mm,	Y =   -295.926  mm,	Z =   -260.323  mm,
	W =  90.000 deg,	P =   0.000 deg,	R =   90.000 deg
};
P[93]{
   GP1:
	UF : 0, UT : 6,		CONFIG : 'N U T, 0, 0, 0',
	X =  103.469  mm,	Y =   -287.956  mm,	Z =   -260.229  mm,
	W =  90.000 deg,	P =   0.000 deg,	R =   90.000 deg
};
P[94]{
   GP1:
	UF : 0, UT : 6,		CONFIG : 'N U T, 0, 0, 0',
	X =  115.905  mm,	Y =   -280.788  mm,	Z =   -260.258  mm,
	W =  90.000 deg,	P =   0.000 deg,	R =   90.000 deg
};
P[95]{
   GP1:
	UF : 0, UT : 6,		CONFIG : 'N U T, 0, 0, 0',
	X =  129.464  mm,	Y =   -272.938  mm,	Z =   -260.208  mm,
	W =  90.000 deg,	P =   0.000 deg,	R =   90.000 deg
};
P[96]{
   GP1:
	UF : 0, UT : 6,		CONFIG : 'N U T, 0, 0, 0',
	X =  141.929  mm,	Y =   -265.760  mm,	Z =   -260.254  mm,
	W =  90.000 deg,	P =   0.000 deg,	R =   90.000 deg
};
P[97]{
   GP1:
	UF : 0, UT : 6,		CONFIG : 'N U T, 0, 0, 0',
	X =  154.849  mm,	Y =   -258.309  mm,	Z =   -260.275  mm,
	W =  90.000 deg,	P =   0.000 deg,	R =   90.000 deg
};
P[98]{
   GP1:
	UF : 0, UT : 6,		CONFIG : 'N U T, 0, 0, 0',
	X =  167.317  mm,	Y =   -251.102  mm,	Z =   -260.255  mm,
	W =  90.000 deg,	P =   0.000 deg,	R =   90.000 deg
};
P[99]{
   GP1:
	UF : 0, UT : 6,		CONFIG : 'N U T, 0, 0, 0',
	X =  181.216  mm,	Y =   -243.079  mm,	Z =   -260.262  mm,
	W =  90.000 deg,	P =   0.000 deg,	R =   90.000 deg
};
P[100]{
   GP1:
	UF : 0, UT : 6,		CONFIG : 'N U T, 0, 0, 0',
	X =  194.158  mm,	Y =   -235.583  mm,	Z =   -260.205  mm,
	W =  90.000 deg,	P =   0.000 deg,	R =   90.000 deg
};
P[101]{
   GP1:
	UF : 0, UT : 6,		CONFIG : 'N U T, 0, 0, 0',
	X =  206.997  mm,	Y =   -228.209  mm,	Z =   -260.300  mm,
	W =  90.000 deg,	P =   0.000 deg,	R =   90.000 deg
};
P[102]{
   GP1:
	UF : 0, UT : 6,		CONFIG : 'N U T, 0, 0, 0',
	X =  219.740  mm,	Y =   -220.826  mm,	Z =   -260.238  mm,
	W =  90.000 deg,	P =   0.000 deg,	R =   90.000 deg
};
P[103]{
   GP1:
	UF : 0, UT : 6,		CONFIG : 'N U T, 0, 0, 0',
	X =  232.905  mm,	Y =   -213.251  mm,	Z =   -260.303  mm,
	W =  90.000 deg,	P =   0.000 deg,	R =   90.000 deg
};
P[104]{
   GP1:
	UF : 0, UT : 6,		CONFIG : 'N U T, 0, 0, 0',
	X =  245.253  mm,	Y =   -206.165  mm,	Z =   -260.406  mm,
	W =  90.000 deg,	P =   0.000 deg,	R =   90.000 deg
};
P[105]{
   GP1:
	UF : 0, UT : 6,		CONFIG : 'N U T, 0, 0, 0',
	X =  259.246  mm,	Y =   -198.024  mm,	Z =   -260.258  mm,
	W =  90.000 deg,	P =   0.000 deg,	R =   90.000 deg
};
P[106]{
   GP1:
	UF : 0, UT : 6,		CONFIG : 'N U T, 0, 0, 0',
	X =  271.998  mm,	Y =   -190.662  mm,	Z =   -260.260  mm,
	W =  90.000 deg,	P =   0.000 deg,	R =   90.000 deg
};
P[107]{
   GP1:
	UF : 0, UT : 6,		CONFIG : 'N U T, 0, 0, 0',
	X =  284.178  mm,	Y =   -183.598  mm,	Z =   -260.186  mm,
	W =  90.000 deg,	P =   0.000 deg,	R =   90.000 deg
};
P[108]{
   GP1:
	UF : 0, UT : 6,		CONFIG : 'N U T, 0, 0, 0',
	X =  298.913  mm,	Y =   -175.135  mm,	Z =   -260.292  mm,
	W =  90.000 deg,	P =   0.000 deg,	R =   90.000 deg
};
P[109]{
   GP1:
	UF : 0, UT : 6,		CONFIG : 'N U T, 0, 0, 0',
	X =  310.508  mm,	Y =   -168.417  mm,	Z =   -260.237  mm,
	W =  90.000 deg,	P =   0.000 deg,	R =   90.000 deg
};
P[110]{
   GP1:
	UF : 0, UT : 6,		CONFIG : 'N U T, 0, 0, 0',
	X =  324.048  mm,	Y =   -160.571  mm,	Z =   -260.167  mm,
	W =  90.000 deg,	P =   0.000 deg,	R =   90.000 deg
};
P[111]{
   GP1:
	UF : 0, UT : 6,		CONFIG : 'N U T, 0, 0, 0',
	X =  336.710  mm,	Y =   -153.236  mm,	Z =   -260.111  mm,
	W =  90.000 deg,	P =   0.000 deg,	R =   90.000 deg
};
P[112]{
   GP1:
	UF : 0, UT : 6,		CONFIG : 'N U T, 0, 0, 0',
	X =  349.430  mm,	Y =   -145.935  mm,	Z =   -260.215  mm,
	W =  90.000 deg,	P =   0.000 deg,	R =   90.000 deg
};
P[113]{
   GP1:
	UF : 0, UT : 6,		CONFIG : 'N U T, 0, 0, 0',
	X =  363.278  mm,	Y =   -138.000  mm,	Z =   -260.363  mm,
	W =  90.000 deg,	P =   0.000 deg,	R =   90.000 deg
};
P[114]{
   GP1:
	UF : 0, UT : 6,		CONFIG : 'N U T, 0, 0, 0',
	X =  376.123  mm,	Y =   -130.503  mm,	Z =   -260.167  mm,
	W =  90.000 deg,	P =   0.000 deg,	R =   90.000 deg
};
P[115]{
   GP1:
	UF : 0, UT : 6,		CONFIG : 'N U T, 0, 0, 0',
	X =  389.514  mm,	Y =   -122.792  mm,	Z =   -260.219  mm,
	W =  90.000 deg,	P =   0.000 deg,	R =   90.000 deg
};
P[116]{
   GP1:
	UF : 0, UT : 6,		CONFIG : 'N U T, 0, 0, 0',
	X =  402.017  mm,	Y =   -115.592  mm,	Z =   -260.266  mm,
	W =  90.000 deg,	P =   0.000 deg,	R =   90.000 deg
};
P[117]{
   GP1:
	UF : 0, UT : 6,		CONFIG : 'N U T, 0, 0, 0',
	X =  414.692  mm,	Y =   -108.273  mm,	Z =   -260.264  mm,
	W =  90.000 deg,	P =   0.000 deg,	R =   90.000 deg
};
P[118]{
   GP1:
	UF : 0, UT : 6,		CONFIG : 'N U T, 0, 0, 0',
	X =  423.190  mm,	Y =   -103.451  mm,	Z =   -260.130  mm,
	W =  90.000 deg,	P =   0.000 deg,	R =   90.000 deg
};
P[119]{
   GP1:
	UF : 0, UT : 6,		CONFIG : 'N U T, 0, 0, 0',
	X =  433.253  mm,	Y =   -100.934  mm,	Z =   -256.582  mm,
	W =  90.000 deg,	P =   0.000 deg,	R =   90.000 deg
};
P[120]{
   GP1:
	UF : 0, UT : 6,		CONFIG : 'N U T, 0, 0, 0',
	X =  -55.737  mm,	Y =   -383.261  mm,	Z =   -256.392  mm,
	W =  90.000 deg,	P =   0.000 deg,	R =   90.000 deg
};
P[121]{
   GP1:
	UF : 0, UT : 6,		CONFIG : 'N U T, 0, 0, 0',
	X =  -36.849  mm,	Y =   -376.315  mm,	Z =   -265.952  mm,
	W =  90.000 deg,	P =   0.000 deg,	R =   90.000 deg
};
P[122]{
   GP1:
	UF : 0, UT : 6,		CONFIG : 'N U T, 0, 0, 0',
	X =  -23.968  mm,	Y =   -368.873  mm,	Z =   -265.983  mm,
	W =  90.000 deg,	P =   0.000 deg,	R =   90.000 deg
};
P[123]{
   GP1:
	UF : 0, UT : 6,		CONFIG : 'N U T, 0, 0, 0',
	X =  -10.940  mm,	Y =   -361.375  mm,	Z =   -265.958  mm,
	W =  90.000 deg,	P =   0.000 deg,	R =   90.000 deg
};
P[124]{
   GP1:
	UF : 0, UT : 6,		CONFIG : 'N U T, 0, 0, 0',
	X =  2.283  mm,	Y =   -353.813  mm,	Z =   -265.950  mm,
	W =  90.000 deg,	P =   0.000 deg,	R =   90.000 deg
};
P[125]{
   GP1:
	UF : 0, UT : 6,		CONFIG : 'N U T, 0, 0, 0',
	X =  15.019  mm,	Y =   -346.350  mm,	Z =   -265.955  mm,
	W =  90.000 deg,	P =   0.000 deg,	R =   90.000 deg
};
P[126]{
   GP1:
	UF : 0, UT : 6,		CONFIG : 'N U T, 0, 0, 0',
	X =  28.045  mm,	Y =   -338.692  mm,	Z =   -265.958  mm,
	W =  90.000 deg,	P =   0.000 deg,	R =   90.000 deg
};
P[127]{
   GP1:
	UF : 0, UT : 6,		CONFIG : 'N U T, 0, 0, 0',
	X =  41.272  mm,	Y =   -331.315  mm,	Z =   -265.969  mm,
	W =  90.000 deg,	P =   0.000 deg,	R =   90.000 deg
};
P[128]{
   GP1:
	UF : 0, UT : 6,		CONFIG : 'N U T, 0, 0, 0',
	X =  54.126  mm,	Y =   -323.826  mm,	Z =   -266.002  mm,
	W =  90.000 deg,	P =   0.000 deg,	R =   90.000 deg
};
P[129]{
   GP1:
	UF : 0, UT : 6,		CONFIG : 'N U T, 0, 0, 0',
	X =  67.232  mm,	Y =   -316.243  mm,	Z =   -266.015  mm,
	W =  90.000 deg,	P =   0.000 deg,	R =   90.000 deg
};
P[130]{
   GP1:
	UF : 0, UT : 6,		CONFIG : 'N U T, 0, 0, 0',
	X =  80.178  mm,	Y =   -309.045  mm,	Z =   -266.038  mm,
	W =  90.000 deg,	P =   0.000 deg,	R =   90.000 deg
};
P[131]{
   GP1:
	UF : 0, UT : 6,		CONFIG : 'N U T, 0, 0, 0',
	X =  93.123  mm,	Y =   -301.549  mm,	Z =   -266.052  mm,
	W =  90.000 deg,	P =   0.000 deg,	R =   90.000 deg
};
P[132]{
   GP1:
	UF : 0, UT : 6,		CONFIG : 'N U T, 0, 0, 0',
	X =  105.998  mm,	Y =   -294.063  mm,	Z =   -265.984  mm,
	W =  90.000 deg,	P =   0.000 deg,	R =   90.000 deg
};
P[133]{
   GP1:
	UF : 0, UT : 6,		CONFIG : 'N U T, 0, 0, 0',
	X =  119.088  mm,	Y =   -286.554  mm,	Z =   -266.070  mm,
	W =  90.000 deg,	P =   0.000 deg,	R =   90.000 deg
};
P[134]{
   GP1:
	UF : 0, UT : 6,		CONFIG : 'N U T, 0, 0, 0',
	X =  132.184  mm,	Y =   -278.788  mm,	Z =   -266.011  mm,
	W =  90.000 deg,	P =   0.000 deg,	R =   90.000 deg
};
P[135]{
   GP1:
	UF : 0, UT : 6,		CONFIG : 'N U T, 0, 0, 0',
	X =  145.070  mm,	Y =   -271.460  mm,	Z =   -265.930  mm,
	W =  90.000 deg,	P =   0.000 deg,	R =   90.000 deg
};
P[136]{
   GP1:
	UF : 0, UT : 6,		CONFIG : 'N U T, 0, 0, 0',
	X =  158.045  mm,	Y =   -263.697  mm,	Z =   -265.975  mm,
	W =  90.000 deg,	P =   0.000 deg,	R =   90.000 deg
};
P[137]{
   GP1:
	UF : 0, UT : 6,		CONFIG : 'N U T, 0, 0, 0',
	X =  171.018  mm,	Y =   -256.397  mm,	Z =   -265.948  mm,
	W =  90.000 deg,	P =   0.000 deg,	R =   90.000 deg
};
P[138]{
   GP1:
	UF : 0, UT : 6,		CONFIG : 'N U T, 0, 0, 0',
	X =  184.093  mm,	Y =   -248.823  mm,	Z =   -265.949  mm,
	W =  90.000 deg,	P =   0.000 deg,	R =   90.000 deg
};
P[139]{
   GP1:
	UF : 0, UT : 6,		CONFIG : 'N U T, 0, 0, 0',
	X =  196.863  mm,	Y =   -241.271  mm,	Z =   -265.943  mm,
	W =  90.000 deg,	P =   0.000 deg,	R =   90.000 deg
};
P[140]{
   GP1:
	UF : 0, UT : 6,		CONFIG : 'N U T, 0, 0, 0',
	X =  209.996  mm,	Y =   -233.975  mm,	Z =   -266.040  mm,
	W =  90.000 deg,	P =   0.000 deg,	R =   90.000 deg
};
P[141]{
   GP1:
	UF : 0, UT : 6,		CONFIG : 'N U T, 0, 0, 0',
	X =  223.080  mm,	Y =   -226.407  mm,	Z =   -266.056  mm,
	W =  90.000 deg,	P =   0.000 deg,	R =   90.000 deg
};
P[142]{
   GP1:
	UF : 0, UT : 6,		CONFIG : 'N U T, 0, 0, 0',
	X =  236.044  mm,	Y =   -219.009  mm,	Z =   -266.035  mm,
	W =  90.000 deg,	P =   0.000 deg,	R =   90.000 deg
};
P[143]{
   GP1:
	UF : 0, UT : 6,		CONFIG : 'N U T, 0, 0, 0',
	X =  248.953  mm,	Y =   -211.474  mm,	Z =   -265.989  mm,
	W =  90.000 deg,	P =   0.000 deg,	R =   90.000 deg
};
P[144]{
   GP1:
	UF : 0, UT : 6,		CONFIG : 'N U T, 0, 0, 0',
	X =  262.091  mm,	Y =   -203.877  mm,	Z =   -266.006  mm,
	W =  90.000 deg,	P =   0.000 deg,	R =   90.000 deg
};
P[145]{
   GP1:
	UF : 0, UT : 6,		CONFIG : 'N U T, 0, 0, 0',
	X =  275.011  mm,	Y =   -196.125  mm,	Z =   -265.876  mm,
	W =  90.000 deg,	P =   0.000 deg,	R =   90.000 deg
};
P[146]{
   GP1:
	UF : 0, UT : 6,		CONFIG : 'N U T, 0, 0, 0',
	X =  287.979  mm,	Y =   -188.987  mm,	Z =   -265.975  mm,
	W =  90.000 deg,	P =   0.000 deg,	R =   90.000 deg
};
P[147]{
   GP1:
	UF : 0, UT : 6,		CONFIG : 'N U T, 0, 0, 0',
	X =  300.745  mm,	Y =   -181.401  mm,	Z =   -265.986  mm,
	W =  90.000 deg,	P =   0.000 deg,	R =   90.000 deg
};
P[148]{
   GP1:
	UF : 0, UT : 6,		CONFIG : 'N U T, 0, 0, 0',
	X =  313.986  mm,	Y =   -173.843  mm,	Z =   -265.945  mm,
	W =  90.000 deg,	P =   0.000 deg,	R =   90.000 deg
};
P[149]{
   GP1:
	UF : 0, UT : 6,		CONFIG : 'N U T, 0, 0, 0',
	X =  326.978  mm,	Y =   -166.077  mm,	Z =   -265.910  mm,
	W =  90.000 deg,	P =   0.000 deg,	R =   90.000 deg
};
P[150]{
   GP1:
	UF : 0, UT : 6,		CONFIG : 'N U T, 0, 0, 0',
	X =  340.070  mm,	Y =   -158.806  mm,	Z =   -265.918  mm,
	W =  90.000 deg,	P =   0.000 deg,	R =   90.000 deg
};
P[151]{
   GP1:
	UF : 0, UT : 6,		CONFIG : 'N U T, 0, 0, 0',
	X =  352.961  mm,	Y =   -151.391  mm,	Z =   -266.018  mm,
	W =  90.000 deg,	P =   0.000 deg,	R =   90.000 deg
};
P[152]{
   GP1:
	UF : 0, UT : 6,		CONFIG : 'N U T, 0, 0, 0',
	X =  365.929  mm,	Y =   -143.936  mm,	Z =   -266.040  mm,
	W =  90.000 deg,	P =   0.000 deg,	R =   90.000 deg
};
P[153]{
   GP1:
	UF : 0, UT : 6,		CONFIG : 'N U T, 0, 0, 0',
	X =  378.863  mm,	Y =   -136.417  mm,	Z =   -265.991  mm,
	W =  90.000 deg,	P =   0.000 deg,	R =   90.000 deg
};
P[154]{
   GP1:
	UF : 0, UT : 6,		CONFIG : 'N U T, 0, 0, 0',
	X =  391.901  mm,	Y =   -128.748  mm,	Z =   -265.949  mm,
	W =  90.000 deg,	P =   0.000 deg,	R =   90.000 deg
};
P[155]{
   GP1:
	UF : 0, UT : 6,		CONFIG : 'N U T, 0, 0, 0',
	X =  404.925  mm,	Y =   -121.377  mm,	Z =   -265.998  mm,
	W =  90.000 deg,	P =   0.000 deg,	R =   90.000 deg
};
P[156]{
   GP1:
	UF : 0, UT : 6,		CONFIG : 'N U T, 0, 0, 0',
	X =  417.984  mm,	Y =   -113.867  mm,	Z =   -266.066  mm,
	W =  90.000 deg,	P =   0.000 deg,	R =   90.000 deg
};
P[157]{
   GP1:
	UF : 0, UT : 6,		CONFIG : 'N U T, 0, 0, 0',
	X =  443.414  mm,	Y =   -100.388  mm,	Z =   -242.233  mm,
	W =  90.000 deg,	P =   0.000 deg,	R =   90.000 deg
};
P[158]{
   GP1:
	UF : 0, UT : 6,		CONFIG : 'N U T, 0, 0, 0',
	X =  -49.197  mm,	Y =   -385.014  mm,	Z =   -264.853  mm,
	W =  90.000 deg,	P =   0.000 deg,	R =   90.000 deg
};
P[159]{
   GP1:
	UF : 0, UT : 6,		CONFIG : 'N U T, 0, 0, 0',
	X =  -61.124  mm,	Y =   -391.706  mm,	Z =   -242.347  mm,
	W =  90.000 deg,	P =   0.000 deg,	R =   90.000 deg
};
P[160]{
   GP1:
	UF : 0, UT : 6,		CONFIG : 'N U T, 0, 0, 0',
	X =  -57.704  mm,	Y =   -391.017  mm,	Z =   -251.050  mm,
	W =  90.000 deg,	P =   0.000 deg,	R =   90.000 deg
};
P[161]{
   GP1:
	UF : 0, UT : 6,		CONFIG : 'N U T, 0, 0, 0',
	X =  431.637  mm,	Y =   -107.572  mm,	Z =   -264.900  mm,
	W =  90.000 deg,	P =   0.000 deg,	R =   90.000 deg
};
P[162]{
   GP1:
	UF : 0, UT : 6,		CONFIG : 'N U T, 0, 0, 0',
	X =  440.748  mm,	Y =   -102.811  mm,	Z =   -251.140  mm,
	W =  90.000 deg,	P =   0.000 deg,	R =   90.000 deg
};
P[163]{
   GP1:
	UF : 0, UT : 6,		CONFIG : 'N U T, 0, 0, 0',
	X =  441.202  mm,	Y =   -108.668  mm,	Z =   -260.059  mm,
	W =  90.000 deg,	P =   0.000 deg,	R =   90.000 deg
};
P[164]{
   GP1:
	UF : 0, UT : 6,		CONFIG : 'N U T, 0, 0, 0',
	X =  -52.908  mm,	Y =   -393.735  mm,	Z =   -260.371  mm,
	W =  90.000 deg,	P =   0.000 deg,	R =   90.000 deg
};
P[165]{
   GP1:
	UF : 0, UT : 6,		CONFIG : 'N U T, 0, 0, 0',
	X =  -48.875  mm,	Y =   -400.969  mm,	Z =   -260.250  mm,
	W =  90.000 deg,	P =   0.000 deg,	R =   90.000 deg
};
P[166]{
   GP1:
	UF : 0, UT : 6,		CONFIG : 'N U T, 0, 0, 0',
	X =  451.274  mm,	Y =   -113.236  mm,	Z =   -242.256  mm,
	W =  90.000 deg,	P =   0.000 deg,	R =   90.000 deg
};
P[167]{
   GP1:
	UF : 0, UT : 6,		CONFIG : 'N U T, 0, 0, 0',
	X =  448.279  mm,	Y =   -115.062  mm,	Z =   -252.082  mm,
	W =  90.000 deg,	P =   0.000 deg,	R =   90.000 deg
};
P[168]{
   GP1:
	UF : 0, UT : 6,		CONFIG : 'N U T, 0, 0, 0',
	X =  445.598  mm,	Y =   -116.354  mm,	Z =   -260.400  mm,
	W =  90.000 deg,	P =   0.000 deg,	R =   90.000 deg
};
P[169]{
   GP1:
	UF : 0, UT : 6,		CONFIG : 'N U T, 0, 0, 0',
	X =  412.912  mm,	Y =   -135.543  mm,	Z =   -267.000  mm,
	W =  90.000 deg,	P =   0.000 deg,	R =   90.000 deg
};
P[170]{
   GP1:
	UF : 0, UT : 6,		CONFIG : 'N U T, 0, 0, 0',
	X =  400.231  mm,	Y =   -142.880  mm,	Z =   -267.000  mm,
	W =  90.000 deg,	P =   0.000 deg,	R =   90.000 deg
};
P[171]{
   GP1:
	UF : 0, UT : 6,		CONFIG : 'N U T, 0, 0, 0',
	X =  387.167  mm,	Y =   -150.448  mm,	Z =   -267.000  mm,
	W =  90.000 deg,	P =   0.000 deg,	R =   90.000 deg
};
P[172]{
   GP1:
	UF : 0, UT : 6,		CONFIG : 'N U T, 0, 0, 0',
	X =  374.144  mm,	Y =   -157.858  mm,	Z =   -267.000  mm,
	W =  90.000 deg,	P =   0.000 deg,	R =   90.000 deg
};
P[173]{
   GP1:
	UF : 0, UT : 6,		CONFIG : 'N U T, 0, 0, 0',
	X =  360.969  mm,	Y =   -165.595  mm,	Z =   -267.000  mm,
	W =  90.000 deg,	P =   0.000 deg,	R =   90.000 deg
};
P[174]{
   GP1:
	UF : 0, UT : 6,		CONFIG : 'N U T, 0, 0, 0',
	X =  348.098  mm,	Y =   -173.020  mm,	Z =   -267.000  mm,
	W =  90.000 deg,	P =   0.000 deg,	R =   90.000 deg
};
P[175]{
   GP1:
	UF : 0, UT : 6,		CONFIG : 'N U T, 0, 0, 0',
	X =  335.202  mm,	Y =   -180.458  mm,	Z =   -267.000  mm,
	W =  90.000 deg,	P =   0.000 deg,	R =   90.000 deg
};
P[176]{
   GP1:
	UF : 0, UT : 6,		CONFIG : 'N U T, 0, 0, 0',
	X =  283.170  mm,	Y =   -210.400  mm,	Z =   -267.000  mm,
	W =  90.000 deg,	P =   0.000 deg,	R =   90.000 deg
};
P[177]{
   GP1:
	UF : 0, UT : 6,		CONFIG : 'N U T, 0, 0, 0',
	X =  270.229  mm,	Y =   -217.736  mm,	Z =   -267.000  mm,
	W =  90.000 deg,	P =   0.000 deg,	R =   90.000 deg
};
P[178]{
   GP1:
	UF : 0, UT : 6,		CONFIG : 'N U T, 0, 0, 0',
	X =  257.288  mm,	Y =   -225.360  mm,	Z =   -267.000  mm,
	W =  90.000 deg,	P =   0.000 deg,	R =   90.000 deg
};
P[179]{
   GP1:
	UF : 0, UT : 6,		CONFIG : 'N U T, 0, 0, 0',
	X =  244.103  mm,	Y =   -232.912  mm,	Z =   -267.000  mm,
	W =  90.000 deg,	P =   0.000 deg,	R =   90.000 deg
};
P[180]{
   GP1:
	UF : 0, UT : 6,		CONFIG : 'N U T, 0, 0, 0',
	X =  230.904  mm,	Y =   -240.612  mm,	Z =   -267.000  mm,
	W =  90.000 deg,	P =   0.000 deg,	R =   90.000 deg
};
P[181]{
   GP1:
	UF : 0, UT : 6,		CONFIG : 'N U T, 0, 0, 0',
	X =  218.147  mm,	Y =   -248.046  mm,	Z =   -267.000  mm,
	W =  90.000 deg,	P =   0.000 deg,	R =   90.000 deg
};
P[182]{
   GP1:
	UF : 0, UT : 6,		CONFIG : 'N U T, 0, 0, 0',
	X =  192.091  mm,	Y =   -262.910  mm,	Z =   -267.000  mm,
	W =  90.000 deg,	P =   0.000 deg,	R =   90.000 deg
};
P[183]{
   GP1:
	UF : 0, UT : 6,		CONFIG : 'N U T, 0, 0, 0',
	X =  153.267  mm,	Y =   -285.486  mm,	Z =   -267.000  mm,
	W =  90.000 deg,	P =   0.000 deg,	R =   90.000 deg
};
P[184]{
   GP1:
	UF : 0, UT : 6,		CONFIG : 'N U T, 0, 0, 0',
	X =  140.275  mm,	Y =   -292.860  mm,	Z =   -267.000  mm,
	W =  90.000 deg,	P =   0.000 deg,	R =   90.000 deg
};
P[185]{
   GP1:
	UF : 0, UT : 6,		CONFIG : 'N U T, 0, 0, 0',
	X =  114.402  mm,	Y =   -307.957  mm,	Z =   -267.000  mm,
	W =  90.000 deg,	P =   0.000 deg,	R =   90.000 deg
};
P[186]{
   GP1:
	UF : 0, UT : 6,		CONFIG : 'N U T, 0, 0, 0',
	X =  88.301  mm,	Y =   -322.852  mm,	Z =   -267.000  mm,
	W =  90.000 deg,	P =   0.000 deg,	R =   90.000 deg
};
P[187]{
   GP1:
	UF : 0, UT : 6,		CONFIG : 'N U T, 0, 0, 0',
	X =  75.408  mm,	Y =   -330.454  mm,	Z =   -267.000  mm,
	W =  90.000 deg,	P =   0.000 deg,	R =   90.000 deg
};
P[188]{
   GP1:
	UF : 0, UT : 6,		CONFIG : 'N U T, 0, 0, 0',
	X =  62.380  mm,	Y =   -337.850  mm,	Z =   -267.000  mm,
	W =  90.000 deg,	P =   0.000 deg,	R =   90.000 deg
};
P[189]{
   GP1:
	UF : 0, UT : 6,		CONFIG : 'N U T, 0, 0, 0',
	X =  49.484  mm,	Y =   -345.402  mm,	Z =   -267.000  mm,
	W =  90.000 deg,	P =   0.000 deg,	R =   90.000 deg
};
P[190]{
   GP1:
	UF : 0, UT : 6,		CONFIG : 'N U T, 0, 0, 0',
	X =  36.304  mm,	Y =   -352.967  mm,	Z =   -267.000  mm,
	W =  90.000 deg,	P =   0.000 deg,	R =   90.000 deg
};
P[191]{
   GP1:
	UF : 0, UT : 6,		CONFIG : 'N U T, 0, 0, 0',
	X =  23.385  mm,	Y =   -360.439  mm,	Z =   -267.000  mm,
	W =  90.000 deg,	P =   0.000 deg,	R =   90.000 deg
};
P[192]{
   GP1:
	UF : 0, UT : 6,		CONFIG : 'N U T, 0, 0, 0',
	X =  10.376  mm,	Y =   -367.952  mm,	Z =   -267.000  mm,
	W =  90.000 deg,	P =   0.000 deg,	R =   90.000 deg
};
P[193]{
   GP1:
	UF : 0, UT : 6,		CONFIG : 'N U T, 0, 0, 0',
	X =  -2.871  mm,	Y =   -375.585  mm,	Z =   -267.000  mm,
	W =  90.000 deg,	P =   0.000 deg,	R =   90.000 deg
};
P[194]{
   GP1:
	UF : 0, UT : 6,		CONFIG : 'N U T, 0, 0, 0',
	X =  -15.675  mm,	Y =   -383.055  mm,	Z =   -267.000  mm,
	W =  90.000 deg,	P =   0.000 deg,	R =   90.000 deg
};
P[195]{
   GP1:
	UF : 0, UT : 6,		CONFIG : 'N U T, 0, 0, 0',
	X =  -42.657  mm,	Y =   -398.654  mm,	Z =   -266.001  mm,
	W =  90.000 deg,	P =   0.000 deg,	R =   90.000 deg
};
P[196]{
   GP1:
	UF : 0, UT : 6,		CONFIG : 'N U T, 0, 0, 0',
	X =  -53.998  mm,	Y =   -404.977  mm,	Z =   -242.201  mm,
	W =  90.000 deg,	P =   0.000 deg,	R =   90.000 deg
};
P[197]{
   GP1:
	UF : 0, UT : 6,		CONFIG : 'N U T, 0, 0, 0',
	X =  -50.816  mm,	Y =   -403.460  mm,	Z =   -252.049  mm,
	W =  90.000 deg,	P =   0.000 deg,	R =   90.000 deg
};
P[198]{
   GP1:
	UF : 0, UT : 6,		CONFIG : 'N U T, 0, 0, 0',
	X =  -28.385  mm,	Y =   -390.568  mm,	Z =   -267.000  mm,
	W =  90.000 deg,	P =   0.000 deg,	R =   90.000 deg
};
P[199]{
   GP1:
	UF : 0, UT : 6,		CONFIG : 'N U T, 0, 0, 0',
	X =  101.386  mm,	Y =   -315.514  mm,	Z =   -267.000  mm,
	W =  90.000 deg,	P =   0.000 deg,	R =   90.000 deg
};
P[200]{
   GP1:
	UF : 0, UT : 6,		CONFIG : 'N U T, 0, 0, 0',
	X =  127.266  mm,	Y =   -300.604  mm,	Z =   -267.000  mm,
	W =  90.000 deg,	P =   0.000 deg,	R =   90.000 deg
};
P[201]{
   GP1:
	UF : 0, UT : 6,		CONFIG : 'N U T, 0, 0, 0',
	X =  166.321  mm,	Y =   -278.046  mm,	Z =   -267.000  mm,
	W =  90.000 deg,	P =   0.000 deg,	R =   90.000 deg
};
P[202]{
   GP1:
	UF : 0, UT : 6,		CONFIG : 'N U T, 0, 0, 0',
	X =  179.204  mm,	Y =   -270.643  mm,	Z =   -267.000  mm,
	W =  90.000 deg,	P =   0.000 deg,	R =   90.000 deg
};
P[203]{
   GP1:
	UF : 0, UT : 6,		CONFIG : 'N U T, 0, 0, 0',
	X =  205.412  mm,	Y =   -255.546  mm,	Z =   -267.000  mm,
	W =  90.000 deg,	P =   0.000 deg,	R =   90.000 deg
};
P[204]{
   GP1:
	UF : 0, UT : 6,		CONFIG : 'N U T, 0, 0, 0',
	X =  296.051  mm,	Y =   -203.127  mm,	Z =   -267.000  mm,
	W =  90.000 deg,	P =   0.000 deg,	R =   90.000 deg
};
P[205]{
   GP1:
	UF : 0, UT : 6,		CONFIG : 'N U T, 0, 0, 0',
	X =  309.355  mm,	Y =   -195.565  mm,	Z =   -267.000  mm,
	W =  90.000 deg,	P =   0.000 deg,	R =   90.000 deg
};
P[206]{
   GP1:
	UF : 0, UT : 6,		CONFIG : 'N U T, 0, 0, 0',
	X =  322.396  mm,	Y =   -188.103  mm,	Z =   -267.000  mm,
	W =  90.000 deg,	P =   0.000 deg,	R =   90.000 deg
};
P[207]{
   GP1:
	UF : 0, UT : 6,		CONFIG : 'N U T, 0, 0, 0',
	X =  426.001  mm,	Y =   -128.135  mm,	Z =   -267.000  mm,
	W =  90.000 deg,	P =   0.000 deg,	R =   90.000 deg
};
P[208]{
   GP1:
	UF : 0, UT : 6,		CONFIG : 'N U T, 0, 0, 0',
	X =  440.367  mm,	Y =   -119.861  mm,	Z =   -266.009  mm,
	W =  90.000 deg,	P =   0.000 deg,	R =   90.000 deg
};
P[209]{
   GP1:
	UF : 0, UT : 6,		CONFIG : 'N U T, 0, 0, 0',
	X =  458.760  mm,	Y =   -126.150  mm,	Z =   -242.184  mm,
	W =  90.000 deg,	P =   0.000 deg,	R =   90.000 deg
};
P[210]{
   GP1:
	UF : 0, UT : 6,		CONFIG : 'N U T, 0, 0, 0',
	X =  453.096  mm,	Y =   -129.260  mm,	Z =   -260.289  mm,
	W =  90.000 deg,	P =   0.000 deg,	R =   90.000 deg
};
P[211]{
   GP1:
	UF : 0, UT : 6,		CONFIG : 'N U T, 0, 0, 0',
	X =  447.591  mm,	Y =   -132.778  mm,	Z =   -266.016  mm,
	W =  90.000 deg,	P =   0.000 deg,	R =   90.000 deg
};
P[212]{
   GP1:
	UF : 0, UT : 6,		CONFIG : 'N U T, 0, 0, 0',
	X =  433.310  mm,	Y =   -140.859  mm,	Z =   -267.000  mm,
	W =  90.000 deg,	P =   0.000 deg,	R =   90.000 deg
};
P[213]{
   GP1:
	UF : 0, UT : 6,		CONFIG : 'N U T, 0, 0, 0',
	X =  420.579  mm,	Y =   -148.404  mm,	Z =   -267.000  mm,
	W =  90.000 deg,	P =   0.000 deg,	R =   90.000 deg
};
P[214]{
   GP1:
	UF : 0, UT : 6,		CONFIG : 'N U T, 0, 0, 0',
	X =  368.644  mm,	Y =   -178.343  mm,	Z =   -267.000  mm,
	W =  90.000 deg,	P =   0.000 deg,	R =   90.000 deg
};
P[215]{
   GP1:
	UF : 0, UT : 6,		CONFIG : 'N U T, 0, 0, 0',
	X =  355.679  mm,	Y =   -185.827  mm,	Z =   -267.000  mm,
	W =  90.000 deg,	P =   0.000 deg,	R =   90.000 deg
};
P[216]{
   GP1:
	UF : 0, UT : 6,		CONFIG : 'N U T, 0, 0, 0',
	X =  342.512  mm,	Y =   -193.572  mm,	Z =   -267.000  mm,
	W =  90.000 deg,	P =   0.000 deg,	R =   90.000 deg
};
P[217]{
   GP1:
	UF : 0, UT : 6,		CONFIG : 'N U T, 0, 0, 0',
	X =  316.746  mm,	Y =   -208.412  mm,	Z =   -267.000  mm,
	W =  90.000 deg,	P =   0.000 deg,	R =   90.000 deg
};
P[218]{
   GP1:
	UF : 0, UT : 6,		CONFIG : 'N U T, 0, 0, 0',
	X =  303.540  mm,	Y =   -216.007  mm,	Z =   -267.000  mm,
	W =  90.000 deg,	P =   0.000 deg,	R =   90.000 deg
};
P[219]{
   GP1:
	UF : 0, UT : 6,		CONFIG : 'N U T, 0, 0, 0',
	X =  277.694  mm,	Y =   -230.874  mm,	Z =   -267.000  mm,
	W =  90.000 deg,	P =   0.000 deg,	R =   90.000 deg
};
P[220]{
   GP1:
	UF : 0, UT : 6,		CONFIG : 'N U T, 0, 0, 0',
	X =  264.733  mm,	Y =   -238.321  mm,	Z =   -267.000  mm,
	W =  90.000 deg,	P =   0.000 deg,	R =   90.000 deg
};
P[221]{
   GP1:
	UF : 0, UT : 6,		CONFIG : 'N U T, 0, 0, 0',
	X =  251.640  mm,	Y =   -246.034  mm,	Z =   -267.000  mm,
	W =  90.000 deg,	P =   0.000 deg,	R =   90.000 deg
};
P[222]{
   GP1:
	UF : 0, UT : 6,		CONFIG : 'N U T, 0, 0, 0',
	X =  225.692  mm,	Y =   -261.002  mm,	Z =   -267.000  mm,
	W =  90.000 deg,	P =   0.000 deg,	R =   90.000 deg
};
P[223]{
   GP1:
	UF : 0, UT : 6,		CONFIG : 'N U T, 0, 0, 0',
	X =  186.478  mm,	Y =   -283.534  mm,	Z =   -267.000  mm,
	W =  90.000 deg,	P =   0.000 deg,	R =   90.000 deg
};
P[224]{
   GP1:
	UF : 0, UT : 6,		CONFIG : 'N U T, 0, 0, 0',
	X =  134.689  mm,	Y =   -313.523  mm,	Z =   -267.000  mm,
	W =  90.000 deg,	P =   0.000 deg,	R =   90.000 deg
};
P[225]{
   GP1:
	UF : 0, UT : 6,		CONFIG : 'N U T, 0, 0, 0',
	X =  108.676  mm,	Y =   -328.272  mm,	Z =   -267.000  mm,
	W =  90.000 deg,	P =   0.000 deg,	R =   90.000 deg
};
P[226]{
   GP1:
	UF : 0, UT : 6,		CONFIG : 'N U T, 0, 0, 0',
	X =  69.849  mm,	Y =   -350.884  mm,	Z =   -267.000  mm,
	W =  90.000 deg,	P =   0.000 deg,	R =   90.000 deg
};
P[227]{
   GP1:
	UF : 0, UT : 6,		CONFIG : 'N U T, 0, 0, 0',
	X =  56.760  mm,	Y =   -358.537  mm,	Z =   -267.000  mm,
	W =  90.000 deg,	P =   0.000 deg,	R =   90.000 deg
};
P[228]{
   GP1:
	UF : 0, UT : 6,		CONFIG : 'N U T, 0, 0, 0',
	X =  43.802  mm,	Y =   -365.924  mm,	Z =   -267.000  mm,
	W =  90.000 deg,	P =   0.000 deg,	R =   90.000 deg
};
P[229]{
   GP1:
	UF : 0, UT : 6,		CONFIG : 'N U T, 0, 0, 0',
	X =  30.828  mm,	Y =   -373.521  mm,	Z =   -267.000  mm,
	W =  90.000 deg,	P =   0.000 deg,	R =   90.000 deg
};
P[230]{
   GP1:
	UF : 0, UT : 6,		CONFIG : 'N U T, 0, 0, 0',
	X =  17.715  mm,	Y =   -380.903  mm,	Z =   -267.000  mm,
	W =  90.000 deg,	P =   0.000 deg,	R =   90.000 deg
};
P[231]{
   GP1:
	UF : 0, UT : 6,		CONFIG : 'N U T, 0, 0, 0',
	X =  4.722  mm,	Y =   -388.401  mm,	Z =   -267.000  mm,
	W =  90.000 deg,	P =   0.000 deg,	R =   90.000 deg
};
P[232]{
   GP1:
	UF : 0, UT : 6,		CONFIG : 'N U T, 0, 0, 0',
	X =  -35.127  mm,	Y =   -411.565  mm,	Z =   -266.088  mm,
	W =  90.000 deg,	P =   0.000 deg,	R =   90.000 deg
};
P[233]{
   GP1:
	UF : 0, UT : 6,		CONFIG : 'N U T, 0, 0, 0',
	X =  -43.505  mm,	Y =   -416.278  mm,	Z =   -251.830  mm,
	W =  90.000 deg,	P =   0.000 deg,	R =   90.000 deg
};
P[234]{
   GP1:
	UF : 0, UT : 6,		CONFIG : 'N U T, 0, 0, 0',
	X =  -46.544  mm,	Y =   -417.870  mm,	Z =   -242.224  mm,
	W =  90.000 deg,	P =   0.000 deg,	R =   90.000 deg
};
P[235]{
   GP1:
	UF : 0, UT : 6,		CONFIG : 'N U T, 0, 0, 0',
	X =  -40.744  mm,	Y =   -415.073  mm,	Z =   -260.220  mm,
	W =  90.000 deg,	P =   0.000 deg,	R =   90.000 deg
};
P[236]{
   GP1:
	UF : 0, UT : 6,		CONFIG : 'N U T, 0, 0, 0',
	X =  -20.903  mm,	Y =   -403.443  mm,	Z =   -267.000  mm,
	W =  90.000 deg,	P =   0.000 deg,	R =   90.000 deg
};
P[237]{
   GP1:
	UF : 0, UT : 6,		CONFIG : 'N U T, 0, 0, 0',
	X =  -8.151  mm,	Y =   -396.080  mm,	Z =   -267.000  mm,
	W =  90.000 deg,	P =   0.000 deg,	R =   90.000 deg
};
P[238]{
   GP1:
	UF : 0, UT : 6,		CONFIG : 'N U T, 0, 0, 0',
	X =  82.770  mm,	Y =   -343.713  mm,	Z =   -267.000  mm,
	W =  90.000 deg,	P =   0.000 deg,	R =   90.000 deg
};
P[239]{
   GP1:
	UF : 0, UT : 6,		CONFIG : 'N U T, 0, 0, 0',
	X =  95.825  mm,	Y =   -336.031  mm,	Z =   -267.000  mm,
	W =  90.000 deg,	P =   0.000 deg,	R =   90.000 deg
};
P[240]{
   GP1:
	UF : 0, UT : 6,		CONFIG : 'N U T, 0, 0, 0',
	X =  121.774  mm,	Y =   -321.162  mm,	Z =   -267.000  mm,
	W =  90.000 deg,	P =   0.000 deg,	R =   90.000 deg
};
P[241]{
   GP1:
	UF : 0, UT : 6,		CONFIG : 'N U T, 0, 0, 0',
	X =  147.812  mm,	Y =   -306.075  mm,	Z =   -267.000  mm,
	W =  90.000 deg,	P =   0.000 deg,	R =   90.000 deg
};
P[242]{
   GP1:
	UF : 0, UT : 6,		CONFIG : 'N U T, 0, 0, 0',
	X =  160.706  mm,	Y =   -298.580  mm,	Z =   -267.000  mm,
	W =  90.000 deg,	P =   0.000 deg,	R =   90.000 deg
};
P[243]{
   GP1:
	UF : 0, UT : 6,		CONFIG : 'N U T, 0, 0, 0',
	X =  173.752  mm,	Y =   -291.054  mm,	Z =   -267.000  mm,
	W =  90.000 deg,	P =   0.000 deg,	R =   90.000 deg
};
P[244]{
   GP1:
	UF : 0, UT : 6,		CONFIG : 'N U T, 0, 0, 0',
	X =  199.698  mm,	Y =   -276.079  mm,	Z =   -267.000  mm,
	W =  90.000 deg,	P =   0.000 deg,	R =   90.000 deg
};
P[245]{
   GP1:
	UF : 0, UT : 6,		CONFIG : 'N U T, 0, 0, 0',
	X =  212.955  mm,	Y =   -268.636  mm,	Z =   -267.000  mm,
	W =  90.000 deg,	P =   0.000 deg,	R =   90.000 deg
};
P[246]{
   GP1:
	UF : 0, UT : 6,		CONFIG : 'N U T, 0, 0, 0',
	X =  238.966  mm,	Y =   -253.586  mm,	Z =   -267.000  mm,
	W =  90.000 deg,	P =   0.000 deg,	R =   90.000 deg
};
P[247]{
   GP1:
	UF : 0, UT : 6,		CONFIG : 'N U T, 0, 0, 0',
	X =  290.566  mm,	Y =   -223.671  mm,	Z =   -267.000  mm,
	W =  90.000 deg,	P =   0.000 deg,	R =   90.000 deg
};
P[248]{
   GP1:
	UF : 0, UT : 6,		CONFIG : 'N U T, 0, 0, 0',
	X =  329.751  mm,	Y =   -201.141  mm,	Z =   -267.000  mm,
	W =  90.000 deg,	P =   0.000 deg,	R =   90.000 deg
};
P[249]{
   GP1:
	UF : 0, UT : 6,		CONFIG : 'N U T, 0, 0, 0',
	X =  381.703  mm,	Y =   -171.162  mm,	Z =   -267.000  mm,
	W =  90.000 deg,	P =   0.000 deg,	R =   90.000 deg
};
P[250]{
   GP1:
	UF : 0, UT : 6,		CONFIG : 'N U T, 0, 0, 0',
	X =  394.681  mm,	Y =   -163.721  mm,	Z =   -267.000  mm,
	W =  90.000 deg,	P =   0.000 deg,	R =   90.000 deg
};
P[251]{
   GP1:
	UF : 0, UT : 6,		CONFIG : 'N U T, 0, 0, 0',
	X =  407.647  mm,	Y =   -156.079  mm,	Z =   -267.000  mm,
	W =  90.000 deg,	P =   0.000 deg,	R =   90.000 deg
};
P[252]{
   GP1:
	UF : 0, UT : 6,		CONFIG : 'N U T, 0, 0, 0',
	X =  455.932  mm,	Y =   -128.140  mm,	Z =   -251.835  mm,
	W =  90.000 deg,	P =   0.000 deg,	R =   90.000 deg
};
P[253]{
   GP1:
	UF : 0, UT : 6,		CONFIG : 'N U T, 0, 0, 0',
	X =  466.351  mm,	Y =   -139.260  mm,	Z =   -242.131  mm,
	W =  90.000 deg,	P =   0.000 deg,	R =   90.000 deg
};
P[254]{
   GP1:
	UF : 0, UT : 6,		CONFIG : 'N U T, 0, 0, 0',
	X =  463.352  mm,	Y =   -141.048  mm,	Z =   -251.917  mm,
	W =  90.000 deg,	P =   0.000 deg,	R =   90.000 deg
};
P[255]{
   GP1:
	UF : 0, UT : 6,		CONFIG : 'N U T, 0, 0, 0',
	X =  455.359  mm,	Y =   -145.610  mm,	Z =   -265.956  mm,
	W =  90.000 deg,	P =   0.000 deg,	R =   90.000 deg
};
P[256]{
   GP1:
	UF : 0, UT : 6,		CONFIG : 'N U T, 0, 0, 0',
	X =  427.984  mm,	Y =   -161.162  mm,	Z =   -267.000  mm,
	W =  90.000 deg,	P =   0.000 deg,	R =   90.000 deg
};
P[257]{
   GP1:
	UF : 0, UT : 6,		CONFIG : 'N U T, 0, 0, 0',
	X =  376.097  mm,	Y =   -191.429  mm,	Z =   -267.000  mm,
	W =  90.000 deg,	P =   0.000 deg,	R =   90.000 deg
};
P[258]{
   GP1:
	UF : 0, UT : 6,		CONFIG : 'N U T, 0, 0, 0',
	X =  363.357  mm,	Y =   -198.805  mm,	Z =   -267.000  mm,
	W =  90.000 deg,	P =   0.000 deg,	R =   90.000 deg
};
P[259]{
   GP1:
	UF : 0, UT : 6,		CONFIG : 'N U T, 0, 0, 0',
	X =  323.963  mm,	Y =   -221.490  mm,	Z =   -267.000  mm,
	W =  90.000 deg,	P =   0.000 deg,	R =   90.000 deg
};
P[260]{
   GP1:
	UF : 0, UT : 6,		CONFIG : 'N U T, 0, 0, 0',
	X =  285.030  mm,	Y =   -243.698  mm,	Z =   -267.000  mm,
	W =  90.000 deg,	P =   0.000 deg,	R =   90.000 deg
};
P[261]{
   GP1:
	UF : 0, UT : 6,		CONFIG : 'N U T, 0, 0, 0',
	X =  272.192  mm,	Y =   -251.411  mm,	Z =   -267.000  mm,
	W =  90.000 deg,	P =   0.000 deg,	R =   90.000 deg
};
P[262]{
   GP1:
	UF : 0, UT : 6,		CONFIG : 'N U T, 0, 0, 0',
	X =  259.104  mm,	Y =   -258.951  mm,	Z =   -267.000  mm,
	W =  90.000 deg,	P =   0.000 deg,	R =   90.000 deg
};
P[263]{
   GP1:
	UF : 0, UT : 6,		CONFIG : 'N U T, 0, 0, 0',
	X =  220.179  mm,	Y =   -281.382  mm,	Z =   -267.000  mm,
	W =  90.000 deg,	P =   0.000 deg,	R =   90.000 deg
};
P[264]{
   GP1:
	UF : 0, UT : 6,		CONFIG : 'N U T, 0, 0, 0',
	X =  207.144  mm,	Y =   -288.796  mm,	Z =   -267.000  mm,
	W =  90.000 deg,	P =   0.000 deg,	R =   90.000 deg
};
P[265]{
   GP1:
	UF : 0, UT : 6,		CONFIG : 'N U T, 0, 0, 0',
	X =  181.291  mm,	Y =   -303.895  mm,	Z =   -267.000  mm,
	W =  90.000 deg,	P =   0.000 deg,	R =   90.000 deg
};
P[266]{
   GP1:
	UF : 0, UT : 6,		CONFIG : 'N U T, 0, 0, 0',
	X =  129.453  mm,	Y =   -333.907  mm,	Z =   -267.000  mm,
	W =  90.000 deg,	P =   0.000 deg,	R =   90.000 deg
};
P[267]{
   GP1:
	UF : 0, UT : 6,		CONFIG : 'N U T, 0, 0, 0',
	X =  116.300  mm,	Y =   -341.382  mm,	Z =   -267.000  mm,
	W =  90.000 deg,	P =   0.000 deg,	R =   90.000 deg
};
P[268]{
   GP1:
	UF : 0, UT : 6,		CONFIG : 'N U T, 0, 0, 0',
	X =  103.276  mm,	Y =   -348.963  mm,	Z =   -267.000  mm,
	W =  90.000 deg,	P =   0.000 deg,	R =   90.000 deg
};
P[269]{
   GP1:
	UF : 0, UT : 6,		CONFIG : 'N U T, 0, 0, 0',
	X =  90.129  mm,	Y =   -356.275  mm,	Z =   -267.000  mm,
	W =  90.000 deg,	P =   0.000 deg,	R =   90.000 deg
};
P[270]{
   GP1:
	UF : 0, UT : 6,		CONFIG : 'N U T, 0, 0, 0',
	X =  77.192  mm,	Y =   -363.898  mm,	Z =   -267.000  mm,
	W =  90.000 deg,	P =   0.000 deg,	R =   90.000 deg
};
P[271]{
   GP1:
	UF : 0, UT : 6,		CONFIG : 'N U T, 0, 0, 0',
	X =  51.182  mm,	Y =   -378.925  mm,	Z =   -267.000  mm,
	W =  90.000 deg,	P =   0.000 deg,	R =   90.000 deg
};
P[272]{
   GP1:
	UF : 0, UT : 6,		CONFIG : 'N U T, 0, 0, 0',
	X =  38.281  mm,	Y =   -386.445  mm,	Z =   -267.000  mm,
	W =  90.000 deg,	P =   0.000 deg,	R =   90.000 deg
};
P[273]{
   GP1:
	UF : 0, UT : 6,		CONFIG : 'N U T, 0, 0, 0',
	X =  12.161  mm,	Y =   -401.549  mm,	Z =   -267.000  mm,
	W =  90.000 deg,	P =   0.000 deg,	R =   90.000 deg
};
P[274]{
   GP1:
	UF : 0, UT : 6,		CONFIG : 'N U T, 0, 0, 0',
	X =  -13.689  mm,	Y =   -416.338  mm,	Z =   -267.000  mm,
	W =  90.000 deg,	P =   0.000 deg,	R =   90.000 deg
};
P[275]{
   GP1:
	UF : 0, UT : 6,		CONFIG : 'N U T, 0, 0, 0',
	X =  -27.893  mm,	Y =   -424.733  mm,	Z =   -265.885  mm,
	W =  90.000 deg,	P =   0.000 deg,	R =   90.000 deg
};
P[276]{
   GP1:
	UF : 0, UT : 6,		CONFIG : 'N U T, 0, 0, 0',
	X =  -33.740  mm,	Y =   -427.223  mm,	Z =   -260.192  mm,
	W =  90.000 deg,	P =   0.000 deg,	R =   90.000 deg
};
P[277]{
   GP1:
	UF : 0, UT : 6,		CONFIG : 'N U T, 0, 0, 0',
	X =  -35.965  mm,	Y =   -429.314  mm,	Z =   -251.863  mm,
	W =  90.000 deg,	P =   0.000 deg,	R =   90.000 deg
};
P[278]{
   GP1:
	UF : 0, UT : 6,		CONFIG : 'N U T, 0, 0, 0',
	X =  -39.208  mm,	Y =   -430.630  mm,	Z =   -242.147  mm,
	W =  90.000 deg,	P =   0.000 deg,	R =   90.000 deg
};
P[279]{
   GP1:
	UF : 0, UT : 6,		CONFIG : 'N U T, 0, 0, 0',
	X =  -0.488  mm,	Y =   -409.123  mm,	Z =   -267.000  mm,
	W =  90.000 deg,	P =   0.000 deg,	R =   90.000 deg
};
P[280]{
   GP1:
	UF : 0, UT : 6,		CONFIG : 'N U T, 0, 0, 0',
	X =  25.425  mm,	Y =   -394.106  mm,	Z =   -267.000  mm,
	W =  90.000 deg,	P =   0.000 deg,	R =   90.000 deg
};
P[281]{
   GP1:
	UF : 0, UT : 6,		CONFIG : 'N U T, 0, 0, 0',
	X =  64.422  mm,	Y =   -371.495  mm,	Z =   -267.000  mm,
	W =  90.000 deg,	P =   0.000 deg,	R =   90.000 deg
};
P[282]{
   GP1:
	UF : 0, UT : 6,		CONFIG : 'N U T, 0, 0, 0',
	X =  142.236  mm,	Y =   -326.663  mm,	Z =   -267.000  mm,
	W =  90.000 deg,	P =   0.000 deg,	R =   90.000 deg
};
P[283]{
   GP1:
	UF : 0, UT : 6,		CONFIG : 'N U T, 0, 0, 0',
	X =  155.335  mm,	Y =   -319.047  mm,	Z =   -267.000  mm,
	W =  90.000 deg,	P =   0.000 deg,	R =   90.000 deg
};
P[284]{
   GP1:
	UF : 0, UT : 6,		CONFIG : 'N U T, 0, 0, 0',
	X =  168.260  mm,	Y =   -311.541  mm,	Z =   -267.000  mm,
	W =  90.000 deg,	P =   0.000 deg,	R =   90.000 deg
};
P[285]{
   GP1:
	UF : 0, UT : 6,		CONFIG : 'N U T, 0, 0, 0',
	X =  194.390  mm,	Y =   -296.694  mm,	Z =   -267.000  mm,
	W =  90.000 deg,	P =   0.000 deg,	R =   90.000 deg
};
P[286]{
   GP1:
	UF : 0, UT : 6,		CONFIG : 'N U T, 0, 0, 0',
	X =  233.229  mm,	Y =   -274.024  mm,	Z =   -267.000  mm,
	W =  90.000 deg,	P =   0.000 deg,	R =   90.000 deg
};
P[287]{
   GP1:
	UF : 0, UT : 6,		CONFIG : 'N U T, 0, 0, 0',
	X =  246.254  mm,	Y =   -266.597  mm,	Z =   -267.000  mm,
	W =  90.000 deg,	P =   0.000 deg,	R =   90.000 deg
};
P[288]{
   GP1:
	UF : 0, UT : 6,		CONFIG : 'N U T, 0, 0, 0',
	X =  298.353  mm,	Y =   -236.585  mm,	Z =   -267.000  mm,
	W =  90.000 deg,	P =   0.000 deg,	R =   90.000 deg
};
P[289]{
   GP1:
	UF : 0, UT : 6,		CONFIG : 'N U T, 0, 0, 0',
	X =  311.319  mm,	Y =   -228.921  mm,	Z =   -267.000  mm,
	W =  90.000 deg,	P =   0.000 deg,	R =   90.000 deg
};
P[290]{
   GP1:
	UF : 0, UT : 6,		CONFIG : 'N U T, 0, 0, 0',
	X =  337.196  mm,	Y =   -214.135  mm,	Z =   -267.000  mm,
	W =  90.000 deg,	P =   0.000 deg,	R =   90.000 deg
};
P[291]{
   GP1:
	UF : 0, UT : 6,		CONFIG : 'N U T, 0, 0, 0',
	X =  350.070  mm,	Y =   -206.597  mm,	Z =   -267.000  mm,
	W =  90.000 deg,	P =   0.000 deg,	R =   90.000 deg
};
P[292]{
   GP1:
	UF : 0, UT : 6,		CONFIG : 'N U T, 0, 0, 0',
	X =  389.013  mm,	Y =   -184.088  mm,	Z =   -267.000  mm,
	W =  90.000 deg,	P =   0.000 deg,	R =   90.000 deg
};
P[293]{
   GP1:
