/PROG  W003.LS
/ATTR
OWNER       = MNEDITOR;
COMMENT     = "";
PROG_SIZE   = 636;
CREATE      = DATE 23-01-07  TIME 11:59:14;
MODIFIED    = DATE 23-01-07  TIME 12:02:18;
FILE_NAME   = ;
VERSION     = 0;
LINE_COUNT  = 4;
MEMORY_SIZE = 992;
PROTECT     = READ_WRITE;
TCD:  STACK_SIZE	= 0,
      TASK_PRIORITY	= 50,
      TIME_SLICE	= 0,
      BUSY_LAMP_OFF	= 0,
      ABORT_REQUEST	= 0,
      PAUSE_REQUEST	= 0;
DEFAULT_GROUP	= 1,*,*,*,*;
CONTROL_CODE	= 00000000 00000000;
/MN
   1:J P[1] 100% FINE    ;
   2:L P[2] 100mm/sec CNT100    ;
   3:L P[3] 100mm/sec CNT100    ;
   4:L P[4] 100mm/sec CNT100    ;
   5:L P[5] 100mm/sec CNT100    ;
   6:L P[6] 100mm/sec CNT100    ;
   7:L P[7] 100mm/sec CNT100    ;
   8:L P[8] 100mm/sec CNT100    ;
   9:L P[9] 100mm/sec CNT100    ;
   10:L P[10] 100mm/sec CNT100    ;
   11:L P[11] 100mm/sec CNT100    ;
   12:L P[12] 100mm/sec CNT100    ;
   13:L P[13] 100mm/sec CNT100    ;
   14:L P[14] 100mm/sec CNT100    ;
   15:L P[15] 100mm/sec CNT100    ;
   16:L P[16] 100mm/sec CNT100    ;
   17:L P[17] 100mm/sec CNT100    ;
   18:L P[18] 100mm/sec CNT100    ;
   19:L P[19] 100mm/sec CNT100    ;
   20:L P[20] 100mm/sec CNT100    ;
   21:L P[21] 100mm/sec CNT100    ;
   22:L P[22] 100mm/sec CNT100    ;
   23:L P[23] 100mm/sec CNT100    ;
   24:L P[24] 100mm/sec CNT100    ;
   25:L P[25] 100mm/sec CNT100    ;
   26:L P[26] 100mm/sec CNT100    ;
   27:L P[27] 100mm/sec CNT100    ;
   28:L P[28] 100mm/sec CNT100    ;
   29:L P[29] 100mm/sec CNT100    ;
   30:L P[30] 100mm/sec CNT100    ;
   31:L P[31] 100mm/sec CNT100    ;
   32:L P[32] 100mm/sec CNT100    ;
   33:L P[33] 100mm/sec CNT100    ;
   34:L P[34] 100mm/sec CNT100    ;
   35:L P[35] 100mm/sec CNT100    ;
   36:L P[36] 100mm/sec CNT100    ;
   37:L P[37] 100mm/sec CNT100    ;
   38:L P[38] 100mm/sec CNT100    ;
   39:L P[39] 100mm/sec CNT100    ;
   40:L P[40] 100mm/sec CNT100    ;
   41:L P[41] 100mm/sec CNT100    ;
   42:L P[42] 100mm/sec CNT100    ;
   43:L P[43] 100mm/sec CNT100    ;
   44:L P[44] 100mm/sec CNT100    ;
   45:L P[45] 100mm/sec CNT100    ;
   46:L P[46] 100mm/sec CNT100    ;
   47:L P[47] 100mm/sec CNT100    ;
   48:L P[48] 100mm/sec CNT100    ;
   49:L P[49] 100mm/sec CNT100    ;
   50:L P[50] 100mm/sec CNT100    ;
   51:L P[51] 100mm/sec CNT100    ;
   52:L P[52] 100mm/sec CNT100    ;
   53:L P[53] 100mm/sec CNT100    ;
   54:L P[54] 100mm/sec CNT100    ;
   55:L P[55] 100mm/sec CNT100    ;
   56:L P[56] 100mm/sec CNT100    ;
   57:L P[57] 100mm/sec CNT100    ;
   58:L P[58] 100mm/sec CNT100    ;
   59:L P[59] 100mm/sec CNT100    ;
   60:L P[60] 100mm/sec CNT100    ;
   61:L P[61] 100mm/sec CNT100    ;
   62:L P[62] 100mm/sec CNT100    ;
   63:L P[63] 100mm/sec CNT100    ;
   64:L P[64] 100mm/sec CNT100    ;
   65:L P[65] 100mm/sec CNT100    ;
   66:L P[66] 100mm/sec CNT100    ;
   67:L P[67] 100mm/sec CNT100    ;
   68:L P[68] 100mm/sec CNT100    ;
   69:L P[69] 100mm/sec CNT100    ;
   70:L P[70] 100mm/sec CNT100    ;
   71:L P[71] 100mm/sec CNT100    ;
   72:L P[72] 100mm/sec CNT100    ;
   73:L P[73] 100mm/sec CNT100    ;
   74:L P[74] 100mm/sec CNT100    ;
   75:L P[75] 100mm/sec CNT100    ;
   76:L P[76] 100mm/sec CNT100    ;
   77:L P[77] 100mm/sec CNT100    ;
   78:L P[78] 100mm/sec CNT100    ;
   79:L P[79] 100mm/sec CNT100    ;
   80:L P[80] 100mm/sec CNT100    ;
   81:L P[81] 100mm/sec CNT100    ;
   82:L P[82] 100mm/sec CNT100    ;
   83:L P[83] 100mm/sec CNT100    ;
   84:L P[84] 100mm/sec CNT100    ;
   85:L P[85] 100mm/sec CNT100    ;
   86:L P[86] 100mm/sec CNT100    ;
   87:L P[87] 100mm/sec CNT100    ;
   88:L P[88] 100mm/sec CNT100    ;
   89:L P[89] 100mm/sec CNT100    ;
   90:L P[90] 100mm/sec CNT100    ;
   91:L P[91] 100mm/sec CNT100    ;
   92:L P[92] 100mm/sec CNT100    ;
   93:L P[93] 100mm/sec CNT100    ;
   94:L P[94] 100mm/sec CNT100    ;
   95:L P[95] 100mm/sec CNT100    ;
   96:L P[96] 100mm/sec CNT100    ;
   97:L P[97] 100mm/sec CNT100    ;
   98:L P[98] 100mm/sec CNT100    ;
   99:L P[99] 100mm/sec CNT100    ;
   100:L P[100] 100mm/sec CNT100    ;
   101:L P[101] 100mm/sec CNT100    ;
   102:L P[102] 100mm/sec CNT100    ;
   103:L P[103] 100mm/sec CNT100    ;
   104:L P[104] 100mm/sec CNT100    ;
   105:L P[105] 100mm/sec CNT100    ;
   106:L P[106] 100mm/sec CNT100    ;
   107:L P[107] 100mm/sec CNT100    ;
   108:L P[108] 100mm/sec CNT100    ;
   109:L P[109] 100mm/sec CNT100    ;
   110:L P[110] 100mm/sec CNT100    ;
   111:L P[111] 100mm/sec CNT100    ;
   112:L P[112] 100mm/sec CNT100    ;
   113:L P[113] 100mm/sec CNT100    ;
   114:L P[114] 100mm/sec CNT100    ;
   115:L P[115] 100mm/sec CNT100    ;
   116:L P[116] 100mm/sec CNT100    ;
   117:L P[117] 100mm/sec CNT100    ;
   118:L P[118] 100mm/sec CNT100    ;
   119:L P[119] 100mm/sec CNT100    ;
   120:L P[120] 100mm/sec CNT100    ;
   121:L P[121] 100mm/sec CNT100    ;
   122:L P[122] 100mm/sec CNT100    ;
   123:L P[123] 100mm/sec CNT100    ;
   124:L P[124] 100mm/sec CNT100    ;
   125:L P[125] 100mm/sec CNT100    ;
   126:L P[126] 100mm/sec CNT100    ;
   127:L P[127] 100mm/sec CNT100    ;
   128:L P[128] 100mm/sec CNT100    ;
   129:L P[129] 100mm/sec CNT100    ;
   130:L P[130] 100mm/sec CNT100    ;
   131:L P[131] 100mm/sec CNT100    ;
   132:L P[132] 100mm/sec CNT100    ;
   133:L P[133] 100mm/sec CNT100    ;
   134:L P[134] 100mm/sec CNT100    ;
   135:L P[135] 100mm/sec CNT100    ;
   136:L P[136] 100mm/sec CNT100    ;
   137:L P[137] 100mm/sec CNT100    ;
   138:L P[138] 100mm/sec CNT100    ;
   139:L P[139] 100mm/sec CNT100    ;
   140:L P[140] 100mm/sec CNT100    ;
   141:L P[141] 100mm/sec CNT100    ;
   142:L P[142] 100mm/sec CNT100    ;
   143:L P[143] 100mm/sec CNT100    ;
   144:L P[144] 100mm/sec CNT100    ;
   145:L P[145] 100mm/sec CNT100    ;
   146:L P[146] 100mm/sec CNT100    ;
   147:L P[147] 100mm/sec CNT100    ;
   148:L P[148] 100mm/sec CNT100    ;
   149:L P[149] 100mm/sec CNT100    ;
   150:L P[150] 100mm/sec CNT100    ;
   151:L P[151] 100mm/sec CNT100    ;
   152:L P[152] 100mm/sec CNT100    ;
   153:L P[153] 100mm/sec CNT100    ;
   154:L P[154] 100mm/sec CNT100    ;
   155:L P[155] 100mm/sec CNT100    ;
   156:L P[156] 100mm/sec CNT100    ;
   157:L P[157] 100mm/sec CNT100    ;
   158:L P[158] 100mm/sec CNT100    ;
   159:L P[159] 100mm/sec CNT100    ;
   160:L P[160] 100mm/sec CNT100    ;
   161:L P[161] 100mm/sec CNT100    ;
   162:L P[162] 100mm/sec CNT100    ;
   163:L P[163] 100mm/sec CNT100    ;
   164:L P[164] 100mm/sec CNT100    ;
   165:L P[165] 100mm/sec CNT100    ;
   166:L P[166] 100mm/sec CNT100    ;
   167:L P[167] 100mm/sec CNT100    ;
   168:L P[168] 100mm/sec CNT100    ;
   169:L P[169] 100mm/sec CNT100    ;
   170:L P[170] 100mm/sec CNT100    ;
   171:L P[171] 100mm/sec CNT100    ;
   172:L P[172] 100mm/sec CNT100    ;
   173:L P[173] 100mm/sec CNT100    ;
   174:L P[174] 100mm/sec CNT100    ;
   175:L P[175] 100mm/sec CNT100    ;
   176:L P[176] 100mm/sec CNT100    ;
   177:L P[177] 100mm/sec CNT100    ;
   178:L P[178] 100mm/sec CNT100    ;
   179:L P[179] 100mm/sec CNT100    ;
   180:L P[180] 100mm/sec CNT100    ;
   181:L P[181] 100mm/sec CNT100    ;
   182:L P[182] 100mm/sec CNT100    ;
   183:L P[183] 100mm/sec CNT100    ;
   184:L P[184] 100mm/sec CNT100    ;
   185:L P[185] 100mm/sec CNT100    ;
   186:L P[186] 100mm/sec CNT100    ;
   187:L P[187] 100mm/sec CNT100    ;
   188:L P[188] 100mm/sec CNT100    ;
   189:L P[189] 100mm/sec CNT100    ;
   190:L P[190] 100mm/sec CNT100    ;
   191:L P[191] 100mm/sec CNT100    ;
   192:L P[192] 100mm/sec CNT100    ;
   193:L P[193] 100mm/sec CNT100    ;
   194:L P[194] 100mm/sec CNT100    ;
   195:L P[195] 100mm/sec CNT100    ;
   196:L P[196] 100mm/sec CNT100    ;
   197:L P[197] 100mm/sec CNT100    ;
   198:L P[198] 100mm/sec CNT100    ;
   199:L P[199] 100mm/sec CNT100    ;
   200:L P[200] 100mm/sec CNT100    ;
   201:L P[201] 100mm/sec CNT100    ;
   202:L P[202] 100mm/sec CNT100    ;
   203:L P[203] 100mm/sec CNT100    ;
   204:L P[204] 100mm/sec CNT100    ;
   205:L P[205] 100mm/sec CNT100    ;
   206:L P[206] 100mm/sec CNT100    ;
   207:L P[207] 100mm/sec CNT100    ;
   208:L P[208] 100mm/sec CNT100    ;
   209:L P[209] 100mm/sec CNT100    ;
   210:L P[210] 100mm/sec CNT100    ;
   211:L P[211] 100mm/sec CNT100    ;
   212:L P[212] 100mm/sec CNT100    ;
   213:L P[213] 100mm/sec CNT100    ;
   214:L P[214] 100mm/sec CNT100    ;
   215:L P[215] 100mm/sec CNT100    ;
   216:L P[216] 100mm/sec CNT100    ;
   217:L P[217] 100mm/sec CNT100    ;
   218:L P[218] 100mm/sec CNT100    ;
   219:L P[219] 100mm/sec CNT100    ;
   220:L P[220] 100mm/sec CNT100    ;
   221:L P[221] 100mm/sec CNT100    ;
   222:L P[222] 100mm/sec CNT100    ;
   223:L P[223] 100mm/sec CNT100    ;
   224:L P[224] 100mm/sec CNT100    ;
   225:L P[225] 100mm/sec CNT100    ;
   226:L P[226] 100mm/sec CNT100    ;
   227:L P[227] 100mm/sec CNT100    ;
   228:L P[228] 100mm/sec CNT100    ;
   229:L P[229] 100mm/sec CNT100    ;
   230:L P[230] 100mm/sec CNT100    ;
   231:L P[231] 100mm/sec CNT100    ;
   232:L P[232] 100mm/sec CNT100    ;
   233:L P[233] 100mm/sec CNT100    ;
   234:L P[234] 100mm/sec CNT100    ;
   235:L P[235] 100mm/sec CNT100    ;
   236:L P[236] 100mm/sec CNT100    ;
   237:L P[237] 100mm/sec CNT100    ;
   238:L P[238] 100mm/sec CNT100    ;
   239:L P[239] 100mm/sec CNT100    ;
   240:L P[240] 100mm/sec CNT100    ;
   241:L P[241] 100mm/sec CNT100    ;
   242:L P[242] 100mm/sec CNT100    ;
   243:L P[243] 100mm/sec CNT100    ;
   244:L P[244] 100mm/sec CNT100    ;
   245:L P[245] 100mm/sec CNT100    ;
   246:L P[246] 100mm/sec CNT100    ;
   247:L P[247] 100mm/sec CNT100    ;
   248:L P[248] 100mm/sec CNT100    ;
   249:L P[249] 100mm/sec CNT100    ;
   250:L P[250] 100mm/sec CNT100    ;
   251:L P[251] 100mm/sec CNT100    ;
   252:L P[252] 100mm/sec CNT100    ;
   253:L P[253] 100mm/sec CNT100    ;
   254:L P[254] 100mm/sec CNT100    ;
   255:L P[255] 100mm/sec CNT100    ;
   256:L P[256] 100mm/sec CNT100    ;
   257:L P[257] 100mm/sec CNT100    ;
   258:L P[258] 100mm/sec CNT100    ;
   259:L P[259] 100mm/sec CNT100    ;
   260:L P[260] 100mm/sec CNT100    ;
   261:L P[261] 100mm/sec CNT100    ;
   262:L P[262] 100mm/sec CNT100    ;
   263:L P[263] 100mm/sec CNT100    ;
   264:L P[264] 100mm/sec CNT100    ;
   265:L P[265] 100mm/sec CNT100    ;
   266:L P[266] 100mm/sec CNT100    ;
   267:L P[267] 100mm/sec CNT100    ;
   268:L P[268] 100mm/sec CNT100    ;
   269:L P[269] 100mm/sec CNT100    ;
   270:L P[270] 100mm/sec CNT100    ;
   271:L P[271] 100mm/sec CNT100    ;
   272:L P[272] 100mm/sec CNT100    ;
   273:L P[273] 100mm/sec CNT100    ;
   274:L P[274] 100mm/sec CNT100    ;
   275:L P[275] 100mm/sec CNT100    ;
   276:L P[276] 100mm/sec CNT100    ;
   277:L P[277] 100mm/sec CNT100    ;
   278:L P[278] 100mm/sec CNT100    ;
   279:L P[279] 100mm/sec CNT100    ;
   280:L P[280] 100mm/sec CNT100    ;
   281:L P[281] 100mm/sec CNT100    ;
   282:L P[282] 100mm/sec CNT100    ;
   283:L P[283] 100mm/sec CNT100    ;
   284:L P[284] 100mm/sec CNT100    ;
   285:L P[285] 100mm/sec CNT100    ;
   286:L P[286] 100mm/sec CNT100    ;
   287:L P[287] 100mm/sec CNT100    ;
   288:L P[288] 100mm/sec CNT100    ;
   289:L P[289] 100mm/sec CNT100    ;
   290:L P[290] 100mm/sec CNT100    ;
   291:L P[291] 100mm/sec CNT100    ;
   292:L P[292] 100mm/sec CNT100    ;
   293:L P[293] 100mm/sec CNT100    ;
   294:L P[294] 100mm/sec CNT100    ;
   295:L P[295] 100mm/sec CNT100    ;
   296:L P[296] 100mm/sec CNT100    ;
   297:L P[297] 100mm/sec CNT100    ;
   298:L P[298] 100mm/sec CNT100    ;
   299:L P[299] 100mm/sec CNT100    ;
   300:L P[300] 100mm/sec CNT100    ;
   301:L P[301] 100mm/sec CNT100    ;
   302:L P[302] 100mm/sec CNT100    ;
   303:L P[303] 100mm/sec CNT100    ;
   304:L P[304] 100mm/sec CNT100    ;
   305:L P[305] 100mm/sec CNT100    ;
   306:L P[306] 100mm/sec CNT100    ;
   307:L P[307] 100mm/sec CNT100    ;
   308:L P[308] 100mm/sec CNT100    ;
   309:L P[309] 100mm/sec CNT100    ;
   310:L P[310] 100mm/sec CNT100    ;
   311:L P[311] 100mm/sec CNT100    ;
   312:L P[312] 100mm/sec CNT100    ;
   313:L P[313] 100mm/sec CNT100    ;
   314:L P[314] 100mm/sec CNT100    ;
   315:L P[315] 100mm/sec CNT100    ;
   316:L P[316] 100mm/sec CNT100    ;
   317:L P[317] 100mm/sec CNT100    ;
   318:L P[318] 100mm/sec CNT100    ;
   319:L P[319] 100mm/sec CNT100    ;
   320:L P[320] 100mm/sec CNT100    ;
   321:L P[321] 100mm/sec CNT100    ;
   322:L P[322] 100mm/sec CNT100    ;
   323:L P[323] 100mm/sec CNT100    ;
   324:L P[324] 100mm/sec CNT100    ;
   325:L P[325] 100mm/sec CNT100    ;
   326:L P[326] 100mm/sec CNT100    ;
   327:L P[327] 100mm/sec CNT100    ;
   328:L P[328] 100mm/sec CNT100    ;
   329:L P[329] 100mm/sec CNT100    ;
   330:L P[330] 100mm/sec CNT100    ;
   331:L P[331] 100mm/sec CNT100    ;
   332:L P[332] 100mm/sec CNT100    ;
   333:L P[333] 100mm/sec CNT100    ;
   334:L P[334] 100mm/sec CNT100    ;
   335:L P[335] 100mm/sec CNT100    ;
   336:L P[336] 100mm/sec CNT100    ;
   337:L P[337] 100mm/sec CNT100    ;
   338:L P[338] 100mm/sec CNT100    ;
   339:L P[339] 100mm/sec CNT100    ;
   340:L P[340] 100mm/sec CNT100    ;
   341:L P[341] 100mm/sec CNT100    ;
   342:L P[342] 100mm/sec CNT100    ;
   343:L P[343] 100mm/sec CNT100    ;
   344:L P[344] 100mm/sec CNT100    ;
   345:L P[345] 100mm/sec CNT100    ;
   346:L P[346] 100mm/sec CNT100    ;
   347:L P[347] 100mm/sec CNT100    ;
   348:L P[348] 100mm/sec CNT100    ;
   349:L P[349] 100mm/sec CNT100    ;
   350:L P[350] 100mm/sec CNT100    ;
   351:L P[351] 100mm/sec CNT100    ;
   352:L P[352] 100mm/sec CNT100    ;
   353:L P[353] 100mm/sec CNT100    ;
   354:L P[354] 100mm/sec CNT100    ;
   355:L P[355] 100mm/sec CNT100    ;
   356:L P[356] 100mm/sec CNT100    ;
   357:L P[357] 100mm/sec CNT100    ;
   358:L P[358] 100mm/sec CNT100    ;
   359:L P[359] 100mm/sec CNT100    ;
   360:L P[360] 100mm/sec CNT100    ;
   361:L P[361] 100mm/sec CNT100    ;
   362:L P[362] 100mm/sec CNT100    ;
   363:L P[363] 100mm/sec CNT100    ;
   364:L P[364] 100mm/sec CNT100    ;
   365:L P[365] 100mm/sec CNT100    ;
   366:L P[366] 100mm/sec CNT100    ;
   367:L P[367] 100mm/sec CNT100    ;
   368:L P[368] 100mm/sec CNT100    ;
   369:L P[369] 100mm/sec CNT100    ;
   370:L P[370] 100mm/sec CNT100    ;
   371:L P[371] 100mm/sec CNT100    ;
   372:L P[372] 100mm/sec CNT100    ;
   373:L P[373] 100mm/sec CNT100    ;
   374:L P[374] 100mm/sec CNT100    ;
   375:L P[375] 100mm/sec CNT100    ;
   376:L P[376] 100mm/sec CNT100    ;
   377:L P[377] 100mm/sec CNT100    ;
   378:L P[378] 100mm/sec CNT100    ;
   379:L P[379] 100mm/sec CNT100    ;
   380:L P[380] 100mm/sec CNT100    ;
   381:L P[381] 100mm/sec CNT100    ;
   382:L P[382] 100mm/sec CNT100    ;
   383:L P[383] 100mm/sec CNT100    ;
   384:L P[384] 100mm/sec CNT100    ;
   385:L P[385] 100mm/sec CNT100    ;
   386:L P[386] 100mm/sec CNT100    ;
   387:L P[387] 100mm/sec CNT100    ;
   388:L P[388] 100mm/sec CNT100    ;
   389:L P[389] 100mm/sec CNT100    ;
   390:L P[390] 100mm/sec CNT100    ;
   391:L P[391] 100mm/sec CNT100    ;
   392:L P[392] 100mm/sec CNT100    ;
   393:L P[393] 100mm/sec CNT100    ;
   394:L P[394] 100mm/sec CNT100    ;
   395:L P[395] 100mm/sec CNT100    ;
   396:L P[396] 100mm/sec CNT100    ;
   397:L P[397] 100mm/sec CNT100    ;
   398:L P[398] 100mm/sec CNT100    ;
   399:L P[399] 100mm/sec CNT100    ;
   400:L P[400] 100mm/sec CNT100    ;
   401:L P[401] 100mm/sec CNT100    ;
   402:L P[402] 100mm/sec CNT100    ;
   403:L P[403] 100mm/sec CNT100    ;
   404:L P[404] 100mm/sec CNT100    ;
   405:L P[405] 100mm/sec CNT100    ;
   406:L P[406] 100mm/sec CNT100    ;
   407:L P[407] 100mm/sec CNT100    ;
   408:L P[408] 100mm/sec CNT100    ;
   409:L P[409] 100mm/sec CNT100    ;
   410:L P[410] 100mm/sec CNT100    ;
   411:L P[411] 100mm/sec CNT100    ;
   412:L P[412] 100mm/sec CNT100    ;
   413:L P[413] 100mm/sec CNT100    ;
   414:L P[414] 100mm/sec CNT100    ;
   415:L P[415] 100mm/sec CNT100    ;
   416:L P[416] 100mm/sec CNT100    ;
   417:L P[417] 100mm/sec CNT100    ;
   418:L P[418] 100mm/sec CNT100    ;
   419:L P[419] 100mm/sec CNT100    ;
   420:L P[420] 100mm/sec CNT100    ;
   421:L P[421] 100mm/sec CNT100    ;
   422:L P[422] 100mm/sec CNT100    ;
   423:L P[423] 100mm/sec CNT100    ;
   424:L P[424] 100mm/sec CNT100    ;
   425:L P[425] 100mm/sec CNT100    ;
   426:L P[426] 100mm/sec CNT100    ;
   427:L P[427] 100mm/sec CNT100    ;
   428:L P[428] 100mm/sec CNT100    ;
   429:L P[429] 100mm/sec CNT100    ;
   430:L P[430] 100mm/sec CNT100    ;
   431:L P[431] 100mm/sec CNT100    ;
   432:L P[432] 100mm/sec CNT100    ;
   433:L P[433] 100mm/sec CNT100    ;
   434:L P[434] 100mm/sec CNT100    ;
   435:L P[435] 100mm/sec CNT100    ;
   436:L P[436] 100mm/sec CNT100    ;
   437:L P[437] 100mm/sec CNT100    ;
   438:L P[438] 100mm/sec CNT100    ;
   439:L P[439] 100mm/sec CNT100    ;
   440:L P[440] 100mm/sec CNT100    ;
   441:L P[441] 100mm/sec CNT100    ;
   442:L P[442] 100mm/sec CNT100    ;
   443:L P[443] 100mm/sec CNT100    ;
   444:L P[444] 100mm/sec CNT100    ;
   445:L P[445] 100mm/sec CNT100    ;
   446:L P[446] 100mm/sec CNT100    ;
   447:L P[447] 100mm/sec CNT100    ;
   448:L P[448] 100mm/sec CNT100    ;
   449:L P[449] 100mm/sec CNT100    ;
   450:L P[450] 100mm/sec CNT100    ;
   451:L P[451] 100mm/sec CNT100    ;
   452:L P[452] 100mm/sec CNT100    ;
   453:L P[453] 100mm/sec CNT100    ;
   454:L P[454] 100mm/sec CNT100    ;
   455:L P[455] 100mm/sec CNT100    ;
   456:L P[456] 100mm/sec CNT100    ;
   457:L P[457] 100mm/sec CNT100    ;
   458:L P[458] 100mm/sec CNT100    ;
   459:L P[459] 100mm/sec CNT100    ;
   460:L P[460] 100mm/sec CNT100    ;
   461:L P[461] 100mm/sec CNT100    ;
   462:L P[462] 100mm/sec CNT100    ;
   463:L P[463] 100mm/sec CNT100    ;
   464:L P[464] 100mm/sec CNT100    ;
   465:L P[465] 100mm/sec CNT100    ;
   466:L P[466] 100mm/sec CNT100    ;
   467:L P[467] 100mm/sec CNT100    ;
   468:L P[468] 100mm/sec CNT100    ;
   469:L P[469] 100mm/sec CNT100    ;
   470:L P[470] 100mm/sec CNT100    ;
   471:L P[471] 100mm/sec CNT100    ;
   472:L P[472] 100mm/sec CNT100    ;
   473:L P[473] 100mm/sec CNT100    ;
   474:L P[474] 100mm/sec CNT100    ;
   475:L P[475] 100mm/sec CNT100    ;
   476:L P[476] 100mm/sec CNT100    ;
   477:L P[477] 100mm/sec CNT100    ;
   478:L P[478] 100mm/sec CNT100    ;
   479:L P[479] 100mm/sec CNT100    ;
   480:L P[480] 100mm/sec CNT100    ;
   481:L P[481] 100mm/sec CNT100    ;
   482:L P[482] 100mm/sec CNT100    ;
   483:L P[483] 100mm/sec CNT100    ;
   484:L P[484] 100mm/sec CNT100    ;
   485:L P[485] 100mm/sec CNT100    ;
   486:L P[486] 100mm/sec CNT100    ;
   487:L P[487] 100mm/sec CNT100    ;
   488:L P[488] 100mm/sec CNT100    ;
   489:L P[489] 100mm/sec CNT100    ;
   490:L P[490] 100mm/sec CNT100    ;
   491:L P[491] 100mm/sec CNT100    ;
   492:L P[492] 100mm/sec CNT100    ;
   493:L P[493] 100mm/sec CNT100    ;
   494:L P[494] 100mm/sec CNT100    ;
   495:L P[495] 100mm/sec CNT100    ;
   496:L P[496] 100mm/sec CNT100    ;
   497:L P[497] 100mm/sec CNT100    ;
   498:L P[498] 100mm/sec CNT100    ;
   499:L P[499] 100mm/sec CNT100    ;
   500:L P[500] 100mm/sec CNT100    ;
   501:L P[501] 100mm/sec CNT100    ;
   502:L P[502] 100mm/sec CNT100    ;
   503:L P[503] 100mm/sec CNT100    ;
   504:L P[504] 100mm/sec CNT100    ;
   505:L P[505] 100mm/sec CNT100    ;
   506:L P[506] 100mm/sec CNT100    ;
   507:L P[507] 100mm/sec CNT100    ;
   508:L P[508] 100mm/sec CNT100    ;
   509:L P[509] 100mm/sec CNT100    ;
   510:L P[510] 100mm/sec CNT100    ;
   511:L P[511] 100mm/sec CNT100    ;
   512:L P[512] 100mm/sec CNT100    ;
   513:L P[513] 100mm/sec CNT100    ;
   514:L P[514] 100mm/sec CNT100    ;
   515:L P[515] 100mm/sec CNT100    ;
   516:L P[516] 100mm/sec CNT100    ;
   517:L P[517] 100mm/sec CNT100    ;
   518:L P[518] 100mm/sec CNT100    ;
   519:L P[519] 100mm/sec CNT100    ;
   520:L P[520] 100mm/sec CNT100    ;
   521:L P[521] 100mm/sec CNT100    ;
   522:L P[522] 100mm/sec CNT100    ;
   523:L P[523] 100mm/sec CNT100    ;
   524:L P[524] 100mm/sec CNT100    ;
   525:L P[525] 100mm/sec CNT100    ;
   526:L P[526] 100mm/sec CNT100    ;
   527:L P[527] 100mm/sec CNT100    ;
   528:L P[528] 100mm/sec CNT100    ;
   529:L P[529] 100mm/sec CNT100    ;
   530:L P[530] 100mm/sec CNT100    ;
   531:L P[531] 100mm/sec CNT100    ;
   532:L P[532] 100mm/sec CNT100    ;
   533:L P[533] 100mm/sec CNT100    ;
   534:L P[534] 100mm/sec CNT100    ;
   535:L P[535] 100mm/sec CNT100    ;
   536:L P[536] 100mm/sec CNT100    ;
   537:L P[537] 100mm/sec CNT100    ;
   538:L P[538] 100mm/sec CNT100    ;
   539:L P[539] 100mm/sec CNT100    ;
   540:L P[540] 100mm/sec CNT100    ;
   541:L P[541] 100mm/sec CNT100    ;
   542:L P[542] 100mm/sec CNT100    ;
   543:L P[543] 100mm/sec CNT100    ;
   544:L P[544] 100mm/sec CNT100    ;
   545:L P[545] 100mm/sec CNT100    ;
   546:L P[546] 100mm/sec CNT100    ;
   547:L P[547] 100mm/sec CNT100    ;
   548:L P[548] 100mm/sec CNT100    ;
   549:L P[549] 100mm/sec CNT100    ;
   550:L P[550] 100mm/sec CNT100    ;
   551:L P[551] 100mm/sec CNT100    ;
   552:L P[552] 100mm/sec CNT100    ;
   553:L P[553] 100mm/sec CNT100    ;
   554:L P[554] 100mm/sec CNT100    ;
   555:L P[555] 100mm/sec CNT100    ;
   556:L P[556] 100mm/sec CNT100    ;
   557:L P[557] 100mm/sec CNT100    ;
   558:L P[558] 100mm/sec CNT100    ;
   559:L P[559] 100mm/sec CNT100    ;
   560:L P[560] 100mm/sec CNT100    ;
   561:L P[561] 100mm/sec CNT100    ;
   562:L P[562] 100mm/sec CNT100    ;
   563:L P[563] 100mm/sec CNT100    ;
   564:L P[564] 100mm/sec CNT100    ;
   565:L P[565] 100mm/sec CNT100    ;
   566:L P[566] 100mm/sec CNT100    ;
   567:L P[567] 100mm/sec CNT100    ;
   568:L P[568] 100mm/sec CNT100    ;
   569:L P[569] 100mm/sec CNT100    ;
   570:L P[570] 100mm/sec CNT100    ;
   571:L P[571] 100mm/sec CNT100    ;
   572:L P[572] 100mm/sec CNT100    ;
   573:L P[573] 100mm/sec CNT100    ;
   574:L P[574] 100mm/sec CNT100    ;
   575:L P[575] 100mm/sec CNT100    ;
   576:L P[576] 100mm/sec CNT100    ;
   577:L P[577] 100mm/sec CNT100    ;
   578:L P[578] 100mm/sec CNT100    ;
   579:L P[579] 100mm/sec CNT100    ;
   580:L P[580] 100mm/sec CNT100    ;
   581:L P[581] 100mm/sec CNT100    ;
   582:L P[582] 100mm/sec CNT100    ;
   583:L P[583] 100mm/sec CNT100    ;
   584:L P[584] 100mm/sec CNT100    ;
   585:L P[585] 100mm/sec CNT100    ;
   586:L P[586] 100mm/sec CNT100    ;
   587:L P[587] 100mm/sec CNT100    ;
   588:L P[588] 100mm/sec CNT100    ;
   589:L P[589] 100mm/sec CNT100    ;
   590:L P[590] 100mm/sec CNT100    ;
   591:L P[591] 100mm/sec CNT100    ;
   592:L P[592] 100mm/sec CNT100    ;
   593:L P[593] 100mm/sec CNT100    ;
   594:L P[594] 100mm/sec CNT100    ;
   595:L P[595] 100mm/sec CNT100    ;
   596:L P[596] 100mm/sec CNT100    ;
   597:L P[597] 100mm/sec CNT100    ;
   598:L P[598] 100mm/sec CNT100    ;
   599:L P[599] 100mm/sec CNT100    ;
   600:L P[600] 100mm/sec CNT100    ;
   601:L P[601] 100mm/sec CNT100    ;
   602:L P[602] 100mm/sec CNT100    ;
   603:L P[603] 100mm/sec CNT100    ;
   604:L P[604] 100mm/sec CNT100    ;
   605:L P[605] 100mm/sec CNT100    ;
   606:L P[606] 100mm/sec CNT100    ;
   607:L P[607] 100mm/sec CNT100    ;
   608:L P[608] 100mm/sec CNT100    ;
   609:L P[609] 100mm/sec CNT100    ;
   610:L P[610] 100mm/sec CNT100    ;
   611:L P[611] 100mm/sec CNT100    ;
   612:L P[612] 100mm/sec CNT100    ;
   613:L P[613] 100mm/sec CNT100    ;
   614:L P[614] 100mm/sec CNT100    ;
   615:L P[615] 100mm/sec CNT100    ;
   616:L P[616] 100mm/sec CNT100    ;
   617:L P[617] 100mm/sec CNT100    ;
   618:L P[618] 100mm/sec CNT100    ;
   619:L P[619] 100mm/sec CNT100    ;
   620:L P[620] 100mm/sec CNT100    ;
   621:L P[621] 100mm/sec CNT100    ;
   622:L P[622] 100mm/sec CNT100    ;
   623:L P[623] 100mm/sec CNT100    ;
   624:L P[624] 100mm/sec CNT100    ;
   625:L P[625] 100mm/sec CNT100    ;
   626:L P[626] 100mm/sec CNT100    ;
   627:L P[627] 100mm/sec CNT100    ;
   628:L P[628] 100mm/sec CNT100    ;
   629:L P[629] 100mm/sec CNT100    ;
   630:L P[630] 100mm/sec CNT100    ;
   631:L P[631] 100mm/sec CNT100    ;
   632:L P[632] 100mm/sec CNT100    ;
   633:L P[633] 100mm/sec CNT100    ;
   634:L P[634] 100mm/sec CNT100    ;
   635:L P[635] 100mm/sec CNT100    ;
   636:L P[636] 100mm/sec CNT100    ;
   637:L P[637] 100mm/sec CNT100    ;
   638:L P[638] 100mm/sec CNT100    ;
   639:L P[639] 100mm/sec CNT100    ;
   640:L P[640] 100mm/sec CNT100    ;
   641:L P[641] 100mm/sec CNT100    ;
   642:L P[642] 100mm/sec CNT100    ;
   643:L P[643] 100mm/sec CNT100    ;
   644:L P[644] 100mm/sec CNT100    ;
   645:L P[645] 100mm/sec CNT100    ;
   646:L P[646] 100mm/sec CNT100    ;
   647:L P[647] 100mm/sec CNT100    ;
   648:L P[648] 100mm/sec CNT100    ;
   649:L P[649] 100mm/sec CNT100    ;
   650:L P[650] 100mm/sec CNT100    ;
   651:L P[651] 100mm/sec CNT100    ;
   652:L P[652] 100mm/sec CNT100    ;
   653:L P[653] 100mm/sec CNT100    ;
   654:L P[654] 100mm/sec CNT100    ;
   655:L P[655] 100mm/sec CNT100    ;
   656:L P[656] 100mm/sec CNT100    ;
   657:L P[657] 100mm/sec CNT100    ;
   658:L P[658] 100mm/sec CNT100    ;
   659:L P[659] 100mm/sec CNT100    ;
   660:L P[660] 100mm/sec CNT100    ;
   661:L P[661] 100mm/sec CNT100    ;
   662:L P[662] 100mm/sec CNT100    ;
   663:L P[663] 100mm/sec CNT100    ;
   664:L P[664] 100mm/sec CNT100    ;
   665:L P[665] 100mm/sec CNT100    ;
   666:L P[666] 100mm/sec CNT100    ;
   667:L P[667] 100mm/sec CNT100    ;
   668:L P[668] 100mm/sec CNT100    ;
   669:L P[669] 100mm/sec CNT100    ;
   670:L P[670] 100mm/sec CNT100    ;
   671:L P[671] 100mm/sec CNT100    ;
   672:L P[672] 100mm/sec CNT100    ;
   673:L P[673] 100mm/sec CNT100    ;
   674:L P[674] 100mm/sec CNT100    ;
   675:L P[675] 100mm/sec CNT100    ;
   676:L P[676] 100mm/sec CNT100    ;
   677:L P[677] 100mm/sec CNT100    ;
   678:L P[678] 100mm/sec CNT100    ;
   679:L P[679] 100mm/sec CNT100    ;
   680:L P[680] 100mm/sec CNT100    ;
   681:L P[681] 100mm/sec CNT100    ;
   682:L P[682] 100mm/sec CNT100    ;
   683:L P[683] 100mm/sec CNT100    ;
   684:L P[684] 100mm/sec CNT100    ;
   685:L P[685] 100mm/sec CNT100    ;
   686:L P[686] 100mm/sec CNT100    ;
   687:L P[687] 100mm/sec CNT100    ;
   688:L P[688] 100mm/sec CNT100    ;
   689:L P[689] 100mm/sec CNT100    ;
   690:L P[690] 100mm/sec CNT100    ;
   691:L P[691] 100mm/sec CNT100    ;
   692:L P[692] 100mm/sec CNT100    ;
   693:L P[693] 100mm/sec CNT100    ;
   694:L P[694] 100mm/sec CNT100    ;
   695:L P[695] 100mm/sec CNT100    ;
   696:L P[696] 100mm/sec CNT100    ;
   697:L P[697] 100mm/sec CNT100    ;
   698:L P[698] 100mm/sec CNT100    ;
   699:L P[699] 100mm/sec CNT100    ;
   700:L P[700] 100mm/sec CNT100    ;
   701:L P[701] 100mm/sec CNT100    ;
   702:L P[702] 100mm/sec CNT100    ;
   703:L P[703] 100mm/sec CNT100    ;
   704:L P[704] 100mm/sec CNT100    ;
   705:L P[705] 100mm/sec CNT100    ;
   706:L P[706] 100mm/sec CNT100    ;
   707:L P[707] 100mm/sec CNT100    ;
   708:L P[708] 100mm/sec CNT100    ;
   709:L P[709] 100mm/sec CNT100    ;
   710:L P[710] 100mm/sec CNT100    ;
   711:L P[711] 100mm/sec CNT100    ;
   712:L P[712] 100mm/sec CNT100    ;
   713:L P[713] 100mm/sec CNT100    ;
   714:L P[714] 100mm/sec CNT100    ;
   715:L P[715] 100mm/sec CNT100    ;
   716:L P[716] 100mm/sec CNT100    ;
   717:L P[717] 100mm/sec CNT100    ;
   718:L P[718] 100mm/sec CNT100    ;
   719:L P[719] 100mm/sec CNT100    ;
   720:L P[720] 100mm/sec CNT100    ;
   721:L P[721] 100mm/sec CNT100    ;
   722:L P[722] 100mm/sec CNT100    ;
   723:L P[723] 100mm/sec CNT100    ;
   724:L P[724] 100mm/sec CNT100    ;
   725:L P[725] 100mm/sec CNT100    ;
   726:L P[726] 100mm/sec CNT100    ;
   727:L P[727] 100mm/sec CNT100    ;
   728:L P[728] 100mm/sec CNT100    ;
   729:L P[729] 100mm/sec CNT100    ;
   730:L P[730] 100mm/sec CNT100    ;
   731:L P[731] 100mm/sec CNT100    ;
   732:L P[732] 100mm/sec CNT100    ;
   733:L P[733] 100mm/sec CNT100    ;
   734:L P[734] 100mm/sec CNT100    ;
   735:L P[735] 100mm/sec CNT100    ;
   736:L P[736] 100mm/sec CNT100    ;
   737:L P[737] 100mm/sec CNT100    ;
   738:L P[738] 100mm/sec CNT100    ;
   739:L P[739] 100mm/sec CNT100    ;
   740:L P[740] 100mm/sec CNT100    ;
   741:L P[741] 100mm/sec CNT100    ;
   742:L P[742] 100mm/sec CNT100    ;
   743:L P[743] 100mm/sec CNT100    ;
   744:L P[744] 100mm/sec CNT100    ;
   745:L P[745] 100mm/sec CNT100    ;
   746:L P[746] 100mm/sec CNT100    ;
   747:L P[747] 100mm/sec CNT100    ;
   748:L P[748] 100mm/sec CNT100    ;
   749:L P[749] 100mm/sec CNT100    ;
   750:L P[750] 100mm/sec CNT100    ;
   751:L P[751] 100mm/sec CNT100    ;
   752:L P[752] 100mm/sec CNT100    ;
   753:L P[753] 100mm/sec CNT100    ;
   754:L P[754] 100mm/sec CNT100    ;
   755:L P[755] 100mm/sec CNT100    ;
   756:L P[756] 100mm/sec CNT100    ;
   757:L P[757] 100mm/sec CNT100    ;
   758:L P[758] 100mm/sec CNT100    ;
   759:L P[759] 100mm/sec CNT100    ;
   760:L P[760] 100mm/sec CNT100    ;
   761:L P[761] 100mm/sec CNT100    ;
   762:L P[762] 100mm/sec CNT100    ;
   763:L P[763] 100mm/sec CNT100    ;
   764:L P[764] 100mm/sec CNT100    ;
   765:L P[765] 100mm/sec CNT100    ;
   766:L P[766] 100mm/sec CNT100    ;
   767:L P[767] 100mm/sec CNT100    ;
   768:L P[768] 100mm/sec CNT100    ;
   769:L P[769] 100mm/sec CNT100    ;
   770:L P[770] 100mm/sec CNT100    ;
   771:L P[771] 100mm/sec CNT100    ;
   772:L P[772] 100mm/sec CNT100    ;
   773:L P[773] 100mm/sec CNT100    ;
   774:L P[774] 100mm/sec CNT100    ;
   775:L P[775] 100mm/sec CNT100    ;
   776:L P[776] 100mm/sec CNT100    ;
   777:L P[777] 100mm/sec CNT100    ;
   778:L P[778] 100mm/sec CNT100    ;
   779:L P[779] 100mm/sec CNT100    ;
   780:L P[780] 100mm/sec CNT100    ;
   781:L P[781] 100mm/sec CNT100    ;
   782:L P[782] 100mm/sec CNT100    ;
   783:L P[783] 100mm/sec CNT100    ;
   784:L P[784] 100mm/sec CNT100    ;
   785:L P[785] 100mm/sec CNT100    ;
   786:L P[786] 100mm/sec CNT100    ;
   787:L P[787] 100mm/sec CNT100    ;
   788:L P[788] 100mm/sec CNT100    ;
   789:L P[789] 100mm/sec CNT100    ;
   790:L P[790] 100mm/sec CNT100    ;
   791:L P[791] 100mm/sec CNT100    ;
   792:L P[792] 100mm/sec CNT100    ;
   793:L P[793] 100mm/sec CNT100    ;
   794:L P[794] 100mm/sec CNT100    ;
   795:L P[795] 100mm/sec CNT100    ;
   796:L P[796] 100mm/sec CNT100    ;
   797:L P[797] 100mm/sec CNT100    ;
   798:L P[798] 100mm/sec CNT100    ;
   799:L P[799] 100mm/sec CNT100    ;
   800:L P[800] 100mm/sec CNT100    ;
   801:L P[801] 100mm/sec CNT100    ;
   802:L P[802] 100mm/sec CNT100    ;
   803:L P[803] 100mm/sec CNT100    ;
   804:L P[804] 100mm/sec CNT100    ;
   805:L P[805] 100mm/sec CNT100    ;
   806:L P[806] 100mm/sec CNT100    ;
   807:L P[807] 100mm/sec CNT100    ;
   808:L P[808] 100mm/sec CNT100    ;
   809:L P[809] 100mm/sec CNT100    ;
   810:L P[810] 100mm/sec CNT100    ;
   811:L P[811] 100mm/sec CNT100    ;
   812:L P[812] 100mm/sec CNT100    ;
   813:L P[813] 100mm/sec CNT100    ;
   814:L P[814] 100mm/sec CNT100    ;
   815:L P[815] 100mm/sec CNT100    ;
   816:L P[816] 100mm/sec CNT100    ;
   817:L P[817] 100mm/sec CNT100    ;
   818:L P[818] 100mm/sec CNT100    ;
   819:L P[819] 100mm/sec CNT100    ;
   820:L P[820] 100mm/sec CNT100    ;
   821:L P[821] 100mm/sec CNT100    ;
   822:L P[822] 100mm/sec CNT100    ;
   823:L P[823] 100mm/sec CNT100    ;
   824:L P[824] 100mm/sec CNT100    ;
   825:L P[825] 100mm/sec CNT100    ;
   826:L P[826] 100mm/sec CNT100    ;
   827:L P[827] 100mm/sec CNT100    ;
   828:L P[828] 100mm/sec CNT100    ;
   829:L P[829] 100mm/sec CNT100    ;
   830:L P[830] 100mm/sec CNT100    ;
   831:L P[831] 100mm/sec CNT100    ;
   832:L P[832] 100mm/sec CNT100    ;
   833:L P[833] 100mm/sec CNT100    ;
   834:L P[834] 100mm/sec CNT100    ;
   835:L P[835] 100mm/sec CNT100    ;
   836:L P[836] 100mm/sec CNT100    ;
   837:L P[837] 100mm/sec CNT100    ;
   838:L P[838] 100mm/sec CNT100    ;
   839:L P[839] 100mm/sec CNT100    ;
   840:L P[840] 100mm/sec CNT100    ;
   841:L P[841] 100mm/sec CNT100    ;
   842:L P[842] 100mm/sec CNT100    ;
   843:L P[843] 100mm/sec CNT100    ;
   844:L P[844] 100mm/sec CNT100    ;
   845:L P[845] 100mm/sec CNT100    ;
   846:L P[846] 100mm/sec CNT100    ;
   847:L P[847] 100mm/sec CNT100    ;
   848:L P[848] 100mm/sec CNT100    ;
   849:L P[849] 100mm/sec CNT100    ;
   850:L P[850] 100mm/sec CNT100    ;
   851:L P[851] 100mm/sec CNT100    ;
   852:L P[852] 100mm/sec CNT100    ;
   853:L P[853] 100mm/sec CNT100    ;
   854:L P[854] 100mm/sec CNT100    ;
   855:L P[855] 100mm/sec CNT100    ;
   856:L P[856] 100mm/sec CNT100    ;
   857:L P[857] 100mm/sec CNT100    ;
   858:L P[858] 100mm/sec CNT100    ;
   859:L P[859] 100mm/sec CNT100    ;
   860:L P[860] 100mm/sec CNT100    ;
   861:L P[861] 100mm/sec CNT100    ;
   862:L P[862] 100mm/sec CNT100    ;
   863:L P[863] 100mm/sec CNT100    ;
   864:L P[864] 100mm/sec CNT100    ;
   865:L P[865] 100mm/sec CNT100    ;
   866:L P[866] 100mm/sec CNT100    ;
   867:L P[867] 100mm/sec CNT100    ;
   868:L P[868] 100mm/sec CNT100    ;
   869:L P[869] 100mm/sec CNT100    ;
   870:L P[870] 100mm/sec CNT100    ;
   871:L P[871] 100mm/sec CNT100    ;
   872:L P[872] 100mm/sec CNT100    ;
   873:L P[873] 100mm/sec CNT100    ;
   874:L P[874] 100mm/sec CNT100    ;
   875:L P[875] 100mm/sec CNT100    ;
   876:L P[876] 100mm/sec CNT100    ;
   877:L P[877] 100mm/sec CNT100    ;
   878:L P[878] 100mm/sec CNT100    ;
   879:L P[879] 100mm/sec CNT100    ;
   880:L P[880] 100mm/sec CNT100    ;
   881:L P[881] 100mm/sec CNT100    ;
   882:L P[882] 100mm/sec CNT100    ;
   883:L P[883] 100mm/sec CNT100    ;
   884:L P[884] 100mm/sec CNT100    ;
   885:L P[885] 100mm/sec CNT100    ;
   886:L P[886] 100mm/sec CNT100    ;
   887:L P[887] 100mm/sec CNT100    ;
   888:L P[888] 100mm/sec CNT100    ;
   889:L P[889] 100mm/sec CNT100    ;
   890:L P[890] 100mm/sec CNT100    ;
   891:L P[891] 100mm/sec CNT100    ;
   892:L P[892] 100mm/sec CNT100    ;
   893:L P[893] 100mm/sec CNT100    ;
   894:L P[894] 100mm/sec CNT100    ;
   895:L P[895] 100mm/sec CNT100    ;
   896:L P[896] 100mm/sec CNT100    ;
   897:L P[897] 100mm/sec CNT100    ;
   898:L P[898] 100mm/sec CNT100    ;
   899:L P[899] 100mm/sec CNT100    ;
   900:L P[900] 100mm/sec CNT100    ;
   901:L P[901] 100mm/sec CNT100    ;
   902:L P[902] 100mm/sec CNT100    ;
   903:L P[903] 100mm/sec CNT100    ;
   904:L P[904] 100mm/sec CNT100    ;
   905:L P[905] 100mm/sec CNT100    ;
   906:L P[906] 100mm/sec CNT100    ;
   907:L P[907] 100mm/sec CNT100    ;
   908:L P[908] 100mm/sec CNT100    ;
   909:L P[909] 100mm/sec CNT100    ;
   910:L P[910] 100mm/sec CNT100    ;
   911:L P[911] 100mm/sec CNT100    ;
   912:L P[912] 100mm/sec CNT100    ;
   913:L P[913] 100mm/sec CNT100    ;
   914:L P[914] 100mm/sec CNT100    ;
   915:L P[915] 100mm/sec CNT100    ;
   916:L P[916] 100mm/sec CNT100    ;
   917:L P[917] 100mm/sec CNT100    ;
   918:L P[918] 100mm/sec CNT100    ;
   919:L P[919] 100mm/sec CNT100    ;
   920:L P[920] 100mm/sec CNT100    ;
   921:L P[921] 100mm/sec CNT100    ;
   922:L P[922] 100mm/sec CNT100    ;
   923:L P[923] 100mm/sec CNT100    ;
   924:L P[924] 100mm/sec CNT100    ;
   925:L P[925] 100mm/sec CNT100    ;
   926:L P[926] 100mm/sec CNT100    ;
   927:L P[927] 100mm/sec CNT100    ;
   928:L P[928] 100mm/sec CNT100    ;
   929:L P[929] 100mm/sec CNT100    ;
   930:L P[930] 100mm/sec CNT100    ;
   931:L P[931] 100mm/sec CNT100    ;
   932:L P[932] 100mm/sec CNT100    ;
   933:L P[933] 100mm/sec CNT100    ;
   934:L P[934] 100mm/sec CNT100    ;
   935:L P[935] 100mm/sec CNT100    ;
   936:L P[936] 100mm/sec CNT100    ;
   937:L P[937] 100mm/sec CNT100    ;
   938:L P[938] 100mm/sec CNT100    ;
   939:L P[939] 100mm/sec CNT100    ;
   940:L P[940] 100mm/sec CNT100    ;
   941:L P[941] 100mm/sec CNT100    ;
   942:L P[942] 100mm/sec CNT100    ;
   943:L P[943] 100mm/sec CNT100    ;
   944:L P[944] 100mm/sec CNT100    ;
   945:L P[945] 100mm/sec CNT100    ;
   946:L P[946] 100mm/sec CNT100    ;
   947:L P[947] 100mm/sec CNT100    ;
   948:L P[948] 100mm/sec CNT100    ;
   949:L P[949] 100mm/sec CNT100    ;
   950:L P[950] 100mm/sec CNT100    ;
   951:L P[951] 100mm/sec CNT100    ;
   952:L P[952] 100mm/sec CNT100    ;
   953:L P[953] 100mm/sec CNT100    ;
   954:L P[954] 100mm/sec CNT100    ;
   955:L P[955] 100mm/sec CNT100    ;
   956:L P[956] 100mm/sec CNT100    ;
   957:L P[957] 100mm/sec CNT100    ;
   958:L P[958] 100mm/sec CNT100    ;
   959:L P[959] 100mm/sec CNT100    ;
   960:L P[960] 100mm/sec CNT100    ;
   961:L P[961] 100mm/sec CNT100    ;
   962:L P[962] 100mm/sec CNT100    ;
   963:L P[963] 100mm/sec CNT100    ;
   964:L P[964] 100mm/sec CNT100    ;
   965:L P[965] 100mm/sec CNT100    ;
   966:L P[966] 100mm/sec CNT100    ;
   967:L P[967] 100mm/sec CNT100    ;
   968:L P[968] 100mm/sec CNT100    ;
   969:L P[969] 100mm/sec CNT100    ;
   970:L P[970] 100mm/sec CNT100    ;
   971:L P[971] 100mm/sec CNT100    ;
   972:L P[972] 100mm/sec CNT100    ;
   973:L P[973] 100mm/sec CNT100    ;
   974:L P[974] 100mm/sec CNT100    ;
   975:L P[975] 100mm/sec CNT100    ;
   976:L P[976] 100mm/sec CNT100    ;
   977:L P[977] 100mm/sec CNT100    ;
   978:L P[978] 100mm/sec CNT100    ;
   979:L P[979] 100mm/sec CNT100    ;
   980:L P[980] 100mm/sec CNT100    ;
   981:L P[981] 100mm/sec CNT100    ;
   982:L P[982] 100mm/sec CNT100    ;
   983:L P[983] 100mm/sec CNT100    ;
   984:L P[984] 100mm/sec CNT100    ;
   985:L P[985] 100mm/sec CNT100    ;
   986:L P[986] 100mm/sec CNT100    ;
   987:L P[987] 100mm/sec CNT100    ;
   988:L P[988] 100mm/sec CNT100    ;
   989:L P[989] 100mm/sec CNT100    ;
   990:L P[990] 100mm/sec CNT100    ;
   991:L P[991] 100mm/sec CNT100    ;
   992:L P[992] 100mm/sec CNT100    ;
   993:L P[993] 100mm/sec CNT100    ;
   994:L P[994] 100mm/sec CNT100    ;
   995:L P[995] 100mm/sec CNT100    ;
   996:L P[996] 100mm/sec CNT100    ;
   997:L P[997] 100mm/sec CNT100    ;
   998:L P[998] 100mm/sec CNT100    ;
   999:L P[999] 100mm/sec CNT100    ;
   1000:L P[1000] 100mm/sec CNT100    ;
   1001:L P[1001] 100mm/sec CNT100    ;
   1002:L P[1002] 100mm/sec CNT100    ;
   1003:L P[1003] 100mm/sec CNT100    ;
   1004:L P[1004] 100mm/sec CNT100    ;
   1005:L P[1005] 100mm/sec CNT100    ;
   1006:L P[1006] 100mm/sec CNT100    ;
   1007:L P[1007] 100mm/sec CNT100    ;
   1008:L P[1008] 100mm/sec CNT100    ;
   1009:L P[1009] 100mm/sec CNT100    ;
   1010:L P[1010] 100mm/sec CNT100    ;
   1011:L P[1011] 100mm/sec CNT100    ;
   1012:L P[1012] 100mm/sec CNT100    ;
   1013:L P[1013] 100mm/sec CNT100    ;
   1014:L P[1014] 100mm/sec CNT100    ;
   1015:L P[1015] 100mm/sec CNT100    ;
   1016:L P[1016] 100mm/sec CNT100    ;
   1017:L P[1017] 100mm/sec CNT100    ;
   1018:L P[1018] 100mm/sec CNT100    ;
   1019:L P[1019] 100mm/sec CNT100    ;
   1020:L P[1020] 100mm/sec CNT100    ;
   1021:L P[1021] 100mm/sec CNT100    ;
   1022:L P[1022] 100mm/sec CNT100    ;
   1023:L P[1023] 100mm/sec CNT100    ;
   1024:L P[1024] 100mm/sec CNT100    ;
   1025:L P[1025] 100mm/sec CNT100    ;
   1026:L P[1026] 100mm/sec CNT100    ;
   1027:L P[1027] 100mm/sec CNT100    ;
   1028:L P[1028] 100mm/sec CNT100    ;
   1029:L P[1029] 100mm/sec CNT100    ;
   1030:L P[1030] 100mm/sec CNT100    ;
   1031:L P[1031] 100mm/sec CNT100    ;
   1032:L P[1032] 100mm/sec CNT100    ;
   1033:L P[1033] 100mm/sec CNT100    ;
   1034:L P[1034] 100mm/sec CNT100    ;
   1035:L P[1035] 100mm/sec CNT100    ;
   1036:L P[1036] 100mm/sec CNT100    ;
   1037:L P[1037] 100mm/sec CNT100    ;
   1038:L P[1038] 100mm/sec CNT100    ;
   1039:L P[1039] 100mm/sec CNT100    ;
   1040:L P[1040] 100mm/sec CNT100    ;
   1041:L P[1041] 100mm/sec CNT100    ;
   1042:L P[1042] 100mm/sec CNT100    ;
   1043:L P[1043] 100mm/sec CNT100    ;
   1044:L P[1044] 100mm/sec CNT100    ;
   1045:L P[1045] 100mm/sec CNT100    ;
   1046:L P[1046] 100mm/sec CNT100    ;
   1047:L P[1047] 100mm/sec CNT100    ;
   1048:L P[1048] 100mm/sec CNT100    ;
   1049:L P[1049] 100mm/sec CNT100    ;
   1050:L P[1050] 100mm/sec CNT100    ;
   1051:L P[1051] 100mm/sec CNT100    ;
   1052:L P[1052] 100mm/sec CNT100    ;
   1053:L P[1053] 100mm/sec CNT100    ;
   1054:L P[1054] 100mm/sec CNT100    ;
   1055:L P[1055] 100mm/sec CNT100    ;
   1056:L P[1056] 100mm/sec CNT100    ;
   1057:L P[1057] 100mm/sec CNT100    ;
   1058:L P[1058] 100mm/sec CNT100    ;
   1059:L P[1059] 100mm/sec CNT100    ;
   1060:L P[1060] 100mm/sec CNT100    ;
   1061:L P[1061] 100mm/sec CNT100    ;
   1062:L P[1062] 100mm/sec CNT100    ;
   1063:L P[1063] 100mm/sec CNT100    ;
   1064:L P[1064] 100mm/sec CNT100    ;
   1065:L P[1065] 100mm/sec CNT100    ;
   1066:L P[1066] 100mm/sec CNT100    ;
   1067:L P[1067] 100mm/sec CNT100    ;
   1068:L P[1068] 100mm/sec CNT100    ;
   1069:L P[1069] 100mm/sec CNT100    ;
   1070:L P[1070] 100mm/sec CNT100    ;
   1071:L P[1071] 100mm/sec CNT100    ;
   1072:L P[1072] 100mm/sec CNT100    ;
   1073:L P[1073] 100mm/sec CNT100    ;
   1074:L P[1074] 100mm/sec CNT100    ;
   1075:L P[1075] 100mm/sec CNT100    ;
   1076:L P[1076] 100mm/sec CNT100    ;
   1077:L P[1077] 100mm/sec CNT100    ;
   1078:L P[1078] 100mm/sec CNT100    ;
   1079:L P[1079] 100mm/sec CNT100    ;
   1080:L P[1080] 100mm/sec CNT100    ;
   1081:L P[1081] 100mm/sec CNT100    ;
   1082:L P[1082] 100mm/sec CNT100    ;
   1083:L P[1083] 100mm/sec CNT100    ;
   1084:L P[1084] 100mm/sec CNT100    ;
   1085:L P[1085] 100mm/sec CNT100    ;
   1086:L P[1086] 100mm/sec CNT100    ;
   1087:L P[1087] 100mm/sec CNT100    ;
   1088:L P[1088] 100mm/sec CNT100    ;
   1089:L P[1089] 100mm/sec CNT100    ;
   1090:L P[1090] 100mm/sec CNT100    ;
   1091:L P[1091] 100mm/sec CNT100    ;
   1092:L P[1092] 100mm/sec CNT100    ;
   1093:L P[1093] 100mm/sec CNT100    ;
   1094:L P[1094] 100mm/sec CNT100    ;
   1095:L P[1095] 100mm/sec CNT100    ;
   1096:L P[1096] 100mm/sec CNT100    ;
   1097:L P[1097] 100mm/sec CNT100    ;
   1098:L P[1098] 100mm/sec CNT100    ;
   1099:L P[1099] 100mm/sec CNT100    ;
   1100:L P[1100] 100mm/sec CNT100    ;
   1101:L P[1101] 100mm/sec CNT100    ;
   1102:L P[1102] 100mm/sec CNT100    ;
   1103:L P[1103] 100mm/sec CNT100    ;
   1104:L P[1104] 100mm/sec CNT100    ;
   1105:L P[1105] 100mm/sec CNT100    ;
   1106:L P[1106] 100mm/sec CNT100    ;
   1107:L P[1107] 100mm/sec CNT100    ;
   1108:L P[1108] 100mm/sec CNT100    ;
   1109:L P[1109] 100mm/sec CNT100    ;
   1110:L P[1110] 100mm/sec CNT100    ;
   1111:L P[1111] 100mm/sec CNT100    ;
   1112:L P[1112] 100mm/sec CNT100    ;
   1113:L P[1113] 100mm/sec CNT100    ;
   1114:L P[1114] 100mm/sec CNT100    ;
   1115:L P[1115] 100mm/sec CNT100    ;
   1116:L P[1116] 100mm/sec CNT100    ;
   1117:L P[1117] 100mm/sec CNT100    ;
   1118:L P[1118] 100mm/sec CNT100    ;
   1119:L P[1119] 100mm/sec CNT100    ;
   1120:L P[1120] 100mm/sec CNT100    ;
   1121:L P[1121] 100mm/sec CNT100    ;
   1122:L P[1122] 100mm/sec CNT100    ;
   1123:L P[1123] 100mm/sec CNT100    ;
   1124:L P[1124] 100mm/sec CNT100    ;
   1125:L P[1125] 100mm/sec CNT100    ;
   1126:L P[1126] 100mm/sec CNT100    ;
   1127:L P[1127] 100mm/sec CNT100    ;
   1128:L P[1128] 100mm/sec CNT100    ;
   1129:L P[1129] 100mm/sec CNT100    ;
   1130:L P[1130] 100mm/sec CNT100    ;
   1131:L P[1131] 100mm/sec CNT100    ;
   1132:L P[1132] 100mm/sec CNT100    ;
   1133:L P[1133] 100mm/sec CNT100    ;
   1134:L P[1134] 100mm/sec CNT100    ;
   1135:L P[1135] 100mm/sec CNT100    ;
   1136:L P[1136] 100mm/sec CNT100    ;
   1137:L P[1137] 100mm/sec CNT100    ;
   1138:L P[1138] 100mm/sec CNT100    ;
   1139:L P[1139] 100mm/sec CNT100    ;
   1140:L P[1140] 100mm/sec CNT100    ;
   1141:L P[1141] 100mm/sec CNT100    ;
   1142:L P[1142] 100mm/sec CNT100    ;
   1143:L P[1143] 100mm/sec CNT100    ;
   1144:L P[1144] 100mm/sec CNT100    ;
   1145:L P[1145] 100mm/sec CNT100    ;
   1146:L P[1146] 100mm/sec CNT100    ;
   1147:L P[1147] 100mm/sec CNT100    ;
   1148:L P[1148] 100mm/sec CNT100    ;
   1149:L P[1149] 100mm/sec CNT100    ;
   1150:L P[1150] 100mm/sec CNT100    ;
   1151:L P[1151] 100mm/sec CNT100    ;
   1152:L P[1152] 100mm/sec CNT100    ;
   1153:L P[1153] 100mm/sec CNT100    ;
   1154:L P[1154] 100mm/sec CNT100    ;
   1155:L P[1155] 100mm/sec CNT100    ;
   1156:L P[1156] 100mm/sec CNT100    ;
   1157:L P[1157] 100mm/sec CNT100    ;
   1158:L P[1158] 100mm/sec CNT100    ;
   1159:L P[1159] 100mm/sec CNT100    ;
   1160:L P[1160] 100mm/sec CNT100    ;
   1161:L P[1161] 100mm/sec CNT100    ;
   1162:L P[1162] 100mm/sec CNT100    ;
   1163:L P[1163] 100mm/sec CNT100    ;
   1164:L P[1164] 100mm/sec CNT100    ;
   1165:L P[1165] 100mm/sec CNT100    ;
   1166:L P[1166] 100mm/sec CNT100    ;
   1167:L P[1167] 100mm/sec CNT100    ;
   1168:L P[1168] 100mm/sec CNT100    ;
   1169:L P[1169] 100mm/sec CNT100    ;
   1170:L P[1170] 100mm/sec CNT100    ;
   1171:L P[1171] 100mm/sec CNT100    ;
   1172:L P[1172] 100mm/sec CNT100    ;
   1173:L P[1173] 100mm/sec CNT100    ;
   1174:L P[1174] 100mm/sec CNT100    ;
   1175:L P[1175] 100mm/sec CNT100    ;
   1176:L P[1176] 100mm/sec CNT100    ;
   1177:L P[1177] 100mm/sec CNT100    ;
   1178:L P[1178] 100mm/sec CNT100    ;
   1179:L P[1179] 100mm/sec CNT100    ;
   1180:L P[1180] 100mm/sec CNT100    ;
   1181:L P[1181] 100mm/sec CNT100    ;
   1182:L P[1182] 100mm/sec CNT100    ;
   1183:L P[1183] 100mm/sec CNT100    ;
   1184:L P[1184] 100mm/sec CNT100    ;
   1185:L P[1185] 100mm/sec CNT100    ;
   1186:L P[1186] 100mm/sec CNT100    ;
   1187:L P[1187] 100mm/sec CNT100    ;
   1188:L P[1188] 100mm/sec CNT100    ;
   1189:L P[1189] 100mm/sec CNT100    ;
   1190:L P[1190] 100mm/sec CNT100    ;
   1191:L P[1191] 100mm/sec CNT100    ;
   1192:L P[1192] 100mm/sec CNT100    ;
   1193:L P[1193] 100mm/sec CNT100    ;
   1194:L P[1194] 100mm/sec CNT100    ;
   1195:L P[1195] 100mm/sec CNT100    ;
   1196:L P[1196] 100mm/sec CNT100    ;
   1197:L P[1197] 100mm/sec CNT100    ;
   1198:L P[1198] 100mm/sec CNT100    ;
   1199:L P[1199] 100mm/sec CNT100    ;
   1200:L P[1200] 100mm/sec CNT100    ;
   1201:L P[1201] 100mm/sec CNT100    ;
   1202:L P[1202] 100mm/sec CNT100    ;
   1203:L P[1203] 100mm/sec CNT100    ;
   1204:L P[1204] 100mm/sec CNT100    ;
   1205:L P[1205] 100mm/sec CNT100    ;
   1206:L P[1206] 100mm/sec CNT100    ;
   1207:L P[1207] 100mm/sec CNT100    ;
   1208:L P[1208] 100mm/sec CNT100    ;
   1209:L P[1209] 100mm/sec CNT100    ;
   1210:L P[1210] 100mm/sec CNT100    ;
   1211:L P[1211] 100mm/sec CNT100    ;
   1212:L P[1212] 100mm/sec CNT100    ;
   1213:L P[1213] 100mm/sec CNT100    ;
   1214:L P[1214] 100mm/sec CNT100    ;
   1215:L P[1215] 100mm/sec CNT100    ;
   1216:L P[1216] 100mm/sec CNT100    ;
   1217:L P[1217] 100mm/sec CNT100    ;
   1218:L P[1218] 100mm/sec CNT100    ;
   1219:L P[1219] 100mm/sec CNT100    ;
   1220:L P[1220] 100mm/sec CNT100    ;
   1221:L P[1221] 100mm/sec CNT100    ;
   1222:L P[1222] 100mm/sec CNT100    ;
   1223:L P[1223] 100mm/sec CNT100    ;
   1224:L P[1224] 100mm/sec CNT100    ;
   1225:L P[1225] 100mm/sec CNT100    ;
   1226:L P[1226] 100mm/sec CNT100    ;
   1227:L P[1227] 100mm/sec CNT100    ;
   1228:L P[1228] 100mm/sec CNT100    ;
   1229:L P[1229] 100mm/sec CNT100    ;
   1230:L P[1230] 100mm/sec CNT100    ;
   1231:L P[1231] 100mm/sec CNT100    ;
   1232:L P[1232] 100mm/sec CNT100    ;
   1233:L P[1233] 100mm/sec CNT100    ;
   1234:L P[1234] 100mm/sec CNT100    ;
   1235:L P[1235] 100mm/sec CNT100    ;
   1236:L P[1236] 100mm/sec CNT100    ;
   1237:L P[1237] 100mm/sec CNT100    ;
   1238:L P[1238] 100mm/sec CNT100    ;
   1239:L P[1239] 100mm/sec CNT100    ;
   1240:L P[1240] 100mm/sec CNT100    ;
   1241:L P[1241] 100mm/sec CNT100    ;
   1242:L P[1242] 100mm/sec CNT100    ;
   1243:L P[1243] 100mm/sec CNT100    ;
   1244:L P[1244] 100mm/sec CNT100    ;
   1245:L P[1245] 100mm/sec CNT100    ;
   1246:L P[1246] 100mm/sec CNT100    ;
   1247:L P[1247] 100mm/sec CNT100    ;
   1248:L P[1248] 100mm/sec CNT100    ;
   1249:L P[1249] 100mm/sec CNT100    ;
   1250:L P[1250] 100mm/sec CNT100    ;
   1251:L P[1251] 100mm/sec CNT100    ;
   1252:L P[1252] 100mm/sec CNT100    ;
   1253:L P[1253] 100mm/sec CNT100    ;
   1254:L P[1254] 100mm/sec CNT100    ;
   1255:L P[1255] 100mm/sec CNT100    ;
   1256:L P[1256] 100mm/sec CNT100    ;
   1257:L P[1257] 100mm/sec CNT100    ;
   1258:L P[1258] 100mm/sec CNT100    ;
   1259:L P[1259] 100mm/sec CNT100    ;
   1260:L P[1260] 100mm/sec CNT100    ;
   1261:L P[1261] 100mm/sec CNT100    ;
   1262:L P[1262] 100mm/sec CNT100    ;
   1263:L P[1263] 100mm/sec CNT100    ;
   1264:L P[1264] 100mm/sec CNT100    ;
   1265:L P[1265] 100mm/sec CNT100    ;
   1266:L P[1266] 100mm/sec CNT100    ;
   1267:L P[1267] 100mm/sec CNT100    ;
   1268:L P[1268] 100mm/sec CNT100    ;
   1269:L P[1269] 100mm/sec CNT100    ;
   1270:L P[1270] 100mm/sec CNT100    ;
   1271:L P[1271] 100mm/sec CNT100    ;
   1272:L P[1272] 100mm/sec CNT100    ;
   1273:L P[1273] 100mm/sec CNT100    ;
   1274:L P[1274] 100mm/sec CNT100    ;
   1275:L P[1275] 100mm/sec CNT100    ;
   1276:L P[1276] 100mm/sec CNT100    ;
   1277:L P[1277] 100mm/sec CNT100    ;
   1278:L P[1278] 100mm/sec CNT100    ;
   1279:L P[1279] 100mm/sec CNT100    ;
   1280:L P[1280] 100mm/sec CNT100    ;
   1281:L P[1281] 100mm/sec CNT100    ;
   1282:L P[1282] 100mm/sec CNT100    ;
   1283:L P[1283] 100mm/sec CNT100    ;
   1284:L P[1284] 100mm/sec CNT100    ;
   1285:L P[1285] 100mm/sec CNT100    ;
   1286:L P[1286] 100mm/sec CNT100    ;
   1287:L P[1287] 100mm/sec CNT100    ;
   1288:L P[1288] 100mm/sec CNT100    ;
   1289:L P[1289] 100mm/sec CNT100    ;
   1290:L P[1290] 100mm/sec CNT100    ;
   1291:L P[1291] 100mm/sec CNT100    ;
   1292:L P[1292] 100mm/sec CNT100    ;
   1293:L P[1293] 100mm/sec CNT100    ;
   1294:L P[1294] 100mm/sec CNT100    ;
   1295:L P[1295] 100mm/sec CNT100    ;
   1296:L P[1296] 100mm/sec CNT100    ;
   1297:L P[1297] 100mm/sec CNT100    ;
   1298:L P[1298] 100mm/sec CNT100    ;
   1299:L P[1299] 100mm/sec CNT100    ;
   1300:L P[1300] 100mm/sec CNT100    ;
   1301:L P[1301] 100mm/sec CNT100    ;
   1302:L P[1302] 100mm/sec CNT100    ;
   1303:L P[1303] 100mm/sec CNT100    ;
   1304:L P[1304] 100mm/sec CNT100    ;
   1305:L P[1305] 100mm/sec CNT100    ;
   1306:L P[1306] 100mm/sec CNT100    ;
   1307:L P[1307] 100mm/sec CNT100    ;
   1308:L P[1308] 100mm/sec CNT100    ;
   1309:L P[1309] 100mm/sec CNT100    ;
   1310:L P[1310] 100mm/sec CNT100    ;
   1311:L P[1311] 100mm/sec CNT100    ;
   1312:L P[1312] 100mm/sec CNT100    ;
   1313:L P[1313] 100mm/sec CNT100    ;
   1314:L P[1314] 100mm/sec CNT100    ;
   1315:L P[1315] 100mm/sec CNT100    ;
   1316:L P[1316] 100mm/sec CNT100    ;
   1317:L P[1317] 100mm/sec CNT100    ;
   1318:L P[1318] 100mm/sec CNT100    ;
   1319:L P[1319] 100mm/sec CNT100    ;
   1320:L P[1320] 100mm/sec CNT100    ;
   1321:L P[1321] 100mm/sec CNT100    ;
   1322:L P[1322] 100mm/sec CNT100    ;
   1323:L P[1323] 100mm/sec CNT100    ;
   1324:L P[1324] 100mm/sec CNT100    ;
   1325:L P[1325] 100mm/sec CNT100    ;
   1326:L P[1326] 100mm/sec CNT100    ;
   1327:L P[1327] 100mm/sec CNT100    ;
   1328:L P[1328] 100mm/sec CNT100    ;
   1329:L P[1329] 100mm/sec CNT100    ;
   1330:L P[1330] 100mm/sec CNT100    ;
   1331:L P[1331] 100mm/sec CNT100    ;
   1332:L P[1332] 100mm/sec CNT100    ;
   1333:L P[1333] 100mm/sec CNT100    ;
   1334:L P[1334] 100mm/sec CNT100    ;
   1335:L P[1335] 100mm/sec CNT100    ;
   1336:L P[1336] 100mm/sec CNT100    ;
   1337:L P[1337] 100mm/sec CNT100    ;
   1338:L P[1338] 100mm/sec CNT100    ;
   1339:L P[1339] 100mm/sec CNT100    ;
   1340:L P[1340] 100mm/sec CNT100    ;
   1341:L P[1341] 100mm/sec CNT100    ;
   1342:L P[1342] 100mm/sec CNT100    ;
   1343:L P[1343] 100mm/sec CNT100    ;
   1344:L P[1344] 100mm/sec CNT100    ;
   1345:L P[1345] 100mm/sec CNT100    ;
   1346:L P[1346] 100mm/sec CNT100    ;
   1347:L P[1347] 100mm/sec CNT100    ;
   1348:L P[1348] 100mm/sec CNT100    ;
   1349:L P[1349] 100mm/sec CNT100    ;
   1350:L P[1350] 100mm/sec CNT100    ;
   1351:L P[1351] 100mm/sec CNT100    ;
   1352:L P[1352] 100mm/sec CNT100    ;
   1353:L P[1353] 100mm/sec CNT100    ;
   1354:L P[1354] 100mm/sec CNT100    ;
   1355:L P[1355] 100mm/sec CNT100    ;
   1356:L P[1356] 100mm/sec CNT100    ;
   1357:L P[1357] 100mm/sec CNT100    ;
   1358:L P[1358] 100mm/sec CNT100    ;
   1359:L P[1359] 100mm/sec CNT100    ;
   1360:L P[1360] 100mm/sec CNT100    ;
   1361:L P[1361] 100mm/sec CNT100    ;
   1362:L P[1362] 100mm/sec CNT100    ;
   1363:L P[1363] 100mm/sec CNT100    ;
   1364:L P[1364] 100mm/sec CNT100    ;
   1365:L P[1365] 100mm/sec CNT100    ;
   1366:L P[1366] 100mm/sec CNT100    ;
   1367:L P[1367] 100mm/sec CNT100    ;
   1368:L P[1368] 100mm/sec CNT100    ;
   1369:L P[1369] 100mm/sec CNT100    ;
   1370:L P[1370] 100mm/sec CNT100    ;
   1371:L P[1371] 100mm/sec CNT100    ;
   1372:L P[1372] 100mm/sec CNT100    ;
   1373:L P[1373] 100mm/sec CNT100    ;
   1374:L P[1374] 100mm/sec CNT100    ;
   1375:L P[1375] 100mm/sec CNT100    ;
   1376:L P[1376] 100mm/sec CNT100    ;
   1377:L P[1377] 100mm/sec CNT100    ;
   1378:L P[1378] 100mm/sec CNT100    ;
   1379:L P[1379] 100mm/sec CNT100    ;
   1380:L P[1380] 100mm/sec CNT100    ;
   1381:L P[1381] 100mm/sec CNT100    ;
   1382:L P[1382] 100mm/sec CNT100    ;
   1383:L P[1383] 100mm/sec CNT100    ;
   1384:L P[1384] 100mm/sec CNT100    ;
   1385:L P[1385] 100mm/sec CNT100    ;
   1386:L P[1386] 100mm/sec CNT100    ;
   1387:L P[1387] 100mm/sec CNT100    ;
   1388:L P[1388] 100mm/sec CNT100    ;
   1389:L P[1389] 100mm/sec CNT100    ;
   1390:L P[1390] 100mm/sec CNT100    ;
   1391:L P[1391] 100mm/sec CNT100    ;
   1392:L P[1392] 100mm/sec CNT100    ;
   1393:L P[1393] 100mm/sec CNT100    ;
   1394:L P[1394] 100mm/sec CNT100    ;
   1395:L P[1395] 100mm/sec CNT100    ;
   1396:L P[1396] 100mm/sec CNT100    ;
   1397:L P[1397] 100mm/sec CNT100    ;
   1398:L P[1398] 100mm/sec CNT100    ;
   1399:L P[1399] 100mm/sec CNT100    ;
   1400:L P[1400] 100mm/sec CNT100    ;
   1401:L P[1401] 100mm/sec CNT100    ;
   1402:L P[1402] 100mm/sec CNT100    ;
   1403:L P[1403] 100mm/sec CNT100    ;
   1404:L P[1404] 100mm/sec CNT100    ;
   1405:L P[1405] 100mm/sec CNT100    ;
   1406:L P[1406] 100mm/sec CNT100    ;
   1407:L P[1407] 100mm/sec CNT100    ;
   1408:L P[1408] 100mm/sec CNT100    ;
   1409:L P[1409] 100mm/sec CNT100    ;
   1410:L P[1410] 100mm/sec CNT100    ;
   1411:L P[1411] 100mm/sec CNT100    ;
   1412:L P[1412] 100mm/sec CNT100    ;
   1413:L P[1413] 100mm/sec CNT100    ;
   1414:L P[1414] 100mm/sec CNT100    ;
   1415:L P[1415] 100mm/sec CNT100    ;
   1416:L P[1416] 100mm/sec CNT100    ;
   1417:L P[1417] 100mm/sec CNT100    ;
   1418:L P[1418] 100mm/sec CNT100    ;
   1419:L P[1419] 100mm/sec CNT100    ;
   1420:L P[1420] 100mm/sec CNT100    ;
   1421:L P[1421] 100mm/sec CNT100    ;
   1422:L P[1422] 100mm/sec CNT100    ;
   1423:L P[1423] 100mm/sec CNT100    ;
   1424:L P[1424] 100mm/sec CNT100    ;
   1425:L P[1425] 100mm/sec CNT100    ;
   1426:L P[1426] 100mm/sec CNT100    ;
   1427:L P[1427] 100mm/sec CNT100    ;
   1428:L P[1428] 100mm/sec CNT100    ;
   1429:L P[1429] 100mm/sec CNT100    ;
   1430:L P[1430] 100mm/sec CNT100    ;
   1431:L P[1431] 100mm/sec CNT100    ;
   1432:L P[1432] 100mm/sec CNT100    ;
   1433:L P[1433] 100mm/sec CNT100    ;
   1434:L P[1434] 100mm/sec CNT100    ;
   1435:L P[1435] 100mm/sec CNT100    ;
   1436:L P[1436] 100mm/sec CNT100    ;
   1437:L P[1437] 100mm/sec CNT100    ;
   1438:L P[1438] 100mm/sec CNT100    ;
   1439:L P[1439] 100mm/sec CNT100    ;
   1440:L P[1440] 100mm/sec CNT100    ;
   1441:L P[1441] 100mm/sec CNT100    ;
   1442:L P[1442] 100mm/sec CNT100    ;
   1443:L P[1443] 100mm/sec CNT100    ;
   1444:L P[1444] 100mm/sec CNT100    ;
   1445:L P[1445] 100mm/sec CNT100    ;
   1446:L P[1446] 100mm/sec CNT100    ;
   1447:L P[1447] 100mm/sec CNT100    ;
   1448:L P[1448] 100mm/sec CNT100    ;
   1449:L P[1449] 100mm/sec CNT100    ;
   1450:L P[1450] 100mm/sec CNT100    ;
   1451:L P[1451] 100mm/sec CNT100    ;
   1452:L P[1452] 100mm/sec CNT100    ;
   1453:L P[1453] 100mm/sec CNT100    ;
   1454:L P[1454] 100mm/sec CNT100    ;
   1455:L P[1455] 100mm/sec CNT100    ;
   1456:L P[1456] 100mm/sec CNT100    ;
   1457:L P[1457] 100mm/sec CNT100    ;
   1458:L P[1458] 100mm/sec CNT100    ;
   1459:L P[1459] 100mm/sec CNT100    ;
   1460:L P[1460] 100mm/sec CNT100    ;
   1461:L P[1461] 100mm/sec CNT100    ;
   1462:L P[1462] 100mm/sec CNT100    ;
   1463:L P[1463] 100mm/sec CNT100    ;
   1464:L P[1464] 100mm/sec CNT100    ;
   1465:L P[1465] 100mm/sec CNT100    ;
   1466:L P[1466] 100mm/sec CNT100    ;
   1467:L P[1467] 100mm/sec CNT100    ;
   1468:L P[1468] 100mm/sec CNT100    ;
   1469:L P[1469] 100mm/sec CNT100    ;
   1470:L P[1470] 100mm/sec CNT100    ;
   1471:L P[1471] 100mm/sec CNT100    ;
   1472:L P[1472] 100mm/sec CNT100    ;
   1473:L P[1473] 100mm/sec CNT100    ;
   1474:L P[1474] 100mm/sec CNT100    ;
   1475:L P[1475] 100mm/sec CNT100    ;
   1476:L P[1476] 100mm/sec CNT100    ;
   1477:L P[1477] 100mm/sec CNT100    ;
   1478:L P[1478] 100mm/sec CNT100    ;
   1479:L P[1479] 100mm/sec CNT100    ;
   1480:L P[1480] 100mm/sec CNT100    ;
   1481:L P[1481] 100mm/sec CNT100    ;
   1482:L P[1482] 100mm/sec CNT100    ;
   1483:L P[1483] 100mm/sec CNT100    ;
   1484:L P[1484] 100mm/sec CNT100    ;
   1485:L P[1485] 100mm/sec CNT100    ;
   1486:L P[1486] 100mm/sec CNT100    ;
   1487:L P[1487] 100mm/sec CNT100    ;
   1488:L P[1488] 100mm/sec CNT100    ;
   1489:L P[1489] 100mm/sec CNT100    ;
   1490:L P[1490] 100mm/sec CNT100    ;
   1491:L P[1491] 100mm/sec CNT100    ;
   1492:L P[1492] 100mm/sec CNT100    ;
   1493:L P[1493] 100mm/sec CNT100    ;
   1494:L P[1494] 100mm/sec CNT100    ;
   1495:L P[1495] 100mm/sec CNT100    ;
   1496:L P[1496] 100mm/sec CNT100    ;
   1497:L P[1497] 100mm/sec CNT100    ;
   1498:L P[1498] 100mm/sec CNT100    ;
   1499:L P[1499] 100mm/sec CNT100    ;
   1500:L P[1500] 100mm/sec CNT100    ;
   1501:L P[1501] 100mm/sec CNT100    ;
   1502:L P[1502] 100mm/sec CNT100    ;
   1503:L P[1503] 100mm/sec CNT100    ;
   1504:L P[1504] 100mm/sec CNT100    ;
   1505:L P[1505] 100mm/sec CNT100    ;
   1506:L P[1506] 100mm/sec CNT100    ;
   1507:L P[1507] 100mm/sec CNT100    ;
   1508:L P[1508] 100mm/sec CNT100    ;
   1509:L P[1509] 100mm/sec CNT100    ;
   1510:L P[1510] 100mm/sec CNT100    ;
   1511:L P[1511] 100mm/sec CNT100    ;
   1512:L P[1512] 100mm/sec CNT100    ;
   1513:L P[1513] 100mm/sec CNT100    ;
   1514:L P[1514] 100mm/sec CNT100    ;
   1515:L P[1515] 100mm/sec CNT100    ;
   1516:L P[1516] 100mm/sec CNT100    ;
   1517:L P[1517] 100mm/sec CNT100    ;
   1518:L P[1518] 100mm/sec CNT100    ;
   1519:L P[1519] 100mm/sec CNT100    ;
   1520:L P[1520] 100mm/sec CNT100    ;
   1521:L P[1521] 100mm/sec CNT100    ;
   1522:L P[1522] 100mm/sec CNT100    ;
   1523:L P[1523] 100mm/sec CNT100    ;
   1524:L P[1524] 100mm/sec CNT100    ;
   1525:L P[1525] 100mm/sec CNT100    ;
   1526:L P[1526] 100mm/sec CNT100    ;
   1527:L P[1527] 100mm/sec CNT100    ;
   1528:L P[1528] 100mm/sec CNT100    ;
   1529:L P[1529] 100mm/sec CNT100    ;
   1530:L P[1530] 100mm/sec CNT100    ;
   1531:L P[1531] 100mm/sec CNT100    ;
   1532:L P[1532] 100mm/sec CNT100    ;
   1533:L P[1533] 100mm/sec CNT100    ;
   1534:L P[1534] 100mm/sec CNT100    ;
   1535:L P[1535] 100mm/sec CNT100    ;
   1536:L P[1536] 100mm/sec CNT100    ;
   1537:L P[1537] 100mm/sec CNT100    ;
   1538:L P[1538] 100mm/sec CNT100    ;
   1539:L P[1539] 100mm/sec CNT100    ;
   1540:L P[1540] 100mm/sec CNT100    ;
   1541:L P[1541] 100mm/sec CNT100    ;
   1542:L P[1542] 100mm/sec CNT100    ;
   1543:L P[1543] 100mm/sec CNT100    ;
   1544:L P[1544] 100mm/sec CNT100    ;
   1545:L P[1545] 100mm/sec CNT100    ;
   1546:L P[1546] 100mm/sec CNT100    ;
   1547:L P[1547] 100mm/sec CNT100    ;
   1548:L P[1548] 100mm/sec CNT100    ;
   1549:L P[1549] 100mm/sec CNT100    ;
   1550:L P[1550] 100mm/sec CNT100    ;
   1551:L P[1551] 100mm/sec CNT100    ;
   1552:L P[1552] 100mm/sec CNT100    ;
   1553:L P[1553] 100mm/sec CNT100    ;
   1554:L P[1554] 100mm/sec CNT100    ;
   1555:L P[1555] 100mm/sec CNT100    ;
   1556:L P[1556] 100mm/sec CNT100    ;
   1557:L P[1557] 100mm/sec CNT100    ;
   1558:L P[1558] 100mm/sec CNT100    ;
   1559:L P[1559] 100mm/sec CNT100    ;
   1560:L P[1560] 100mm/sec CNT100    ;
   1561:L P[1561] 100mm/sec CNT100    ;
   1562:L P[1562] 100mm/sec CNT100    ;
   1563:L P[1563] 100mm/sec CNT100    ;
   1564:L P[1564] 100mm/sec CNT100    ;
   1565:L P[1565] 100mm/sec CNT100    ;
   1566:L P[1566] 100mm/sec CNT100    ;
   1567:L P[1567] 100mm/sec CNT100    ;
   1568:L P[1568] 100mm/sec CNT100    ;
   1569:L P[1569] 100mm/sec CNT100    ;
   1570:L P[1570] 100mm/sec CNT100    ;
   1571:L P[1571] 100mm/sec CNT100    ;
   1572:L P[1572] 100mm/sec CNT100    ;
   1573:L P[1573] 100mm/sec CNT100    ;
   1574:L P[1574] 100mm/sec CNT100    ;
   1575:L P[1575] 100mm/sec CNT100    ;
   1576:L P[1576] 100mm/sec CNT100    ;
   1577:L P[1577] 100mm/sec CNT100    ;
   1578:L P[1578] 100mm/sec CNT100    ;
   1579:L P[1579] 100mm/sec CNT100    ;
   1580:L P[1580] 100mm/sec CNT100    ;
   1581:L P[1581] 100mm/sec CNT100    ;
   1582:L P[1582] 100mm/sec CNT100    ;
   1583:L P[1583] 100mm/sec CNT100    ;
   1584:L P[1584] 100mm/sec CNT100    ;
   1585:L P[1585] 100mm/sec CNT100    ;
   1586:L P[1586] 100mm/sec CNT100    ;
   1587:L P[1587] 100mm/sec CNT100    ;
   1588:L P[1588] 100mm/sec CNT100    ;
   1589:L P[1589] 100mm/sec CNT100    ;
   1590:L P[1590] 100mm/sec CNT100    ;
   1591:L P[1591] 100mm/sec CNT100    ;
   1592:L P[1592] 100mm/sec CNT100    ;
   1593:L P[1593] 100mm/sec CNT100    ;
   1594:L P[1594] 100mm/sec CNT100    ;
   1595:L P[1595] 100mm/sec CNT100    ;
   1596:L P[1596] 100mm/sec CNT100    ;
   1597:L P[1597] 100mm/sec CNT100    ;
   1598:L P[1598] 100mm/sec CNT100    ;
   1599:L P[1599] 100mm/sec CNT100    ;
   1600:L P[1600] 100mm/sec CNT100    ;
   1601:L P[1601] 100mm/sec CNT100    ;
   1602:L P[1602] 100mm/sec CNT100    ;
   1603:L P[1603] 100mm/sec CNT100    ;
   1604:L P[1604] 100mm/sec CNT100    ;
   1605:L P[1605] 100mm/sec CNT100    ;
   1606:L P[1606] 100mm/sec CNT100    ;
   1607:L P[1607] 100mm/sec CNT100    ;
   1608:L P[1608] 100mm/sec CNT100    ;
   1609:L P[1609] 100mm/sec CNT100    ;
   1610:L P[1610] 100mm/sec CNT100    ;
   1611:L P[1611] 100mm/sec CNT100    ;
   1612:L P[1612] 100mm/sec CNT100    ;
   1613:L P[1613] 100mm/sec CNT100    ;
   1614:L P[1614] 100mm/sec CNT100    ;
   1615:L P[1615] 100mm/sec CNT100    ;
   1616:L P[1616] 100mm/sec CNT100    ;
   1617:L P[1617] 100mm/sec CNT100    ;
   1618:L P[1618] 100mm/sec CNT100    ;
   1619:L P[1619] 100mm/sec CNT100    ;
   1620:L P[1620] 100mm/sec CNT100    ;
   1621:L P[1621] 100mm/sec CNT100    ;
   1622:L P[1622] 100mm/sec CNT100    ;
   1623:L P[1623] 100mm/sec CNT100    ;
   1624:L P[1624] 100mm/sec CNT100    ;
   1625:L P[1625] 100mm/sec CNT100    ;
   1626:L P[1626] 100mm/sec CNT100    ;
   1627:L P[1627] 100mm/sec CNT100    ;
   1628:L P[1628] 100mm/sec CNT100    ;
   1629:L P[1629] 100mm/sec CNT100    ;
   1630:L P[1630] 100mm/sec CNT100    ;
   1631:L P[1631] 100mm/sec CNT100    ;
   1632:L P[1632] 100mm/sec CNT100    ;
   1633:L P[1633] 100mm/sec CNT100    ;
   1634:L P[1634] 100mm/sec CNT100    ;
   1635:L P[1635] 100mm/sec CNT100    ;
   1636:L P[1636] 100mm/sec CNT100    ;
   1637:L P[1637] 100mm/sec CNT100    ;
   1638:L P[1638] 100mm/sec CNT100    ;
   1639:L P[1639] 100mm/sec CNT100    ;
   1640:L P[1640] 100mm/sec CNT100    ;
   1641:L P[1641] 100mm/sec CNT100    ;
   1642:L P[1642] 100mm/sec CNT100    ;
   1643:L P[1643] 100mm/sec CNT100    ;
   1644:L P[1644] 100mm/sec CNT100    ;
   1645:L P[1645] 100mm/sec CNT100    ;
   1646:L P[1646] 100mm/sec CNT100    ;
   1647:L P[1647] 100mm/sec CNT100    ;
   1648:L P[1648] 100mm/sec CNT100    ;
   1649:L P[1649] 100mm/sec CNT100    ;
   1650:L P[1650] 100mm/sec CNT100    ;
   1651:L P[1651] 100mm/sec CNT100    ;
   1652:L P[1652] 100mm/sec CNT100    ;
   1653:L P[1653] 100mm/sec CNT100    ;
   1654:L P[1654] 100mm/sec CNT100    ;
   1655:L P[1655] 100mm/sec CNT100    ;
   1656:L P[1656] 100mm/sec CNT100    ;
   1657:L P[1657] 100mm/sec CNT100    ;
   1658:L P[1658] 100mm/sec CNT100    ;
   1659:L P[1659] 100mm/sec CNT100    ;
   1660:L P[1660] 100mm/sec CNT100    ;
   1661:L P[1661] 100mm/sec CNT100    ;
   1662:L P[1662] 100mm/sec CNT100    ;
   1663:L P[1663] 100mm/sec CNT100    ;
   1664:L P[1664] 100mm/sec CNT100    ;
   1665:L P[1665] 100mm/sec CNT100    ;
   1666:L P[1666] 100mm/sec CNT100    ;
   1667:L P[1667] 100mm/sec CNT100    ;
   1668:L P[1668] 100mm/sec CNT100    ;
   1669:L P[1669] 100mm/sec CNT100    ;
   1670:L P[1670] 100mm/sec CNT100    ;
   1671:L P[1671] 100mm/sec CNT100    ;
   1672:L P[1672] 100mm/sec CNT100    ;
   1673:L P[1673] 100mm/sec CNT100    ;
   1674:L P[1674] 100mm/sec CNT100    ;
   1675:L P[1675] 100mm/sec CNT100    ;
   1676:L P[1676] 100mm/sec CNT100    ;
   1677:L P[1677] 100mm/sec CNT100    ;
   1678:L P[1678] 100mm/sec CNT100    ;
   1679:L P[1679] 100mm/sec CNT100    ;
   1680:L P[1680] 100mm/sec CNT100    ;
   1681:L P[1681] 100mm/sec CNT100    ;
   1682:L P[1682] 100mm/sec CNT100    ;
   1683:L P[1683] 100mm/sec CNT100    ;
   1684:L P[1684] 100mm/sec CNT100    ;
   1685:L P[1685] 100mm/sec CNT100    ;
   1686:L P[1686] 100mm/sec CNT100    ;
   1687:L P[1687] 100mm/sec CNT100    ;
   1688:L P[1688] 100mm/sec CNT100    ;
   1689:L P[1689] 100mm/sec CNT100    ;
   1690:L P[1690] 100mm/sec CNT100    ;
   1691:L P[1691] 100mm/sec CNT100    ;
   1692:L P[1692] 100mm/sec CNT100    ;
   1693:L P[1693] 100mm/sec CNT100    ;
   1694:L P[1694] 100mm/sec CNT100    ;
   1695:L P[1695] 100mm/sec CNT100    ;
   1696:L P[1696] 100mm/sec CNT100    ;
   1697:L P[1697] 100mm/sec CNT100    ;
   1698:L P[1698] 100mm/sec CNT100    ;
   1699:L P[1699] 100mm/sec CNT100    ;
   1700:L P[1700] 100mm/sec CNT100    ;
   1701:L P[1701] 100mm/sec CNT100    ;
   1702:L P[1702] 100mm/sec CNT100    ;
   1703:L P[1703] 100mm/sec CNT100    ;
   1704:L P[1704] 100mm/sec CNT100    ;
   1705:L P[1705] 100mm/sec CNT100    ;
   1706:L P[1706] 100mm/sec CNT100    ;
   1707:L P[1707] 100mm/sec CNT100    ;
   1708:L P[1708] 100mm/sec CNT100    ;
   1709:L P[1709] 100mm/sec CNT100    ;
   1710:L P[1710] 100mm/sec CNT100    ;
   1711:L P[1711] 100mm/sec CNT100    ;
   1712:L P[1712] 100mm/sec CNT100    ;
   1713:L P[1713] 100mm/sec CNT100    ;
   1714:L P[1714] 100mm/sec CNT100    ;
   1715:L P[1715] 100mm/sec CNT100    ;
   1716:L P[1716] 100mm/sec CNT100    ;
   1717:L P[1717] 100mm/sec CNT100    ;
   1718:L P[1718] 100mm/sec CNT100    ;
   1719:L P[1719] 100mm/sec CNT100    ;
   1720:L P[1720] 100mm/sec CNT100    ;
   1721:L P[1721] 100mm/sec CNT100    ;
   1722:L P[1722] 100mm/sec CNT100    ;
   1723:L P[1723] 100mm/sec CNT100    ;
   1724:L P[1724] 100mm/sec CNT100    ;
   1725:L P[1725] 100mm/sec CNT100    ;
   1726:L P[1726] 100mm/sec CNT100    ;
   1727:L P[1727] 100mm/sec CNT100    ;
   1728:L P[1728] 100mm/sec CNT100    ;
   1729:L P[1729] 100mm/sec CNT100    ;
   1730:L P[1730] 100mm/sec CNT100    ;
   1731:L P[1731] 100mm/sec CNT100    ;
   1732:L P[1732] 100mm/sec CNT100    ;
   1733:L P[1733] 100mm/sec CNT100    ;
   1734:L P[1734] 100mm/sec CNT100    ;
   1735:L P[1735] 100mm/sec CNT100    ;
   1736:L P[1736] 100mm/sec CNT100    ;
   1737:L P[1737] 100mm/sec CNT100    ;
   1738:L P[1738] 100mm/sec CNT100    ;
   1739:L P[1739] 100mm/sec CNT100    ;
   1740:L P[1740] 100mm/sec CNT100    ;
   1741:L P[1741] 100mm/sec CNT100    ;
   1742:L P[1742] 100mm/sec CNT100    ;
   1743:L P[1743] 100mm/sec CNT100    ;
   1744:L P[1744] 100mm/sec CNT100    ;
   1745:L P[1745] 100mm/sec CNT100    ;
   1746:L P[1746] 100mm/sec CNT100    ;
   1747:L P[1747] 100mm/sec CNT100    ;
   1748:L P[1748] 100mm/sec CNT100    ;
   1749:L P[1749] 100mm/sec CNT100    ;
   1750:L P[1750] 100mm/sec CNT100    ;
   1751:L P[1751] 100mm/sec CNT100    ;
   1752:L P[1752] 100mm/sec CNT100    ;
   1753:L P[1753] 100mm/sec CNT100    ;
   1754:L P[1754] 100mm/sec CNT100    ;
   1755:L P[1755] 100mm/sec CNT100    ;
   1756:L P[1756] 100mm/sec CNT100    ;
   1757:L P[1757] 100mm/sec CNT100    ;
   1758:L P[1758] 100mm/sec CNT100    ;
   1759:L P[1759] 100mm/sec CNT100    ;
   1760:L P[1760] 100mm/sec CNT100    ;
   1761:L P[1761] 100mm/sec CNT100    ;
   1762:L P[1762] 100mm/sec CNT100    ;
   1763:L P[1763] 100mm/sec CNT100    ;
   1764:L P[1764] 100mm/sec CNT100    ;
   1765:L P[1765] 100mm/sec CNT100    ;
   1766:L P[1766] 100mm/sec CNT100    ;
   1767:L P[1767] 100mm/sec CNT100    ;
   1768:L P[1768] 100mm/sec CNT100    ;
   1769:L P[1769] 100mm/sec CNT100    ;
   1770:L P[1770] 100mm/sec CNT100    ;
   1771:L P[1771] 100mm/sec CNT100    ;
   1772:L P[1772] 100mm/sec CNT100    ;
   1773:L P[1773] 100mm/sec CNT100    ;
   1774:L P[1774] 100mm/sec CNT100    ;
   1775:L P[1775] 100mm/sec CNT100    ;
   1776:L P[1776] 100mm/sec CNT100    ;
   1777:L P[1777] 100mm/sec CNT100    ;
   1778:L P[1778] 100mm/sec CNT100    ;
   1779:L P[1779] 100mm/sec CNT100    ;
   1780:L P[1780] 100mm/sec CNT100    ;
   1781:L P[1781] 100mm/sec CNT100    ;
   1782:L P[1782] 100mm/sec CNT100    ;
   1783:L P[1783] 100mm/sec CNT100    ;
   1784:L P[1784] 100mm/sec CNT100    ;
   1785:L P[1785] 100mm/sec CNT100    ;
   1786:L P[1786] 100mm/sec CNT100    ;
   1787:L P[1787] 100mm/sec CNT100    ;
   1788:L P[1788] 100mm/sec CNT100    ;
   1789:L P[1789] 100mm/sec CNT100    ;
   1790:L P[1790] 100mm/sec CNT100    ;
   1791:L P[1791] 100mm/sec CNT100    ;
   1792:L P[1792] 100mm/sec CNT100    ;
   1793:L P[1793] 100mm/sec CNT100    ;
   1794:L P[1794] 100mm/sec CNT100    ;
   1795:L P[1795] 100mm/sec CNT100    ;
   1796:L P[1796] 100mm/sec CNT100    ;
   1797:L P[1797] 100mm/sec CNT100    ;
   1798:L P[1798] 100mm/sec CNT100    ;
   1799:L P[1799] 100mm/sec CNT100    ;
   1800:L P[1800] 100mm/sec CNT100    ;
   1801:L P[1801] 100mm/sec CNT100    ;
   1802:L P[1802] 100mm/sec CNT100    ;
   1803:L P[1803] 100mm/sec CNT100    ;
   1804:L P[1804] 100mm/sec CNT100    ;
   1805:L P[1805] 100mm/sec CNT100    ;
   1806:L P[1806] 100mm/sec CNT100    ;
   1807:L P[1807] 100mm/sec CNT100    ;
   1808:L P[1808] 100mm/sec CNT100    ;
   1809:L P[1809] 100mm/sec CNT100    ;
   1810:L P[1810] 100mm/sec CNT100    ;
   1811:L P[1811] 100mm/sec CNT100    ;
   1812:L P[1812] 100mm/sec CNT100    ;
   1813:L P[1813] 100mm/sec CNT100    ;
   1814:L P[1814] 100mm/sec CNT100    ;
   1815:L P[1815] 100mm/sec CNT100    ;
   1816:L P[1816] 100mm/sec CNT100    ;
   1817:L P[1817] 100mm/sec CNT100    ;
   1818:L P[1818] 100mm/sec CNT100    ;
   1819:L P[1819] 100mm/sec CNT100    ;
   1820:L P[1820] 100mm/sec CNT100    ;
   1821:L P[1821] 100mm/sec CNT100    ;
   1822:L P[1822] 100mm/sec CNT100    ;
   1823:L P[1823] 100mm/sec CNT100    ;
   1824:L P[1824] 100mm/sec CNT100    ;
   1825:L P[1825] 100mm/sec CNT100    ;
   1826:L P[1826] 100mm/sec CNT100    ;
   1827:L P[1827] 100mm/sec CNT100    ;
   1828:L P[1828] 100mm/sec CNT100    ;
   1829:L P[1829] 100mm/sec CNT100    ;
   1830:L P[1830] 100mm/sec CNT100    ;
   1831:L P[1831] 100mm/sec CNT100    ;
   1832:L P[1832] 100mm/sec CNT100    ;
   1833:L P[1833] 100mm/sec CNT100    ;
   1834:L P[1834] 100mm/sec CNT100    ;
   1835:L P[1835] 100mm/sec CNT100    ;
   1836:L P[1836] 100mm/sec CNT100    ;
   1837:L P[1837] 100mm/sec CNT100    ;
   1838:L P[1838] 100mm/sec CNT100    ;
   1839:L P[1839] 100mm/sec CNT100    ;
   1840:L P[1840] 100mm/sec CNT100    ;
   1841:L P[1841] 100mm/sec CNT100    ;
   1842:L P[1842] 100mm/sec CNT100    ;
   1843:L P[1843] 100mm/sec CNT100    ;
   1844:L P[1844] 100mm/sec CNT100    ;
   1845:L P[1845] 100mm/sec CNT100    ;
   1846:L P[1846] 100mm/sec CNT100    ;
   1847:L P[1847] 100mm/sec CNT100    ;
   1848:L P[1848] 100mm/sec CNT100    ;
   1849:L P[1849] 100mm/sec CNT100    ;
   1850:L P[1850] 100mm/sec CNT100    ;
   1851:L P[1851] 100mm/sec CNT100    ;
   1852:L P[1852] 100mm/sec CNT100    ;
   1853:L P[1853] 100mm/sec CNT100    ;
   1854:L P[1854] 100mm/sec CNT100    ;
   1855:L P[1855] 100mm/sec CNT100    ;
   1856:L P[1856] 100mm/sec CNT100    ;
   1857:L P[1857] 100mm/sec CNT100    ;
   1858:L P[1858] 100mm/sec CNT100    ;
   1859:L P[1859] 100mm/sec CNT100    ;
   1860:L P[1860] 100mm/sec CNT100    ;
   1861:L P[1861] 100mm/sec CNT100    ;
   1862:L P[1862] 100mm/sec CNT100    ;
   1863:L P[1863] 100mm/sec CNT100    ;
   1864:L P[1864] 100mm/sec CNT100    ;
   1865:L P[1865] 100mm/sec CNT100    ;
   1866:L P[1866] 100mm/sec CNT100    ;
   1867:L P[1867] 100mm/sec CNT100    ;
   1868:L P[1868] 100mm/sec CNT100    ;
   1869:L P[1869] 100mm/sec CNT100    ;
   1870:L P[1870] 100mm/sec CNT100    ;
   1871:L P[1871] 100mm/sec CNT100    ;
   1872:L P[1872] 100mm/sec CNT100    ;
   1873:L P[1873] 100mm/sec CNT100    ;
   1874:L P[1874] 100mm/sec CNT100    ;
   1875:L P[1875] 100mm/sec CNT100    ;
   1876:L P[1876] 100mm/sec CNT100    ;
   1877:L P[1877] 100mm/sec CNT100    ;
   1878:L P[1878] 100mm/sec CNT100    ;
   1879:L P[1879] 100mm/sec CNT100    ;
   1880:L P[1880] 100mm/sec CNT100    ;
   1881:L P[1881] 100mm/sec CNT100    ;
   1882:L P[1882] 100mm/sec CNT100    ;
   1883:L P[1883] 100mm/sec CNT100    ;
   1884:L P[1884] 100mm/sec CNT100    ;
   1885:L P[1885] 100mm/sec CNT100    ;
   1886:L P[1886] 100mm/sec CNT100    ;
   1887:L P[1887] 100mm/sec CNT100    ;
   1888:L P[1888] 100mm/sec CNT100    ;
   1889:L P[1889] 100mm/sec CNT100    ;
   1890:L P[1890] 100mm/sec CNT100    ;
   1891:L P[1891] 100mm/sec CNT100    ;
   1892:L P[1892] 100mm/sec CNT100    ;
   1893:L P[1893] 100mm/sec CNT100    ;
   1894:L P[1894] 100mm/sec CNT100    ;
   1895:L P[1895] 100mm/sec CNT100    ;
   1896:L P[1896] 100mm/sec CNT100    ;
   1897:L P[1897] 100mm/sec CNT100    ;
   1898:L P[1898] 100mm/sec CNT100    ;
   1899:L P[1899] 100mm/sec CNT100    ;
   1900:L P[1900] 100mm/sec CNT100    ;
   1901:L P[1901] 100mm/sec CNT100    ;
   1902:L P[1902] 100mm/sec CNT100    ;
   1903:L P[1903] 100mm/sec CNT100    ;
   1904:L P[1904] 100mm/sec CNT100    ;
   1905:L P[1905] 100mm/sec CNT100    ;
   1906:L P[1906] 100mm/sec CNT100    ;
   1907:L P[1907] 100mm/sec CNT100    ;
   1908:L P[1908] 100mm/sec CNT100    ;
   1909:L P[1909] 100mm/sec CNT100    ;
   1910:L P[1910] 100mm/sec CNT100    ;
   1911:L P[1911] 100mm/sec CNT100    ;
   1912:L P[1912] 100mm/sec CNT100    ;
   1913:L P[1913] 100mm/sec CNT100    ;
   1914:L P[1914] 100mm/sec CNT100    ;
   1915:L P[1915] 100mm/sec CNT100    ;
   1916:L P[1916] 100mm/sec CNT100    ;
   1917:L P[1917] 100mm/sec CNT100    ;
   1918:L P[1918] 100mm/sec CNT100    ;
   1919:L P[1919] 100mm/sec CNT100    ;
   1920:L P[1920] 100mm/sec CNT100    ;
   1921:L P[1921] 100mm/sec CNT100    ;
   1922:L P[1922] 100mm/sec CNT100    ;
   1923:L P[1923] 100mm/sec CNT100    ;
   1924:L P[1924] 100mm/sec CNT100    ;
   1925:L P[1925] 100mm/sec CNT100    ;
   1926:L P[1926] 100mm/sec CNT100    ;
   1927:L P[1927] 100mm/sec CNT100    ;
   1928:L P[1928] 100mm/sec CNT100    ;
   1929:L P[1929] 100mm/sec CNT100    ;
   1930:L P[1930] 100mm/sec CNT100    ;
   1931:L P[1931] 100mm/sec CNT100    ;
   1932:L P[1932] 100mm/sec CNT100    ;
   1933:L P[1933] 100mm/sec CNT100    ;
   1934:L P[1934] 100mm/sec CNT100    ;
   1935:L P[1935] 100mm/sec CNT100    ;
   1936:L P[1936] 100mm/sec CNT100    ;
   1937:L P[1937] 100mm/sec CNT100    ;
   1938:L P[1938] 100mm/sec CNT100    ;
   1939:L P[1939] 100mm/sec CNT100    ;
   1940:L P[1940] 100mm/sec CNT100    ;
   1941:L P[1941] 100mm/sec CNT100    ;
   1942:L P[1942] 100mm/sec CNT100    ;
   1943:L P[1943] 100mm/sec CNT100    ;
   1944:L P[1944] 100mm/sec CNT100    ;
   1945:L P[1945] 100mm/sec CNT100    ;
   1946:L P[1946] 100mm/sec CNT100    ;
   1947:L P[1947] 100mm/sec CNT100    ;
   1948:L P[1948] 100mm/sec CNT100    ;
   1949:L P[1949] 100mm/sec CNT100    ;
   1950:L P[1950] 100mm/sec CNT100    ;
   1951:L P[1951] 100mm/sec CNT100    ;
   1952:L P[1952] 100mm/sec CNT100    ;
   1953:L P[1953] 100mm/sec CNT100    ;
   1954:L P[1954] 100mm/sec CNT100    ;
   1955:L P[1955] 100mm/sec CNT100    ;
   1956:L P[1956] 100mm/sec CNT100    ;
   1957:L P[1957] 100mm/sec CNT100    ;
   1958:L P[1958] 100mm/sec CNT100    ;
   1959:L P[1959] 100mm/sec CNT100    ;
   1960:L P[1960] 100mm/sec CNT100    ;
   1961:L P[1961] 100mm/sec CNT100    ;
   1962:L P[1962] 100mm/sec CNT100    ;
   1963:L P[1963] 100mm/sec CNT100    ;
   1964:L P[1964] 100mm/sec CNT100    ;
   1965:L P[1965] 100mm/sec CNT100    ;
   1966:L P[1966] 100mm/sec CNT100    ;
   1967:L P[1967] 100mm/sec CNT100    ;
   1968:L P[1968] 100mm/sec CNT100    ;
   1969:L P[1969] 100mm/sec CNT100    ;
   1970:L P[1970] 100mm/sec CNT100    ;
   1971:L P[1971] 100mm/sec CNT100    ;
   1972:L P[1972] 100mm/sec CNT100    ;
   1973:L P[1973] 100mm/sec CNT100    ;
   1974:L P[1974] 100mm/sec CNT100    ;
   1975:L P[1975] 100mm/sec CNT100    ;
   1976:L P[1976] 100mm/sec CNT100    ;
   1977:L P[1977] 100mm/sec CNT100    ;
   1978:L P[1978] 100mm/sec CNT100    ;
   1979:L P[1979] 100mm/sec CNT100    ;
   1980:L P[1980] 100mm/sec CNT100    ;
   1981:L P[1981] 100mm/sec CNT100    ;
   1982:L P[1982] 100mm/sec CNT100    ;
   1983:L P[1983] 100mm/sec CNT100    ;
   1984:L P[1984] 100mm/sec CNT100    ;
   1985:L P[1985] 100mm/sec CNT100    ;
   1986:L P[1986] 100mm/sec CNT100    ;
   1987:L P[1987] 100mm/sec CNT100    ;
   1988:L P[1988] 100mm/sec CNT100    ;
   1989:L P[1989] 100mm/sec CNT100    ;
   1990:L P[1990] 100mm/sec CNT100    ;
   1991:L P[1991] 100mm/sec CNT100    ;
   1992:L P[1992] 100mm/sec CNT100    ;
   1993:L P[1993] 100mm/sec CNT100    ;
   1994:L P[1994] 100mm/sec CNT100    ;
   1995:L P[1995] 100mm/sec CNT100    ;
   1996:L P[1996] 100mm/sec CNT100    ;
   1997:L P[1997] 100mm/sec CNT100    ;
   1998:L P[1998] 100mm/sec CNT100    ;
   1999:L P[1999] 100mm/sec CNT100    ;
   2000:L P[2000] 100mm/sec CNT100    ;
   2001:L P[2001] 100mm/sec CNT100    ;
   2002:L P[2002] 100mm/sec CNT100    ;
   2003:L P[2003] 100mm/sec CNT100    ;
   2004:L P[2004] 100mm/sec CNT100    ;
   2005:L P[2005] 100mm/sec CNT100    ;
   2006:L P[2006] 100mm/sec CNT100    ;
   2007:L P[2007] 100mm/sec CNT100    ;
   2008:L P[2008] 100mm/sec CNT100    ;
   2009:L P[2009] 100mm/sec CNT100    ;
   2010:L P[2010] 100mm/sec CNT100    ;
   2011:L P[2011] 100mm/sec CNT100    ;
   2012:L P[2012] 100mm/sec CNT100    ;
   2013:L P[2013] 100mm/sec CNT100    ;
   2014:L P[2014] 100mm/sec CNT100    ;
   2015:L P[2015] 100mm/sec CNT100    ;
   2016:L P[2016] 100mm/sec CNT100    ;
   2017:L P[2017] 100mm/sec CNT100    ;
   2018:L P[2018] 100mm/sec CNT100    ;
   2019:L P[2019] 100mm/sec CNT100    ;
   2020:L P[2020] 100mm/sec CNT100    ;
   2021:L P[2021] 100mm/sec CNT100    ;
   2022:L P[2022] 100mm/sec CNT100    ;
   2023:L P[2023] 100mm/sec CNT100    ;
   2024:L P[2024] 100mm/sec CNT100    ;
   2025:L P[2025] 100mm/sec CNT100    ;
   2026:L P[2026] 100mm/sec CNT100    ;
   2027:L P[2027] 100mm/sec CNT100    ;
   2028:L P[2028] 100mm/sec CNT100    ;
   2029:L P[2029] 100mm/sec CNT100    ;
   2030:L P[2030] 100mm/sec CNT100    ;
   2031:L P[2031] 100mm/sec CNT100    ;
   2032:L P[2032] 100mm/sec CNT100    ;
   2033:L P[2033] 100mm/sec CNT100    ;
   2034:L P[2034] 100mm/sec CNT100    ;
   2035:L P[2035] 100mm/sec CNT100    ;
   2036:L P[2036] 100mm/sec CNT100    ;
   2037:L P[2037] 100mm/sec CNT100    ;
   2038:L P[2038] 100mm/sec CNT100    ;
   2039:L P[2039] 100mm/sec CNT100    ;
   2040:L P[2040] 100mm/sec CNT100    ;
   2041:L P[2041] 100mm/sec CNT100    ;
   2042:L P[2042] 100mm/sec CNT100    ;
   2043:L P[2043] 100mm/sec CNT100    ;
   2044:L P[2044] 100mm/sec CNT100    ;
   2045:L P[2045] 100mm/sec CNT100    ;
   2046:L P[2046] 100mm/sec CNT100    ;
   2047:L P[2047] 100mm/sec CNT100    ;
   2048:L P[2048] 100mm/sec CNT100    ;
   2049:L P[2049] 100mm/sec CNT100    ;
   2050:L P[2050] 100mm/sec CNT100    ;
   2051:L P[2051] 100mm/sec CNT100    ;
   2052:L P[2052] 100mm/sec CNT100    ;
   2053:L P[2053] 100mm/sec CNT100    ;
   2054:L P[2054] 100mm/sec CNT100    ;
   2055:L P[2055] 100mm/sec CNT100    ;
   2056:L P[2056] 100mm/sec CNT100    ;
   2057:L P[2057] 100mm/sec CNT100    ;
   2058:L P[2058] 100mm/sec CNT100    ;
   2059:L P[2059] 100mm/sec CNT100    ;
   2060:L P[2060] 100mm/sec CNT100    ;
   2061:L P[2061] 100mm/sec CNT100    ;
   2062:L P[2062] 100mm/sec CNT100    ;
   2063:L P[2063] 100mm/sec CNT100    ;
   2064:L P[2064] 100mm/sec CNT100    ;
   2065:L P[2065] 100mm/sec CNT100    ;
   2066:L P[2066] 100mm/sec CNT100    ;
   2067:L P[2067] 100mm/sec CNT100    ;
   2068:L P[2068] 100mm/sec CNT100    ;
   2069:L P[2069] 100mm/sec CNT100    ;
   2070:L P[2070] 100mm/sec CNT100    ;
   2071:L P[2071] 100mm/sec CNT100    ;
   2072:L P[2072] 100mm/sec CNT100    ;
   2073:L P[2073] 100mm/sec CNT100    ;
   2074:L P[2074] 100mm/sec CNT100    ;
   2075:L P[2075] 100mm/sec CNT100    ;
   2076:L P[2076] 100mm/sec CNT100    ;
   2077:L P[2077] 100mm/sec CNT100    ;
   2078:L P[2078] 100mm/sec CNT100    ;
   2079:L P[2079] 100mm/sec CNT100    ;
   2080:L P[2080] 100mm/sec CNT100    ;
   2081:L P[2081] 100mm/sec CNT100    ;
   2082:L P[2082] 100mm/sec CNT100    ;
   2083:L P[2083] 100mm/sec CNT100    ;
   2084:L P[2084] 100mm/sec CNT100    ;
   2085:L P[2085] 100mm/sec CNT100    ;
   2086:L P[2086] 100mm/sec CNT100    ;
   2087:L P[2087] 100mm/sec CNT100    ;
   2088:L P[2088] 100mm/sec CNT100    ;
   2089:L P[2089] 100mm/sec CNT100    ;
   2090:L P[2090] 100mm/sec CNT100    ;
   2091:L P[2091] 100mm/sec CNT100    ;
   2092:L P[2092] 100mm/sec CNT100    ;
   2093:L P[2093] 100mm/sec CNT100    ;
   2094:L P[2094] 100mm/sec CNT100    ;
   2095:L P[2095] 100mm/sec CNT100    ;
   2096:L P[2096] 100mm/sec CNT100    ;
   2097:L P[2097] 100mm/sec CNT100    ;
   2098:L P[2098] 100mm/sec CNT100    ;
   2099:L P[2099] 100mm/sec CNT100    ;
   2100:L P[2100] 100mm/sec CNT100    ;
   2101:L P[2101] 100mm/sec CNT100    ;
   2102:L P[2102] 100mm/sec CNT100    ;
   2103:L P[2103] 100mm/sec CNT100    ;
   2104:L P[2104] 100mm/sec CNT100    ;
   2105:L P[2105] 100mm/sec CNT100    ;
   2106:L P[2106] 100mm/sec CNT100    ;
   2107:L P[2107] 100mm/sec CNT100    ;
   2108:L P[2108] 100mm/sec CNT100    ;
   2109:L P[2109] 100mm/sec CNT100    ;
   2110:L P[2110] 100mm/sec CNT100    ;
   2111:L P[2111] 100mm/sec CNT100    ;
   2112:L P[2112] 100mm/sec CNT100    ;
   2113:L P[2113] 100mm/sec CNT100    ;
   2114:L P[2114] 100mm/sec CNT100    ;
   2115:L P[2115] 100mm/sec CNT100    ;
   2116:L P[2116] 100mm/sec CNT100    ;
   2117:L P[2117] 100mm/sec CNT100    ;
   2118:L P[2118] 100mm/sec CNT100    ;
   2119:L P[2119] 100mm/sec CNT100    ;
   2120:L P[2120] 100mm/sec CNT100    ;
   2121:L P[2121] 100mm/sec CNT100    ;
   2122:L P[2122] 100mm/sec CNT100    ;
   2123:L P[2123] 100mm/sec CNT100    ;
   2124:L P[2124] 100mm/sec CNT100    ;
   2125:L P[2125] 100mm/sec CNT100    ;
   2126:L P[2126] 100mm/sec CNT100    ;
   2127:L P[2127] 100mm/sec CNT100    ;
   2128:L P[2128] 100mm/sec CNT100    ;
   2129:L P[2129] 100mm/sec CNT100    ;
   2130:L P[2130] 100mm/sec CNT100    ;
   2131:L P[2131] 100mm/sec CNT100    ;
   2132:L P[2132] 100mm/sec CNT100    ;
   2133:L P[2133] 100mm/sec CNT100    ;
   2134:L P[2134] 100mm/sec CNT100    ;
   2135:L P[2135] 100mm/sec CNT100    ;
   2136:L P[2136] 100mm/sec CNT100    ;
   2137:L P[2137] 100mm/sec CNT100    ;
   2138:L P[2138] 100mm/sec CNT100    ;
   2139:L P[2139] 100mm/sec CNT100    ;
   2140:L P[2140] 100mm/sec CNT100    ;
   2141:L P[2141] 100mm/sec CNT100    ;
   2142:L P[2142] 100mm/sec CNT100    ;
   2143:L P[2143] 100mm/sec CNT100    ;
   2144:L P[2144] 100mm/sec CNT100    ;
   2145:L P[2145] 100mm/sec CNT100    ;
   2146:L P[2146] 100mm/sec CNT100    ;
   2147:L P[2147] 100mm/sec CNT100    ;
   2148:L P[2148] 100mm/sec CNT100    ;
/POS
P[1]{
   GP1:
	UF : 0, UT : 6,		CONFIG : 'N U T, 0, 0, 0',
	X =  210.000  mm,	Y =   -375.000  mm,	Z =   -250.000  mm,
	W =  90.000 deg,	P =   0.000 deg,	R =   90.000 deg
};
P[2]{
   GP1:
	UF : 0, UT : 6,		CONFIG : 'N U T, 0, 0, 0',
	X =  148.425  mm,	Y =   -272.163  mm,	Z =   -268.869  mm,
	W =  90.000 deg,	P =   0.000 deg,	R =   90.000 deg
};
P[3]{
   GP1:
	UF : 0, UT : 6,		CONFIG : 'N U T, 0, 0, 0',
	X =  147.890  mm,	Y =   -272.527  mm,	Z =   -269.214  mm,
	W =  90.000 deg,	P =   0.000 deg,	R =   90.000 deg
};
P[4]{
   GP1:
	UF : 0, UT : 6,		CONFIG : 'N U T, 0, 0, 0',
	X =  147.017  mm,	Y =   -273.014  mm,	Z =   -269.112  mm,
	W =  90.000 deg,	P =   0.000 deg,	R =   90.000 deg
};
P[5]{
   GP1:
	UF : 0, UT : 6,		CONFIG : 'N U T, 0, 0, 0',
	X =  146.115  mm,	Y =   -273.537  mm,	Z =   -269.122  mm,
	W =  90.000 deg,	P =   0.000 deg,	R =   90.000 deg
};
P[6]{
   GP1:
	UF : 0, UT : 6,		CONFIG : 'N U T, 0, 0, 0',
	X =  145.098  mm,	Y =   -274.130  mm,	Z =   -269.154  mm,
	W =  90.000 deg,	P =   0.000 deg,	R =   90.000 deg
};
P[7]{
   GP1:
	UF : 0, UT : 6,		CONFIG : 'N U T, 0, 0, 0',
	X =  144.309  mm,	Y =   -274.556  mm,	Z =   -268.976  mm,
	W =  90.000 deg,	P =   0.000 deg,	R =   90.000 deg
};
P[8]{
   GP1:
	UF : 0, UT : 6,		CONFIG : 'N U T, 0, 0, 0',
	X =  143.344  mm,	Y =   -275.153  mm,	Z =   -269.224  mm,
	W =  90.000 deg,	P =   0.000 deg,	R =   90.000 deg
};
P[9]{
   GP1:
	UF : 0, UT : 6,		CONFIG : 'N U T, 0, 0, 0',
	X =  141.906  mm,	Y =   -275.961  mm,	Z =   -269.079  mm,
	W =  90.000 deg,	P =   0.000 deg,	R =   90.000 deg
};
P[10]{
   GP1:
	UF : 0, UT : 6,		CONFIG : 'N U T, 0, 0, 0',
	X =  141.202  mm,	Y =   -276.371  mm,	Z =   -269.106  mm,
	W =  90.000 deg,	P =   0.000 deg,	R =   90.000 deg
};
P[11]{
   GP1:
	UF : 0, UT : 6,		CONFIG : 'N U T, 0, 0, 0',
	X =  140.435  mm,	Y =   -276.788  mm,	Z =   -268.947  mm,
	W =  90.000 deg,	P =   0.000 deg,	R =   90.000 deg
};
P[12]{
   GP1:
	UF : 0, UT : 6,		CONFIG : 'N U T, 0, 0, 0',
	X =  138.871  mm,	Y =   -277.686  mm,	Z =   -268.910  mm,
	W =  90.000 deg,	P =   0.000 deg,	R =   90.000 deg
};
P[13]{
   GP1:
	UF : 0, UT : 6,		CONFIG : 'N U T, 0, 0, 0',
	X =  137.990  mm,	Y =   -278.238  mm,	Z =   -269.180  mm,
	W =  90.000 deg,	P =   0.000 deg,	R =   90.000 deg
};
P[14]{
   GP1:
	UF : 0, UT : 6,		CONFIG : 'N U T, 0, 0, 0',
	X =  136.020  mm,	Y =   -279.359  mm,	Z =   -269.075  mm,
	W =  90.000 deg,	P =   0.000 deg,	R =   90.000 deg
};
P[15]{
   GP1:
	UF : 0, UT : 6,		CONFIG : 'N U T, 0, 0, 0',
	X =  132.573  mm,	Y =   -281.347  mm,	Z =   -269.063  mm,
	W =  90.000 deg,	P =   0.000 deg,	R =   90.000 deg
};
P[16]{
   GP1:
	UF : 0, UT : 6,		CONFIG : 'N U T, 0, 0, 0',
	X =  129.313  mm,	Y =   -283.239  mm,	Z =   -269.127  mm,
	W =  90.000 deg,	P =   0.000 deg,	R =   90.000 deg
};
P[17]{
   GP1:
	UF : 0, UT : 6,		CONFIG : 'N U T, 0, 0, 0',
	X =  125.169  mm,	Y =   -285.606  mm,	Z =   -268.964  mm,
	W =  90.000 deg,	P =   0.000 deg,	R =   90.000 deg
};
P[18]{
   GP1:
	UF : 0, UT : 6,		CONFIG : 'N U T, 0, 0, 0',
	X =  123.644  mm,	Y =   -286.486  mm,	Z =   -268.960  mm,
	W =  90.000 deg,	P =   0.000 deg,	R =   90.000 deg
};
P[19]{
   GP1:
	UF : 0, UT : 6,		CONFIG : 'N U T, 0, 0, 0',
	X =  121.050  mm,	Y =   -287.972  mm,	Z =   -268.890  mm,
	W =  90.000 deg,	P =   0.000 deg,	R =   90.000 deg
};
P[20]{
   GP1:
	UF : 0, UT : 6,		CONFIG : 'N U T, 0, 0, 0',
	X =  119.904  mm,	Y =   -288.644  mm,	Z =   -268.956  mm,
	W =  90.000 deg,	P =   0.000 deg,	R =   90.000 deg
};
P[21]{
   GP1:
	UF : 0, UT : 6,		CONFIG : 'N U T, 0, 0, 0',
	X =  119.203  mm,	Y =   -289.013  mm,	Z =   -268.737  mm,
	W =  90.000 deg,	P =   0.000 deg,	R =   90.000 deg
};
P[22]{
   GP1:
	UF : 0, UT : 6,		CONFIG : 'N U T, 0, 0, 0',
	X =  117.735  mm,	Y =   -289.876  mm,	Z =   -268.831  mm,
	W =  90.000 deg,	P =   0.000 deg,	R =   90.000 deg
};
P[23]{
   GP1:
	UF : 0, UT : 6,		CONFIG : 'N U T, 0, 0, 0',
	X =  115.905  mm,	Y =   -290.977  mm,	Z =   -269.102  mm,
	W =  90.000 deg,	P =   0.000 deg,	R =   90.000 deg
};
P[24]{
   GP1:
	UF : 0, UT : 6,		CONFIG : 'N U T, 0, 0, 0',
	X =  112.357  mm,	Y =   -292.968  mm,	Z =   -268.747  mm,
	W =  90.000 deg,	P =   0.000 deg,	R =   90.000 deg
};
P[25]{
   GP1:
	UF : 0, UT : 6,		CONFIG : 'N U T, 0, 0, 0',
	X =  111.748  mm,	Y =   -293.341  mm,	Z =   -268.875  mm,
	W =  90.000 deg,	P =   0.000 deg,	R =   90.000 deg
};
P[26]{
   GP1:
	UF : 0, UT : 6,		CONFIG : 'N U T, 0, 0, 0',
	X =  110.894  mm,	Y =   -293.860  mm,	Z =   -269.038  mm,
	W =  90.000 deg,	P =   0.000 deg,	R =   90.000 deg
};
P[27]{
   GP1:
	UF : 0, UT : 6,		CONFIG : 'N U T, 0, 0, 0',
	X =  109.594  mm,	Y =   -294.637  mm,	Z =   -269.200  mm,
	W =  90.000 deg,	P =   0.000 deg,	R =   90.000 deg
};
P[28]{
   GP1:
	UF : 0, UT : 6,		CONFIG : 'N U T, 0, 0, 0',
	X =  108.831  mm,	Y =   -295.066  mm,	Z =   -269.130  mm,
	W =  90.000 deg,	P =   0.000 deg,	R =   90.000 deg
};
P[29]{
   GP1:
	UF : 0, UT : 6,		CONFIG : 'N U T, 0, 0, 0',
	X =  106.961  mm,	Y =   -296.114  mm,	Z =   -268.934  mm,
	W =  90.000 deg,	P =   0.000 deg,	R =   90.000 deg
};
P[30]{
   GP1:
	UF : 0, UT : 6,		CONFIG : 'N U T, 0, 0, 0',
	X =  105.556  mm,	Y =   -296.962  mm,	Z =   -269.162  mm,
	W =  90.000 deg,	P =   0.000 deg,	R =   90.000 deg
};
P[31]{
   GP1:
	UF : 0, UT : 6,		CONFIG : 'N U T, 0, 0, 0',
	X =  104.665  mm,	Y =   -297.461  mm,	Z =   -269.066  mm,
	W =  90.000 deg,	P =   0.000 deg,	R =   90.000 deg
};
P[32]{
   GP1:
	UF : 0, UT : 6,		CONFIG : 'N U T, 0, 0, 0',
	X =  103.615  mm,	Y =   -298.085  mm,	Z =   -269.179  mm,
	W =  90.000 deg,	P =   0.000 deg,	R =   90.000 deg
};
P[33]{
   GP1:
	UF : 0, UT : 6,		CONFIG : 'N U T, 0, 0, 0',
	X =  99.970  mm,	Y =   -300.184  mm,	Z =   -269.143  mm,
	W =  90.000 deg,	P =   0.000 deg,	R =   90.000 deg
};
P[34]{
   GP1:
	UF : 0, UT : 6,		CONFIG : 'N U T, 0, 0, 0',
	X =  98.586  mm,	Y =   -300.961  mm,	Z =   -269.002  mm,
	W =  90.000 deg,	P =   0.000 deg,	R =   90.000 deg
};
P[35]{
   GP1:
	UF : 0, UT : 6,		CONFIG : 'N U T, 0, 0, 0',
	X =  97.600  mm,	Y =   -301.533  mm,	Z =   -269.020  mm,
	W =  90.000 deg,	P =   0.000 deg,	R =   90.000 deg
};
P[36]{
   GP1:
	UF : 0, UT : 6,		CONFIG : 'N U T, 0, 0, 0',
	X =  95.705  mm,	Y =   -302.621  mm,	Z =   -268.979  mm,
	W =  90.000 deg,	P =   0.000 deg,	R =   90.000 deg
};
P[37]{
   GP1:
	UF : 0, UT : 6,		CONFIG : 'N U T, 0, 0, 0',
	X =  93.974  mm,	Y =   -303.615  mm,	Z =   -268.953  mm,
	W =  90.000 deg,	P =   0.000 deg,	R =   90.000 deg
};
P[38]{
   GP1:
	UF : 0, UT : 6,		CONFIG : 'N U T, 0, 0, 0',
	X =  92.122  mm,	Y =   -304.683  mm,	Z =   -268.938  mm,
	W =  90.000 deg,	P =   0.000 deg,	R =   90.000 deg
};
P[39]{
   GP1:
	UF : 0, UT : 6,		CONFIG : 'N U T, 0, 0, 0',
	X =  91.160  mm,	Y =   -305.273  mm,	Z =   -269.155  mm,
	W =  90.000 deg,	P =   0.000 deg,	R =   90.000 deg
};
P[40]{
   GP1:
	UF : 0, UT : 6,		CONFIG : 'N U T, 0, 0, 0',
	X =  88.617  mm,	Y =   -306.746  mm,	Z =   -269.189  mm,
	W =  90.000 deg,	P =   0.000 deg,	R =   90.000 deg
};
P[41]{
   GP1:
	UF : 0, UT : 6,		CONFIG : 'N U T, 0, 0, 0',
	X =  86.824  mm,	Y =   -307.774  mm,	Z =   -269.141  mm,
	W =  90.000 deg,	P =   0.000 deg,	R =   90.000 deg
};
P[42]{
   GP1:
	UF : 0, UT : 6,		CONFIG : 'N U T, 0, 0, 0',
	X =  85.810  mm,	Y =   -308.369  mm,	Z =   -269.201  mm,
	W =  90.000 deg,	P =   0.000 deg,	R =   90.000 deg
};
P[43]{
   GP1:
	UF : 0, UT : 6,		CONFIG : 'N U T, 0, 0, 0',
	X =  85.276  mm,	Y =   -308.612  mm,	Z =   -268.795  mm,
	W =  90.000 deg,	P =   0.000 deg,	R =   90.000 deg
};
P[44]{
   GP1:
	UF : 0, UT : 6,		CONFIG : 'N U T, 0, 0, 0',
	X =  82.731  mm,	Y =   -310.111  mm,	Z =   -268.976  mm,
	W =  90.000 deg,	P =   0.000 deg,	R =   90.000 deg
};
P[45]{
   GP1:
	UF : 0, UT : 6,		CONFIG : 'N U T, 0, 0, 0',
	X =  80.354  mm,	Y =   -311.472  mm,	Z =   -268.905  mm,
	W =  90.000 deg,	P =   0.000 deg,	R =   90.000 deg
};
P[46]{
   GP1:
	UF : 0, UT : 6,		CONFIG : 'N U T, 0, 0, 0',
	X =  79.242  mm,	Y =   -312.144  mm,	Z =   -269.092  mm,
	W =  90.000 deg,	P =   0.000 deg,	R =   90.000 deg
};
P[47]{
   GP1:
	UF : 0, UT : 6,		CONFIG : 'N U T, 0, 0, 0',
	X =  77.674  mm,	Y =   -313.008  mm,	Z =   -268.830  mm,
	W =  90.000 deg,	P =   0.000 deg,	R =   90.000 deg
};
P[48]{
   GP1:
	UF : 0, UT : 6,		CONFIG : 'N U T, 0, 0, 0',
	X =  76.596  mm,	Y =   -313.624  mm,	Z =   -268.793  mm,
	W =  90.000 deg,	P =   0.000 deg,	R =   90.000 deg
};
P[49]{
   GP1:
	UF : 0, UT : 6,		CONFIG : 'N U T, 0, 0, 0',
	X =  76.024  mm,	Y =   -314.010  mm,	Z =   -269.140  mm,
	W =  90.000 deg,	P =   0.000 deg,	R =   90.000 deg
};
P[50]{
   GP1:
	UF : 0, UT : 6,		CONFIG : 'N U T, 0, 0, 0',
	X =  75.325  mm,	Y =   -314.413  mm,	Z =   -269.141  mm,
	W =  90.000 deg,	P =   0.000 deg,	R =   90.000 deg
};
P[51]{
   GP1:
	UF : 0, UT : 6,		CONFIG : 'N U T, 0, 0, 0',
	X =  74.307  mm,	Y =   -314.989  mm,	Z =   -269.060  mm,
	W =  90.000 deg,	P =   0.000 deg,	R =   90.000 deg
};
P[52]{
   GP1:
	UF : 0, UT : 6,		CONFIG : 'N U T, 0, 0, 0',
	X =  73.295  mm,	Y =   -315.594  mm,	Z =   -269.192  mm,
	W =  90.000 deg,	P =   0.000 deg,	R =   90.000 deg
};
P[53]{
   GP1:
	UF : 0, UT : 6,		CONFIG : 'N U T, 0, 0, 0',
	X =  72.664  mm,	Y =   -315.909  mm,	Z =   -268.883  mm,
	W =  90.000 deg,	P =   0.000 deg,	R =   90.000 deg
};
P[54]{
   GP1:
	UF : 0, UT : 6,		CONFIG : 'N U T, 0, 0, 0',
	X =  71.708  mm,	Y =   -316.504  mm,	Z =   -269.152  mm,
	W =  90.000 deg,	P =   0.000 deg,	R =   90.000 deg
};
P[55]{
   GP1:
	UF : 0, UT : 6,		CONFIG : 'N U T, 0, 0, 0',
	X =  70.911  mm,	Y =   -316.962  mm,	Z =   -269.135  mm,
	W =  90.000 deg,	P =   0.000 deg,	R =   90.000 deg
};
P[56]{
   GP1:
	UF : 0, UT : 6,		CONFIG : 'N U T, 0, 0, 0',
	X =  66.177  mm,	Y =   -319.696  mm,	Z =   -269.145  mm,
	W =  90.000 deg,	P =   0.000 deg,	R =   90.000 deg
};
P[57]{
   GP1:
	UF : 0, UT : 6,		CONFIG : 'N U T, 0, 0, 0',
	X =  65.132  mm,	Y =   -320.293  mm,	Z =   -269.105  mm,
	W =  90.000 deg,	P =   0.000 deg,	R =   90.000 deg
};
P[58]{
   GP1:
	UF : 0, UT : 6,		CONFIG : 'N U T, 0, 0, 0',
	X =  64.372  mm,	Y =   -320.704  mm,	Z =   -268.935  mm,
	W =  90.000 deg,	P =   0.000 deg,	R =   90.000 deg
};
P[59]{
   GP1:
	UF : 0, UT : 6,		CONFIG : 'N U T, 0, 0, 0',
	X =  62.799  mm,	Y =   -321.587  mm,	Z =   -268.778  mm,
	W =  90.000 deg,	P =   0.000 deg,	R =   90.000 deg
};
P[60]{
   GP1:
	UF : 0, UT : 6,		CONFIG : 'N U T, 0, 0, 0',
	X =  60.145  mm,	Y =   -323.153  mm,	Z =   -268.984  mm,
	W =  90.000 deg,	P =   0.000 deg,	R =   90.000 deg
};
P[61]{
   GP1:
	UF : 0, UT : 6,		CONFIG : 'N U T, 0, 0, 0',
	X =  58.056  mm,	Y =   -324.394  mm,	Z =   -269.199  mm,
	W =  90.000 deg,	P =   0.000 deg,	R =   90.000 deg
};
P[62]{
   GP1:
	UF : 0, UT : 6,		CONFIG : 'N U T, 0, 0, 0',
	X =  56.070  mm,	Y =   -325.508  mm,	Z =   -268.995  mm,
	W =  90.000 deg,	P =   0.000 deg,	R =   90.000 deg
};
P[63]{
   GP1:
	UF : 0, UT : 6,		CONFIG : 'N U T, 0, 0, 0',
	X =  51.859  mm,	Y =   -327.933  mm,	Z =   -268.951  mm,
	W =  90.000 deg,	P =   0.000 deg,	R =   90.000 deg
};
P[64]{
   GP1:
	UF : 0, UT : 6,		CONFIG : 'N U T, 0, 0, 0',
	X =  51.250  mm,	Y =   -328.283  mm,	Z =   -268.947  mm,
	W =  90.000 deg,	P =   0.000 deg,	R =   90.000 deg
};
P[65]{
   GP1:
	UF : 0, UT : 6,		CONFIG : 'N U T, 0, 0, 0',
	X =  49.672  mm,	Y =   -329.311  mm,	Z =   -269.213  mm,
	W =  90.000 deg,	P =   0.000 deg,	R =   90.000 deg
};
P[66]{
   GP1:
	UF : 0, UT : 6,		CONFIG : 'N U T, 0, 0, 0',
	X =  47.706  mm,	Y =   -329.382  mm,	Z =   -268.765  mm,
	W =  90.000 deg,	P =   0.000 deg,	R =   90.000 deg
};
P[67]{
   GP1:
	UF : 0, UT : 6,		CONFIG : 'N U T, 0, 0, 0',
	X =  48.689  mm,	Y =   -330.218  mm,	Z =   -268.880  mm,
	W =  90.000 deg,	P =   0.000 deg,	R =   90.000 deg
};
P[68]{
   GP1:
	UF : 0, UT : 6,		CONFIG : 'N U T, 0, 0, 0',
	X =  46.861  mm,	Y =   -330.732  mm,	Z =   -268.796  mm,
	W =  90.000 deg,	P =   0.000 deg,	R =   90.000 deg
};
P[69]{
   GP1:
	UF : 0, UT : 6,		CONFIG : 'N U T, 0, 0, 0',
	X =  46.593  mm,	Y =   -332.121  mm,	Z =   -269.087  mm,
	W =  90.000 deg,	P =   0.000 deg,	R =   90.000 deg
};
P[70]{
   GP1:
	UF : 0, UT : 6,		CONFIG : 'N U T, 0, 0, 0',
	X =  47.945  mm,	Y =   -333.121  mm,	Z =   -269.100  mm,
	W =  90.000 deg,	P =   0.000 deg,	R =   90.000 deg
};
P[71]{
   GP1:
	UF : 0, UT : 6,		CONFIG : 'N U T, 0, 0, 0',
	X =  46.691  mm,	Y =   -333.527  mm,	Z =   -268.827  mm,
	W =  90.000 deg,	P =   0.000 deg,	R =   90.000 deg
};
P[72]{
   GP1:
	UF : 0, UT : 6,		CONFIG : 'N U T, 0, 0, 0',
	X =  48.592  mm,	Y =   -335.055  mm,	Z =   -269.046  mm,
	W =  90.000 deg,	P =   0.000 deg,	R =   90.000 deg
};
P[73]{
   GP1:
	UF : 0, UT : 6,		CONFIG : 'N U T, 0, 0, 0',
	X =  49.071  mm,	Y =   -335.878  mm,	Z =   -269.177  mm,
	W =  90.000 deg,	P =   0.000 deg,	R =   90.000 deg
};
P[74]{
   GP1:
	UF : 0, UT : 6,		CONFIG : 'N U T, 0, 0, 0',
	X =  49.660  mm,	Y =   -336.914  mm,	Z =   -269.119  mm,
	W =  90.000 deg,	P =   0.000 deg,	R =   90.000 deg
};
P[75]{
   GP1:
	UF : 0, UT : 6,		CONFIG : 'N U T, 0, 0, 0',
	X =  51.046  mm,	Y =   -339.287  mm,	Z =   -269.219  mm,
	W =  90.000 deg,	P =   0.000 deg,	R =   90.000 deg
};
P[76]{
   GP1:
	UF : 0, UT : 6,		CONFIG : 'N U T, 0, 0, 0',
	X =  51.787  mm,	Y =   -340.566  mm,	Z =   -269.232  mm,
	W =  90.000 deg,	P =   0.000 deg,	R =   90.000 deg
};
P[77]{
   GP1:
	UF : 0, UT : 6,		CONFIG : 'N U T, 0, 0, 0',
	X =  53.259  mm,	Y =   -343.246  mm,	Z =   -268.770  mm,
	W =  90.000 deg,	P =   0.000 deg,	R =   90.000 deg
};
P[78]{
   GP1:
	UF : 0, UT : 6,		CONFIG : 'N U T, 0, 0, 0',
	X =  54.042  mm,	Y =   -344.545  mm,	Z =   -268.974  mm,
	W =  90.000 deg,	P =   0.000 deg,	R =   90.000 deg
};
P[79]{
   GP1:
	UF : 0, UT : 6,		CONFIG : 'N U T, 0, 0, 0',
	X =  54.696  mm,	Y =   -345.613  mm,	Z =   -269.208  mm,
	W =  90.000 deg,	P =   0.000 deg,	R =   90.000 deg
};
P[80]{
   GP1:
	UF : 0, UT : 6,		CONFIG : 'N U T, 0, 0, 0',
	X =  55.398  mm,	Y =   -346.907  mm,	Z =   -268.927  mm,
	W =  90.000 deg,	P =   0.000 deg,	R =   90.000 deg
};
P[81]{
   GP1:
	UF : 0, UT : 6,		CONFIG : 'N U T, 0, 0, 0',
	X =  56.315  mm,	Y =   -348.544  mm,	Z =   -268.747  mm,
	W =  90.000 deg,	P =   0.000 deg,	R =   90.000 deg
};
P[82]{
   GP1:
	UF : 0, UT : 6,		CONFIG : 'N U T, 0, 0, 0',
	X =  56.757  mm,	Y =   -349.185  mm,	Z =   -269.193  mm,
	W =  90.000 deg,	P =   0.000 deg,	R =   90.000 deg
};
P[83]{
   GP1:
	UF : 0, UT : 6,		CONFIG : 'N U T, 0, 0, 0',
	X =  59.989  mm,	Y =   -354.865  mm,	Z =   -268.902  mm,
	W =  90.000 deg,	P =   0.000 deg,	R =   90.000 deg
};
P[84]{
   GP1:
	UF : 0, UT : 6,		CONFIG : 'N U T, 0, 0, 0',
	X =  60.549  mm,	Y =   -355.846  mm,	Z =   -268.862  mm,
	W =  90.000 deg,	P =   0.000 deg,	R =   90.000 deg
};
P[85]{
   GP1:
	UF : 0, UT : 6,		CONFIG : 'N U T, 0, 0, 0',
	X =  61.701  mm,	Y =   -357.865  mm,	Z =   -268.773  mm,
	W =  90.000 deg,	P =   0.000 deg,	R =   90.000 deg
};
P[86]{
   GP1:
	UF : 0, UT : 6,		CONFIG : 'N U T, 0, 0, 0',
	X =  62.258  mm,	Y =   -358.704  mm,	Z =   -269.217  mm,
	W =  90.000 deg,	P =   0.000 deg,	R =   90.000 deg
};
P[87]{
   GP1:
	UF : 0, UT : 6,		CONFIG : 'N U T, 0, 0, 0',
	X =  62.895  mm,	Y =   -359.828  mm,	Z =   -269.149  mm,
	W =  90.000 deg,	P =   0.000 deg,	R =   90.000 deg
};
P[88]{
   GP1:
	UF : 0, UT : 6,		CONFIG : 'N U T, 0, 0, 0',
	X =  64.033  mm,	Y =   -361.844  mm,	Z =   -268.986  mm,
	W =  90.000 deg,	P =   0.000 deg,	R =   90.000 deg
};
P[89]{
   GP1:
	UF : 0, UT : 6,		CONFIG : 'N U T, 0, 0, 0',
	X =  64.724  mm,	Y =   -362.974  mm,	Z =   -269.224  mm,
	W =  90.000 deg,	P =   0.000 deg,	R =   90.000 deg
};
P[90]{
   GP1:
	UF : 0, UT : 6,		CONFIG : 'N U T, 0, 0, 0',
	X =  65.970  mm,	Y =   -365.142  mm,	Z =   -269.191  mm,
	W =  90.000 deg,	P =   0.000 deg,	R =   90.000 deg
};
P[91]{
   GP1:
	UF : 0, UT : 6,		CONFIG : 'N U T, 0, 0, 0',
	X =  66.351  mm,	Y =   -365.829  mm,	Z =   -269.095  mm,
	W =  90.000 deg,	P =   0.000 deg,	R =   90.000 deg
};
P[92]{
   GP1:
