/PROG  WALL01.LS
/ATTR
OWNER       = MNEDITOR;
COMMENT     = "";
PROG_SIZE   = 636;
CREATE      = DATE 23-01-07  TIME 11:59:14;
MODIFIED    = DATE 23-01-07  TIME 12:02:18;
FILE_NAME   = ;
VERSION     = 0;
LINE_COUNT  = 4;
MEMORY_SIZE = 992;
PROTECT     = READ_WRITE;
TCD:  STACK_SIZE	= 0,
      TASK_PRIORITY	= 50,
      TIME_SLICE	= 0,
      BUSY_LAMP_OFF	= 0,
      ABORT_REQUEST	= 0,
      PAUSE_REQUEST	= 0;
DEFAULT_GROUP	= 1,*,*,*,*;
CONTROL_CODE	= 00000000 00000000;
/MN
   1:J P[1] 100% FINE    ;
   2:L P[2] 100mm/sec CNT0    ;
   3:L P[3] 100mm/sec CNT0    ;
   4:L P[4] 100mm/sec CNT0    ;
   5:L P[5] 100mm/sec CNT0    ;
   6:L P[6] 100mm/sec CNT0    ;
   7:L P[7] 100mm/sec CNT0    ;
   8:L P[8] 100mm/sec CNT0    ;
   9:L P[9] 100mm/sec CNT0    ;
   10:L P[10] 100mm/sec CNT0    ;
   11:L P[11] 100mm/sec CNT0    ;
   12:L P[12] 100mm/sec CNT0    ;
   13:L P[13] 100mm/sec CNT0    ;
   14:L P[14] 100mm/sec CNT0    ;
   15:L P[15] 100mm/sec CNT0    ;
   16:L P[16] 100mm/sec CNT0    ;
   17:L P[17] 100mm/sec CNT0    ;
   18:L P[18] 100mm/sec CNT0    ;
   19:L P[19] 100mm/sec CNT0    ;
   20:L P[20] 100mm/sec CNT0    ;
   21:L P[21] 100mm/sec CNT0    ;
   22:L P[22] 100mm/sec CNT0    ;
   23:L P[23] 100mm/sec CNT0    ;
   24:L P[24] 100mm/sec CNT0    ;
   25:L P[25] 100mm/sec CNT0    ;
   26:L P[26] 100mm/sec CNT0    ;
   27:L P[27] 100mm/sec CNT0    ;
   28:L P[28] 100mm/sec CNT0    ;
   29:L P[29] 100mm/sec CNT0    ;
   30:L P[30] 100mm/sec CNT0    ;
   31:L P[31] 100mm/sec CNT0    ;
   32:L P[32] 100mm/sec CNT0    ;
   33:L P[33] 100mm/sec CNT0    ;
   34:L P[34] 100mm/sec CNT0    ;
   35:L P[35] 100mm/sec CNT0    ;
   36:L P[36] 100mm/sec CNT0    ;
   37:L P[37] 100mm/sec CNT0    ;
   38:L P[38] 100mm/sec CNT0    ;
   39:L P[39] 100mm/sec CNT0    ;
   40:L P[40] 100mm/sec CNT0    ;
   41:L P[41] 100mm/sec CNT0    ;
   42:L P[42] 100mm/sec CNT0    ;
   43:L P[43] 100mm/sec CNT0    ;
   44:L P[44] 100mm/sec CNT0    ;
   45:L P[45] 100mm/sec CNT0    ;
   46:L P[46] 100mm/sec CNT0    ;
   47:L P[47] 100mm/sec CNT0    ;
   48:L P[48] 100mm/sec CNT0    ;
   49:L P[49] 100mm/sec CNT0    ;
   50:L P[50] 100mm/sec CNT0    ;
   51:L P[51] 100mm/sec CNT0    ;
   52:L P[52] 100mm/sec CNT0    ;
   53:L P[53] 100mm/sec CNT0    ;
   54:L P[54] 100mm/sec CNT0    ;
   55:L P[55] 100mm/sec CNT0    ;
   56:L P[56] 100mm/sec CNT0    ;
   57:L P[57] 100mm/sec CNT0    ;
   58:L P[58] 100mm/sec CNT0    ;
   59:L P[59] 100mm/sec CNT0    ;
   60:L P[60] 100mm/sec CNT0    ;
   61:L P[61] 100mm/sec CNT0    ;
   62:L P[62] 100mm/sec CNT0    ;
   63:L P[63] 100mm/sec CNT0    ;
   64:L P[64] 100mm/sec CNT0    ;
   65:L P[65] 100mm/sec CNT0    ;
   66:L P[66] 100mm/sec CNT0    ;
   67:L P[67] 100mm/sec CNT0    ;
   68:L P[68] 100mm/sec CNT0    ;
   69:L P[69] 100mm/sec CNT0    ;
   70:L P[70] 100mm/sec CNT0    ;
   71:L P[71] 100mm/sec CNT0    ;
   72:L P[72] 100mm/sec CNT0    ;
   73:L P[73] 100mm/sec CNT0    ;
   74:L P[74] 100mm/sec CNT0    ;
   75:L P[75] 100mm/sec CNT0    ;
   76:L P[76] 100mm/sec CNT0    ;
   77:L P[77] 100mm/sec CNT0    ;
   78:L P[78] 100mm/sec CNT0    ;
   79:L P[79] 100mm/sec CNT0    ;
   80:L P[80] 100mm/sec CNT0    ;
   81:L P[81] 100mm/sec CNT0    ;
   82:L P[82] 100mm/sec CNT0    ;
   83:L P[83] 100mm/sec CNT0    ;
   84:L P[84] 100mm/sec CNT0    ;
   85:L P[85] 100mm/sec CNT0    ;
   86:L P[86] 100mm/sec CNT0    ;
   87:L P[87] 100mm/sec CNT0    ;
   88:L P[88] 100mm/sec CNT0    ;
   89:L P[89] 100mm/sec CNT0    ;
   90:L P[90] 100mm/sec CNT0    ;
   91:L P[91] 100mm/sec CNT0    ;
   92:L P[92] 100mm/sec CNT0    ;
   93:L P[93] 100mm/sec CNT0    ;
   94:L P[94] 100mm/sec CNT0    ;
   95:L P[95] 100mm/sec CNT0    ;
   96:L P[96] 100mm/sec CNT0    ;
   97:L P[97] 100mm/sec CNT0    ;
   98:L P[98] 100mm/sec CNT0    ;
   99:L P[99] 100mm/sec CNT0    ;
   100:L P[100] 100mm/sec CNT0    ;
   101:L P[101] 100mm/sec CNT0    ;
   102:L P[102] 100mm/sec CNT0    ;
   103:L P[103] 100mm/sec CNT0    ;
   104:L P[104] 100mm/sec CNT0    ;
   105:L P[105] 100mm/sec CNT0    ;
   106:L P[106] 100mm/sec CNT0    ;
   107:L P[107] 100mm/sec CNT0    ;
   108:L P[108] 100mm/sec CNT0    ;
   109:L P[109] 100mm/sec CNT0    ;
   110:L P[110] 100mm/sec CNT0    ;
   111:L P[111] 100mm/sec CNT0    ;
   112:L P[112] 100mm/sec CNT0    ;
   113:L P[113] 100mm/sec CNT0    ;
   114:L P[114] 100mm/sec CNT0    ;
   115:L P[115] 100mm/sec CNT0    ;
   116:L P[116] 100mm/sec CNT0    ;
   117:L P[117] 100mm/sec CNT0    ;
   118:L P[118] 100mm/sec CNT0    ;
   119:L P[119] 100mm/sec CNT0    ;
   120:L P[120] 100mm/sec CNT0    ;
   121:L P[121] 100mm/sec CNT0    ;
   122:L P[122] 100mm/sec CNT0    ;
   123:L P[123] 100mm/sec CNT0    ;
   124:L P[124] 100mm/sec CNT0    ;
   125:L P[125] 100mm/sec CNT0    ;
   126:L P[126] 100mm/sec CNT0    ;
   127:L P[127] 100mm/sec CNT0    ;
   128:L P[128] 100mm/sec CNT0    ;
   129:L P[129] 100mm/sec CNT0    ;
   130:L P[130] 100mm/sec CNT0    ;
   131:L P[131] 100mm/sec CNT0    ;
   132:L P[132] 100mm/sec CNT0    ;
   133:L P[133] 100mm/sec CNT0    ;
   134:L P[134] 100mm/sec CNT0    ;
   135:L P[135] 100mm/sec CNT0    ;
   136:L P[136] 100mm/sec CNT0    ;
   137:L P[137] 100mm/sec CNT0    ;
   138:L P[138] 100mm/sec CNT0    ;
   139:L P[139] 100mm/sec CNT0    ;
   140:L P[140] 100mm/sec CNT0    ;
   141:L P[141] 100mm/sec CNT0    ;
   142:L P[142] 100mm/sec CNT0    ;
   143:L P[143] 100mm/sec CNT0    ;
   144:L P[144] 100mm/sec CNT0    ;
   145:L P[145] 100mm/sec CNT0    ;
   146:L P[146] 100mm/sec CNT0    ;
   147:L P[147] 100mm/sec CNT0    ;
   148:L P[148] 100mm/sec CNT0    ;
   149:L P[149] 100mm/sec CNT0    ;
   150:L P[150] 100mm/sec CNT0    ;
   151:L P[151] 100mm/sec CNT0    ;
   152:L P[152] 100mm/sec CNT0    ;
   153:L P[153] 100mm/sec CNT0    ;
   154:L P[154] 100mm/sec CNT0    ;
   155:L P[155] 100mm/sec CNT0    ;
   156:L P[156] 100mm/sec CNT0    ;
   157:L P[157] 100mm/sec CNT0    ;
   158:L P[158] 100mm/sec CNT0    ;
   159:L P[159] 100mm/sec CNT0    ;
   160:L P[160] 100mm/sec CNT0    ;
   161:L P[161] 100mm/sec CNT0    ;
   162:L P[162] 100mm/sec CNT0    ;
   163:L P[163] 100mm/sec CNT0    ;
   164:L P[164] 100mm/sec CNT0    ;
   165:L P[165] 100mm/sec CNT0    ;
   166:L P[166] 100mm/sec CNT0    ;
   167:L P[167] 100mm/sec CNT0    ;
   168:L P[168] 100mm/sec CNT0    ;
   169:L P[169] 100mm/sec CNT0    ;
   170:L P[170] 100mm/sec CNT0    ;
   171:L P[171] 100mm/sec CNT0    ;
   172:L P[172] 100mm/sec CNT0    ;
   173:L P[173] 100mm/sec CNT0    ;
   174:L P[174] 100mm/sec CNT0    ;
   175:L P[175] 100mm/sec CNT0    ;
   176:L P[176] 100mm/sec CNT0    ;
   177:L P[177] 100mm/sec CNT0    ;
   178:L P[178] 100mm/sec CNT0    ;
   179:L P[179] 100mm/sec CNT0    ;
   180:L P[180] 100mm/sec CNT0    ;
   181:L P[181] 100mm/sec CNT0    ;
   182:L P[182] 100mm/sec CNT0    ;
   183:L P[183] 100mm/sec CNT0    ;
   184:L P[184] 100mm/sec CNT0    ;
   185:L P[185] 100mm/sec CNT0    ;
   186:L P[186] 100mm/sec CNT0    ;
   187:L P[187] 100mm/sec CNT0    ;
   188:L P[188] 100mm/sec CNT0    ;
   189:L P[189] 100mm/sec CNT0    ;
   190:L P[190] 100mm/sec CNT0    ;
   191:L P[191] 100mm/sec CNT0    ;
   192:L P[192] 100mm/sec CNT0    ;
   193:L P[193] 100mm/sec CNT0    ;
   194:L P[194] 100mm/sec CNT0    ;
   195:L P[195] 100mm/sec CNT0    ;
   196:L P[196] 100mm/sec CNT0    ;
   197:L P[197] 100mm/sec CNT0    ;
   198:L P[198] 100mm/sec CNT0    ;
   199:L P[199] 100mm/sec CNT0    ;
   200:L P[200] 100mm/sec CNT0    ;
   201:L P[201] 100mm/sec CNT0    ;
   202:L P[202] 100mm/sec CNT0    ;
   203:L P[203] 100mm/sec CNT0    ;
   204:L P[204] 100mm/sec CNT0    ;
   205:L P[205] 100mm/sec CNT0    ;
   206:L P[206] 100mm/sec CNT0    ;
   207:L P[207] 100mm/sec CNT0    ;
   208:L P[208] 100mm/sec CNT0    ;
   209:L P[209] 100mm/sec CNT0    ;
   210:L P[210] 100mm/sec CNT0    ;
   211:L P[211] 100mm/sec CNT0    ;
   212:L P[212] 100mm/sec CNT0    ;
   213:L P[213] 100mm/sec CNT0    ;
   214:L P[214] 100mm/sec CNT0    ;
   215:L P[215] 100mm/sec CNT0    ;
   216:L P[216] 100mm/sec CNT0    ;
   217:L P[217] 100mm/sec CNT0    ;
   218:L P[218] 100mm/sec CNT0    ;
   219:L P[219] 100mm/sec CNT0    ;
   220:L P[220] 100mm/sec CNT0    ;
   221:L P[221] 100mm/sec CNT0    ;
   222:L P[222] 100mm/sec CNT0    ;
   223:L P[223] 100mm/sec CNT0    ;
   224:L P[224] 100mm/sec CNT0    ;
   225:L P[225] 100mm/sec CNT0    ;
   226:L P[226] 100mm/sec CNT0    ;
   227:L P[227] 100mm/sec CNT0    ;
   228:L P[228] 100mm/sec CNT0    ;
   229:L P[229] 100mm/sec CNT0    ;
   230:L P[230] 100mm/sec CNT0    ;
   231:L P[231] 100mm/sec CNT0    ;
   232:L P[232] 100mm/sec CNT0    ;
   233:L P[233] 100mm/sec CNT0    ;
   234:L P[234] 100mm/sec CNT0    ;
   235:L P[235] 100mm/sec CNT0    ;
   236:L P[236] 100mm/sec CNT0    ;
   237:L P[237] 100mm/sec CNT0    ;
   238:L P[238] 100mm/sec CNT0    ;
   239:L P[239] 100mm/sec CNT0    ;
   240:L P[240] 100mm/sec CNT0    ;
   241:L P[241] 100mm/sec CNT0    ;
   242:L P[242] 100mm/sec CNT0    ;
   243:L P[243] 100mm/sec CNT0    ;
   244:L P[244] 100mm/sec CNT0    ;
   245:L P[245] 100mm/sec CNT0    ;
   246:L P[246] 100mm/sec CNT0    ;
   247:L P[247] 100mm/sec CNT0    ;
   248:L P[248] 100mm/sec CNT0    ;
   249:L P[249] 100mm/sec CNT0    ;
   250:L P[250] 100mm/sec CNT0    ;
   251:L P[251] 100mm/sec CNT0    ;
   252:L P[252] 100mm/sec CNT0    ;
   253:L P[253] 100mm/sec CNT0    ;
   254:L P[254] 100mm/sec CNT0    ;
   255:L P[255] 100mm/sec CNT0    ;
   256:L P[256] 100mm/sec CNT0    ;
   257:L P[257] 100mm/sec CNT0    ;
   258:L P[258] 100mm/sec CNT0    ;
   259:L P[259] 100mm/sec CNT0    ;
   260:L P[260] 100mm/sec CNT0    ;
   261:L P[261] 100mm/sec CNT0    ;
   262:L P[262] 100mm/sec CNT0    ;
   263:L P[263] 100mm/sec CNT0    ;
   264:L P[264] 100mm/sec CNT0    ;
   265:L P[265] 100mm/sec CNT0    ;
   266:L P[266] 100mm/sec CNT0    ;
   267:L P[267] 100mm/sec CNT0    ;
   268:L P[268] 100mm/sec CNT0    ;
   269:L P[269] 100mm/sec CNT0    ;
   270:L P[270] 100mm/sec CNT0    ;
   271:L P[271] 100mm/sec CNT0    ;
   272:L P[272] 100mm/sec CNT0    ;
   273:L P[273] 100mm/sec CNT0    ;
   274:L P[274] 100mm/sec CNT0    ;
   275:L P[275] 100mm/sec CNT0    ;
   276:L P[276] 100mm/sec CNT0    ;
   277:L P[277] 100mm/sec CNT0    ;
   278:L P[278] 100mm/sec CNT0    ;
   279:L P[279] 100mm/sec CNT0    ;
   280:L P[280] 100mm/sec CNT0    ;
   281:L P[281] 100mm/sec CNT0    ;
   282:L P[282] 100mm/sec CNT0    ;
   283:L P[283] 100mm/sec CNT0    ;
   284:L P[284] 100mm/sec CNT0    ;
   285:L P[285] 100mm/sec CNT0    ;
   286:L P[286] 100mm/sec CNT0    ;
   287:L P[287] 100mm/sec CNT0    ;
   288:L P[288] 100mm/sec CNT0    ;
   289:L P[289] 100mm/sec CNT0    ;
   290:L P[290] 100mm/sec CNT0    ;
   291:L P[291] 100mm/sec CNT0    ;
   292:L P[292] 100mm/sec CNT0    ;
   293:L P[293] 100mm/sec CNT0    ;
   294:L P[294] 100mm/sec CNT0    ;
   295:L P[295] 100mm/sec CNT0    ;
   296:L P[296] 100mm/sec CNT0    ;
   297:L P[297] 100mm/sec CNT0    ;
   298:L P[298] 100mm/sec CNT0    ;
   299:L P[299] 100mm/sec CNT0    ;
   300:L P[300] 100mm/sec CNT0    ;
   301:L P[301] 100mm/sec CNT0    ;
   302:L P[302] 100mm/sec CNT0    ;
   303:L P[303] 100mm/sec CNT0    ;
   304:L P[304] 100mm/sec CNT0    ;
   305:L P[305] 100mm/sec CNT0    ;
   306:L P[306] 100mm/sec CNT0    ;
   307:L P[307] 100mm/sec CNT0    ;
   308:L P[308] 100mm/sec CNT0    ;
   309:L P[309] 100mm/sec CNT0    ;
   310:L P[310] 100mm/sec CNT0    ;
   311:L P[311] 100mm/sec CNT0    ;
   312:L P[312] 100mm/sec CNT0    ;
   313:L P[313] 100mm/sec CNT0    ;
   314:L P[314] 100mm/sec CNT0    ;
   315:L P[315] 100mm/sec CNT0    ;
   316:L P[316] 100mm/sec CNT0    ;
   317:L P[317] 100mm/sec CNT0    ;
   318:L P[318] 100mm/sec CNT0    ;
   319:L P[319] 100mm/sec CNT0    ;
   320:L P[320] 100mm/sec CNT0    ;
   321:L P[321] 100mm/sec CNT0    ;
   322:L P[322] 100mm/sec CNT0    ;
   323:L P[323] 100mm/sec CNT0    ;
   324:L P[324] 100mm/sec CNT0    ;
   325:L P[325] 100mm/sec CNT0    ;
   326:L P[326] 100mm/sec CNT0    ;
   327:L P[327] 100mm/sec CNT0    ;
   328:L P[328] 100mm/sec CNT0    ;
   329:L P[329] 100mm/sec CNT0    ;
   330:L P[330] 100mm/sec CNT0    ;
   331:L P[331] 100mm/sec CNT0    ;
   332:L P[332] 100mm/sec CNT0    ;
   333:L P[333] 100mm/sec CNT0    ;
   334:L P[334] 100mm/sec CNT0    ;
   335:L P[335] 100mm/sec CNT0    ;
   336:L P[336] 100mm/sec CNT0    ;
   337:L P[337] 100mm/sec CNT0    ;
   338:L P[338] 100mm/sec CNT0    ;
   339:L P[339] 100mm/sec CNT0    ;
   340:L P[340] 100mm/sec CNT0    ;
   341:L P[341] 100mm/sec CNT0    ;
   342:L P[342] 100mm/sec CNT0    ;
   343:L P[343] 100mm/sec CNT0    ;
   344:L P[344] 100mm/sec CNT0    ;
   345:L P[345] 100mm/sec CNT0    ;
   346:L P[346] 100mm/sec CNT0    ;
   347:L P[347] 100mm/sec CNT0    ;
   348:L P[348] 100mm/sec CNT0    ;
   349:L P[349] 100mm/sec CNT0    ;
   350:L P[350] 100mm/sec CNT0    ;
   351:L P[351] 100mm/sec CNT0    ;
   352:L P[352] 100mm/sec CNT0    ;
   353:L P[353] 100mm/sec CNT0    ;
   354:L P[354] 100mm/sec CNT0    ;
   355:L P[355] 100mm/sec CNT0    ;
   356:L P[356] 100mm/sec CNT0    ;
   357:L P[357] 100mm/sec CNT0    ;
   358:L P[358] 100mm/sec CNT0    ;
   359:L P[359] 100mm/sec CNT0    ;
   360:L P[360] 100mm/sec CNT0    ;
   361:L P[361] 100mm/sec CNT0    ;
   362:L P[362] 100mm/sec CNT0    ;
   363:L P[363] 100mm/sec CNT0    ;
   364:L P[364] 100mm/sec CNT0    ;
   365:L P[365] 100mm/sec CNT0    ;
   366:L P[366] 100mm/sec CNT0    ;
   367:L P[367] 100mm/sec CNT0    ;
   368:L P[368] 100mm/sec CNT0    ;
   369:L P[369] 100mm/sec CNT0    ;
   370:L P[370] 100mm/sec CNT0    ;
   371:L P[371] 100mm/sec CNT0    ;
   372:L P[372] 100mm/sec CNT0    ;
   373:L P[373] 100mm/sec CNT0    ;
   374:L P[374] 100mm/sec CNT0    ;
   375:L P[375] 100mm/sec CNT0    ;
   376:L P[376] 100mm/sec CNT0    ;
   377:L P[377] 100mm/sec CNT0    ;
   378:L P[378] 100mm/sec CNT0    ;
   379:L P[379] 100mm/sec CNT0    ;
   380:L P[380] 100mm/sec CNT0    ;
   381:L P[381] 100mm/sec CNT0    ;
   382:L P[382] 100mm/sec CNT0    ;
   383:L P[383] 100mm/sec CNT0    ;
   384:L P[384] 100mm/sec CNT0    ;
   385:L P[385] 100mm/sec CNT0    ;
   386:L P[386] 100mm/sec CNT0    ;
   387:L P[387] 100mm/sec CNT0    ;
   388:L P[388] 100mm/sec CNT0    ;
   389:L P[389] 100mm/sec CNT0    ;
   390:L P[390] 100mm/sec CNT0    ;
   391:L P[391] 100mm/sec CNT0    ;
   392:L P[392] 100mm/sec CNT0    ;
   393:L P[393] 100mm/sec CNT0    ;
   394:L P[394] 100mm/sec CNT0    ;
   395:L P[395] 100mm/sec CNT0    ;
   396:L P[396] 100mm/sec CNT0    ;
   397:L P[397] 100mm/sec CNT0    ;
   398:L P[398] 100mm/sec CNT0    ;
   399:L P[399] 100mm/sec CNT0    ;
   400:L P[400] 100mm/sec CNT0    ;
   401:L P[401] 100mm/sec CNT0    ;
   402:L P[402] 100mm/sec CNT0    ;
   403:L P[403] 100mm/sec CNT0    ;
   404:L P[404] 100mm/sec CNT0    ;
   405:L P[405] 100mm/sec CNT0    ;
   406:L P[406] 100mm/sec CNT0    ;
   407:L P[407] 100mm/sec CNT0    ;
   408:L P[408] 100mm/sec CNT0    ;
   409:L P[409] 100mm/sec CNT0    ;
   410:L P[410] 100mm/sec CNT0    ;
   411:L P[411] 100mm/sec CNT0    ;
/POS
P[1]{
   GP1:
	UF : 0, UT : 6,		CONFIG : 'N U T, 0, 0, 0',
	X =  223.121  mm,	Y =   -345.772  mm,	Z =   -247.989  mm,
	W =  90.000 deg,	P =   0.000 deg,	R =   30.000 deg
};
P[2]{
   GP1:
	UF : 0, UT : 6,		CONFIG : 'N U T, 0, 0, 0',
	X =  222.284  mm,	Y =   -346.255  mm,	Z =   -247.985  mm,
	W =  90.000 deg,	P =   0.000 deg,	R =   30.000 deg
};
P[3]{
   GP1:
	UF : 0, UT : 6,		CONFIG : 'N U T, 0, 0, 0',
	X =  220.497  mm,	Y =   -347.286  mm,	Z =   -247.977  mm,
	W =  90.000 deg,	P =   0.000 deg,	R =   30.000 deg
};
P[4]{
   GP1:
	UF : 0, UT : 6,		CONFIG : 'N U T, 0, 0, 0',
	X =  219.576  mm,	Y =   -347.814  mm,	Z =   -247.927  mm,
	W =  90.000 deg,	P =   0.000 deg,	R =   30.000 deg
};
P[5]{
   GP1:
	UF : 0, UT : 6,		CONFIG : 'N U T, 0, 0, 0',
	X =  216.185  mm,	Y =   -349.769  mm,	Z =   -247.894  mm,
	W =  90.000 deg,	P =   0.000 deg,	R =   30.000 deg
};
P[6]{
   GP1:
	UF : 0, UT : 6,		CONFIG : 'N U T, 0, 0, 0',
	X =  214.599  mm,	Y =   -350.688  mm,	Z =   -247.929  mm,
	W =  90.000 deg,	P =   0.000 deg,	R =   30.000 deg
};
P[7]{
   GP1:
	UF : 0, UT : 6,		CONFIG : 'N U T, 0, 0, 0',
	X =  213.677  mm,	Y =   -351.220  mm,	Z =   -247.927  mm,
	W =  90.000 deg,	P =   0.000 deg,	R =   30.000 deg
};
P[8]{
   GP1:
	UF : 0, UT : 6,		CONFIG : 'N U T, 0, 0, 0',
	X =  211.712  mm,	Y =   -352.340  mm,	Z =   -247.749  mm,
	W =  90.000 deg,	P =   0.000 deg,	R =   30.000 deg
};
P[9]{
   GP1:
	UF : 0, UT : 6,		CONFIG : 'N U T, 0, 0, 0',
	X =  210.230  mm,	Y =   -353.211  mm,	Z =   -247.938  mm,
	W =  90.000 deg,	P =   0.000 deg,	R =   30.000 deg
};
P[10]{
   GP1:
	UF : 0, UT : 6,		CONFIG : 'N U T, 0, 0, 0',
	X =  209.312  mm,	Y =   -353.734  mm,	Z =   -247.849  mm,
	W =  90.000 deg,	P =   0.000 deg,	R =   30.000 deg
};
P[11]{
   GP1:
	UF : 0, UT : 6,		CONFIG : 'N U T, 0, 0, 0',
	X =  207.581  mm,	Y =   -354.741  mm,	Z =   -247.935  mm,
	W =  90.000 deg,	P =   0.000 deg,	R =   30.000 deg
};
P[12]{
   GP1:
	UF : 0, UT : 6,		CONFIG : 'N U T, 0, 0, 0',
	X =  206.636  mm,	Y =   -355.286  mm,	Z =   -247.943  mm,
	W =  90.000 deg,	P =   0.000 deg,	R =   30.000 deg
};
P[13]{
   GP1:
	UF : 0, UT : 6,		CONFIG : 'N U T, 0, 0, 0',
	X =  205.722  mm,	Y =   -355.813  mm,	Z =   -247.924  mm,
	W =  90.000 deg,	P =   0.000 deg,	R =   30.000 deg
};
P[14]{
   GP1:
	UF : 0, UT : 6,		CONFIG : 'N U T, 0, 0, 0',
	X =  205.007  mm,	Y =   -356.229  mm,	Z =   -247.958  mm,
	W =  90.000 deg,	P =   0.000 deg,	R =   30.000 deg
};
P[15]{
   GP1:
	UF : 0, UT : 6,		CONFIG : 'N U T, 0, 0, 0',
	X =  202.373  mm,	Y =   -357.741  mm,	Z =   -247.865  mm,
	W =  90.000 deg,	P =   0.000 deg,	R =   30.000 deg
};
P[16]{
   GP1:
	UF : 0, UT : 6,		CONFIG : 'N U T, 0, 0, 0',
	X =  201.495  mm,	Y =   -358.256  mm,	Z =   -247.956  mm,
	W =  90.000 deg,	P =   0.000 deg,	R =   30.000 deg
};
P[17]{
   GP1:
	UF : 0, UT : 6,		CONFIG : 'N U T, 0, 0, 0',
	X =  200.534  mm,	Y =   -358.813  mm,	Z =   -247.978  mm,
	W =  90.000 deg,	P =   0.000 deg,	R =   30.000 deg
};
P[18]{
   GP1:
	UF : 0, UT : 6,		CONFIG : 'N U T, 0, 0, 0',
	X =  198.140  mm,	Y =   -360.196  mm,	Z =   -247.987  mm,
	W =  90.000 deg,	P =   0.000 deg,	R =   30.000 deg
};
P[19]{
   GP1:
	UF : 0, UT : 6,		CONFIG : 'N U T, 0, 0, 0',
	X =  192.968  mm,	Y =   -363.172  mm,	Z =   -247.863  mm,
	W =  90.000 deg,	P =   0.000 deg,	R =   30.000 deg
};
P[20]{
   GP1:
	UF : 0, UT : 6,		CONFIG : 'N U T, 0, 0, 0',
	X =  192.044  mm,	Y =   -363.713  mm,	Z =   -247.953  mm,
	W =  90.000 deg,	P =   0.000 deg,	R =   30.000 deg
};
P[21]{
   GP1:
	UF : 0, UT : 6,		CONFIG : 'N U T, 0, 0, 0',
	X =  187.571  mm,	Y =   -366.286  mm,	Z =   -247.829  mm,
	W =  90.000 deg,	P =   0.000 deg,	R =   30.000 deg
};
P[22]{
   GP1:
	UF : 0, UT : 6,		CONFIG : 'N U T, 0, 0, 0',
	X =  185.845  mm,	Y =   -367.291  mm,	Z =   -247.945  mm,
	W =  90.000 deg,	P =   0.000 deg,	R =   30.000 deg
};
P[23]{
   GP1:
	UF : 0, UT : 6,		CONFIG : 'N U T, 0, 0, 0',
	X =  183.264  mm,	Y =   -368.778  mm,	Z =   -247.903  mm,
	W =  90.000 deg,	P =   0.000 deg,	R =   30.000 deg
};
P[24]{
   GP1:
	UF : 0, UT : 6,		CONFIG : 'N U T, 0, 0, 0',
	X =  181.445  mm,	Y =   -369.830  mm,	Z =   -247.918  mm,
	W =  90.000 deg,	P =   0.000 deg,	R =   30.000 deg
};
P[25]{
   GP1:
	UF : 0, UT : 6,		CONFIG : 'N U T, 0, 0, 0',
	X =  180.552  mm,	Y =   -370.348  mm,	Z =   -247.949  mm,
	W =  90.000 deg,	P =   0.000 deg,	R =   30.000 deg
};
P[26]{
   GP1:
	UF : 0, UT : 6,		CONFIG : 'N U T, 0, 0, 0',
	X =  179.807  mm,	Y =   -370.779  mm,	Z =   -247.969  mm,
	W =  90.000 deg,	P =   0.000 deg,	R =   30.000 deg
};
P[27]{
   GP1:
	UF : 0, UT : 6,		CONFIG : 'N U T, 0, 0, 0',
	X =  178.898  mm,	Y =   -371.294  mm,	Z =   -247.847  mm,
	W =  90.000 deg,	P =   0.000 deg,	R =   30.000 deg
};
P[28]{
   GP1:
	UF : 0, UT : 6,		CONFIG : 'N U T, 0, 0, 0',
	X =  171.934  mm,	Y =   -375.346  mm,	Z =   -247.982  mm,
	W =  90.000 deg,	P =   0.000 deg,	R =   30.000 deg
};
P[29]{
   GP1:
	UF : 0, UT : 6,		CONFIG : 'N U T, 0, 0, 0',
	X =  170.477  mm,	Y =   -376.422  mm,	Z =   -247.976  mm,
	W =  90.000 deg,	P =   0.000 deg,	R =   30.000 deg
};
P[30]{
   GP1:
	UF : 0, UT : 6,		CONFIG : 'N U T, 0, 0, 0',
	X =  169.837  mm,	Y =   -376.988  mm,	Z =   -247.746  mm,
	W =  90.000 deg,	P =   0.000 deg,	R =   30.000 deg
};
P[31]{
   GP1:
	UF : 0, UT : 6,		CONFIG : 'N U T, 0, 0, 0',
	X =  169.526  mm,	Y =   -377.375  mm,	Z =   -247.938  mm,
	W =  90.000 deg,	P =   0.000 deg,	R =   30.000 deg
};
P[32]{
   GP1:
	UF : 0, UT : 6,		CONFIG : 'N U T, 0, 0, 0',
	X =  168.892  mm,	Y =   -378.188  mm,	Z =   -247.992  mm,
	W =  90.000 deg,	P =   0.000 deg,	R =   30.000 deg
};
P[33]{
   GP1:
	UF : 0, UT : 6,		CONFIG : 'N U T, 0, 0, 0',
	X =  168.486  mm,	Y =   -378.831  mm,	Z =   -247.975  mm,
	W =  90.000 deg,	P =   0.000 deg,	R =   30.000 deg
};
P[34]{
   GP1:
	UF : 0, UT : 6,		CONFIG : 'N U T, 0, 0, 0',
	X =  167.807  mm,	Y =   -380.195  mm,	Z =   -247.916  mm,
	W =  90.000 deg,	P =   0.000 deg,	R =   30.000 deg
};
P[35]{
   GP1:
	UF : 0, UT : 6,		CONFIG : 'N U T, 0, 0, 0',
	X =  167.447  mm,	Y =   -381.307  mm,	Z =   -247.969  mm,
	W =  90.000 deg,	P =   0.000 deg,	R =   30.000 deg
};
P[36]{
   GP1:
	UF : 0, UT : 6,		CONFIG : 'N U T, 0, 0, 0',
	X =  167.616  mm,	Y =   -387.034  mm,	Z =   -247.901  mm,
	W =  90.000 deg,	P =   0.000 deg,	R =   30.000 deg
};
P[37]{
   GP1:
	UF : 0, UT : 6,		CONFIG : 'N U T, 0, 0, 0',
	X =  167.938  mm,	Y =   -387.868  mm,	Z =   -248.001  mm,
	W =  90.000 deg,	P =   0.000 deg,	R =   30.000 deg
};
P[38]{
   GP1:
	UF : 0, UT : 6,		CONFIG : 'N U T, 0, 0, 0',
	X =  168.325  mm,	Y =   -388.681  mm,	Z =   -247.840  mm,
	W =  90.000 deg,	P =   0.000 deg,	R =   30.000 deg
};
P[39]{
   GP1:
	UF : 0, UT : 6,		CONFIG : 'N U T, 0, 0, 0',
	X =  169.889  mm,	Y =   -391.409  mm,	Z =   -247.978  mm,
	W =  90.000 deg,	P =   0.000 deg,	R =   30.000 deg
};
P[40]{
   GP1:
	UF : 0, UT : 6,		CONFIG : 'N U T, 0, 0, 0',
	X =  171.311  mm,	Y =   -393.874  mm,	Z =   -247.972  mm,
	W =  90.000 deg,	P =   0.000 deg,	R =   30.000 deg
};
P[41]{
   GP1:
	UF : 0, UT : 6,		CONFIG : 'N U T, 0, 0, 0',
	X =  171.862  mm,	Y =   -394.841  mm,	Z =   -247.875  mm,
	W =  90.000 deg,	P =   0.000 deg,	R =   30.000 deg
};
P[42]{
   GP1:
	UF : 0, UT : 6,		CONFIG : 'N U T, 0, 0, 0',
	X =  173.912  mm,	Y =   -398.375  mm,	Z =   -247.993  mm,
	W =  90.000 deg,	P =   0.000 deg,	R =   30.000 deg
};
P[43]{
   GP1:
	UF : 0, UT : 6,		CONFIG : 'N U T, 0, 0, 0',
	X =  174.839  mm,	Y =   -399.986  mm,	Z =   -247.952  mm,
	W =  90.000 deg,	P =   0.000 deg,	R =   30.000 deg
};
P[44]{
   GP1:
	UF : 0, UT : 6,		CONFIG : 'N U T, 0, 0, 0',
	X =  175.373  mm,	Y =   -400.905  mm,	Z =   -247.996  mm,
	W =  90.000 deg,	P =   0.000 deg,	R =   30.000 deg
};
P[45]{
   GP1:
	UF : 0, UT : 6,		CONFIG : 'N U T, 0, 0, 0',
	X =  177.412  mm,	Y =   -404.445  mm,	Z =   -247.927  mm,
	W =  90.000 deg,	P =   0.000 deg,	R =   30.000 deg
};
P[46]{
   GP1:
	UF : 0, UT : 6,		CONFIG : 'N U T, 0, 0, 0',
	X =  178.971  mm,	Y =   -407.141  mm,	Z =   -247.970  mm,
	W =  90.000 deg,	P =   0.000 deg,	R =   30.000 deg
};
P[47]{
   GP1:
	UF : 0, UT : 6,		CONFIG : 'N U T, 0, 0, 0',
	X =  179.373  mm,	Y =   -407.846  mm,	Z =   -247.909  mm,
	W =  90.000 deg,	P =   0.000 deg,	R =   30.000 deg
};
P[48]{
   GP1:
	UF : 0, UT : 6,		CONFIG : 'N U T, 0, 0, 0',
	X =  180.378  mm,	Y =   -409.588  mm,	Z =   -247.893  mm,
	W =  90.000 deg,	P =   0.000 deg,	R =   30.000 deg
};
P[49]{
   GP1:
	UF : 0, UT : 6,		CONFIG : 'N U T, 0, 0, 0',
	X =  180.876  mm,	Y =   -410.458  mm,	Z =   -247.844  mm,
	W =  90.000 deg,	P =   0.000 deg,	R =   30.000 deg
};
P[50]{
   GP1:
	UF : 0, UT : 6,		CONFIG : 'N U T, 0, 0, 0',
	X =  181.447  mm,	Y =   -411.434  mm,	Z =   -247.942  mm,
	W =  90.000 deg,	P =   0.000 deg,	R =   30.000 deg
};
P[51]{
   GP1:
	UF : 0, UT : 6,		CONFIG : 'N U T, 0, 0, 0',
	X =  183.385  mm,	Y =   -414.805  mm,	Z =   -247.830  mm,
	W =  90.000 deg,	P =   0.000 deg,	R =   30.000 deg
};
P[52]{
   GP1:
	UF : 0, UT : 6,		CONFIG : 'N U T, 0, 0, 0',
	X =  184.368  mm,	Y =   -416.484  mm,	Z =   -247.995  mm,
	W =  90.000 deg,	P =   0.000 deg,	R =   30.000 deg
};
P[53]{
   GP1:
	UF : 0, UT : 6,		CONFIG : 'N U T, 0, 0, 0',
	X =  184.979  mm,	Y =   -417.544  mm,	Z =   -247.985  mm,
	W =  90.000 deg,	P =   0.000 deg,	R =   30.000 deg
};
P[54]{
   GP1:
	UF : 0, UT : 6,		CONFIG : 'N U T, 0, 0, 0',
	X =  185.454  mm,	Y =   -418.389  mm,	Z =   -247.824  mm,
	W =  90.000 deg,	P =   0.000 deg,	R =   30.000 deg
};
P[55]{
   GP1:
	UF : 0, UT : 6,		CONFIG : 'N U T, 0, 0, 0',
	X =  185.928  mm,	Y =   -419.203  mm,	Z =   -247.866  mm,
	W =  90.000 deg,	P =   0.000 deg,	R =   30.000 deg
};
P[56]{
   GP1:
	UF : 0, UT : 6,		CONFIG : 'N U T, 0, 0, 0',
	X =  186.376  mm,	Y =   -419.974  mm,	Z =   -247.904  mm,
	W =  90.000 deg,	P =   0.000 deg,	R =   30.000 deg
};
P[57]{
   GP1:
	UF : 0, UT : 6,		CONFIG : 'N U T, 0, 0, 0',
	X =  187.405  mm,	Y =   -421.769  mm,	Z =   -247.815  mm,
	W =  90.000 deg,	P =   0.000 deg,	R =   30.000 deg
};
P[58]{
   GP1:
	UF : 0, UT : 6,		CONFIG : 'N U T, 0, 0, 0',
	X =  188.352  mm,	Y =   -423.275  mm,	Z =   -247.897  mm,
	W =  90.000 deg,	P =   0.000 deg,	R =   30.000 deg
};
P[59]{
   GP1:
	UF : 0, UT : 6,		CONFIG : 'N U T, 0, 0, 0',
	X =  189.026  mm,	Y =   -424.138  mm,	Z =   -247.884  mm,
	W =  90.000 deg,	P =   0.000 deg,	R =   30.000 deg
};
P[60]{
   GP1:
	UF : 0, UT : 6,		CONFIG : 'N U T, 0, 0, 0',
	X =  189.936  mm,	Y =   -425.047  mm,	Z =   -247.955  mm,
	W =  90.000 deg,	P =   0.000 deg,	R =   30.000 deg
};
P[61]{
   GP1:
	UF : 0, UT : 6,		CONFIG : 'N U T, 0, 0, 0',
	X =  190.581  mm,	Y =   -425.568  mm,	Z =   -247.959  mm,
	W =  90.000 deg,	P =   0.000 deg,	R =   30.000 deg
};
P[62]{
   GP1:
	UF : 0, UT : 6,		CONFIG : 'N U T, 0, 0, 0',
	X =  191.907  mm,	Y =   -426.420  mm,	Z =   -247.895  mm,
	W =  90.000 deg,	P =   0.000 deg,	R =   30.000 deg
};
P[63]{
   GP1:
	UF : 0, UT : 6,		CONFIG : 'N U T, 0, 0, 0',
	X =  192.710  mm,	Y =   -426.774  mm,	Z =   -247.913  mm,
	W =  90.000 deg,	P =   0.000 deg,	R =   30.000 deg
};
P[64]{
   GP1:
	UF : 0, UT : 6,		CONFIG : 'N U T, 0, 0, 0',
	X =  195.349  mm,	Y =   -427.456  mm,	Z =   -247.933  mm,
	W =  90.000 deg,	P =   0.000 deg,	R =   30.000 deg
};
P[65]{
   GP1:
	UF : 0, UT : 6,		CONFIG : 'N U T, 0, 0, 0',
	X =  196.846  mm,	Y =   -427.513  mm,	Z =   -247.985  mm,
	W =  90.000 deg,	P =   0.000 deg,	R =   30.000 deg
};
P[66]{
   GP1:
	UF : 0, UT : 6,		CONFIG : 'N U T, 0, 0, 0',
	X =  197.623  mm,	Y =   -427.470  mm,	Z =   -247.907  mm,
	W =  90.000 deg,	P =   0.000 deg,	R =   30.000 deg
};
P[67]{
   GP1:
	UF : 0, UT : 6,		CONFIG : 'N U T, 0, 0, 0',
	X =  199.619  mm,	Y =   -427.021  mm,	Z =   -247.963  mm,
	W =  90.000 deg,	P =   0.000 deg,	R =   30.000 deg
};
P[68]{
   GP1:
	UF : 0, UT : 6,		CONFIG : 'N U T, 0, 0, 0',
	X =  200.518  mm,	Y =   -426.680  mm,	Z =   -248.001  mm,
	W =  90.000 deg,	P =   0.000 deg,	R =   30.000 deg
};
P[69]{
   GP1:
	UF : 0, UT : 6,		CONFIG : 'N U T, 0, 0, 0',
	X =  201.368  mm,	Y =   -426.274  mm,	Z =   -247.871  mm,
	W =  90.000 deg,	P =   0.000 deg,	R =   30.000 deg
};
P[70]{
   GP1:
	UF : 0, UT : 6,		CONFIG : 'N U T, 0, 0, 0',
	X =  202.356  mm,	Y =   -425.713  mm,	Z =   -247.943  mm,
	W =  90.000 deg,	P =   0.000 deg,	R =   30.000 deg
};
P[71]{
   GP1:
	UF : 0, UT : 6,		CONFIG : 'N U T, 0, 0, 0',
	X =  203.238  mm,	Y =   -425.201  mm,	Z =   -247.976  mm,
	W =  90.000 deg,	P =   0.000 deg,	R =   30.000 deg
};
P[72]{
   GP1:
	UF : 0, UT : 6,		CONFIG : 'N U T, 0, 0, 0',
	X =  205.818  mm,	Y =   -423.712  mm,	Z =   -247.963  mm,
	W =  90.000 deg,	P =   0.000 deg,	R =   30.000 deg
};
P[73]{
   GP1:
	UF : 0, UT : 6,		CONFIG : 'N U T, 0, 0, 0',
	X =  208.432  mm,	Y =   -422.207  mm,	Z =   -247.906  mm,
	W =  90.000 deg,	P =   0.000 deg,	R =   30.000 deg
};
P[74]{
   GP1:
	UF : 0, UT : 6,		CONFIG : 'N U T, 0, 0, 0',
	X =  209.260  mm,	Y =   -421.724  mm,	Z =   -247.966  mm,
	W =  90.000 deg,	P =   0.000 deg,	R =   30.000 deg
};
P[75]{
   GP1:
	UF : 0, UT : 6,		CONFIG : 'N U T, 0, 0, 0',
	X =  210.075  mm,	Y =   -421.251  mm,	Z =   -248.004  mm,
	W =  90.000 deg,	P =   0.000 deg,	R =   30.000 deg
};
P[76]{
   GP1:
	UF : 0, UT : 6,		CONFIG : 'N U T, 0, 0, 0',
	X =  213.441  mm,	Y =   -419.318  mm,	Z =   -247.879  mm,
	W =  90.000 deg,	P =   0.000 deg,	R =   30.000 deg
};
P[77]{
   GP1:
	UF : 0, UT : 6,		CONFIG : 'N U T, 0, 0, 0',
	X =  216.204  mm,	Y =   -417.713  mm,	Z =   -247.999  mm,
	W =  90.000 deg,	P =   0.000 deg,	R =   30.000 deg
};
P[78]{
   GP1:
	UF : 0, UT : 6,		CONFIG : 'N U T, 0, 0, 0',
	X =  217.066  mm,	Y =   -417.226  mm,	Z =   -247.859  mm,
	W =  90.000 deg,	P =   0.000 deg,	R =   30.000 deg
};
P[79]{
   GP1:
	UF : 0, UT : 6,		CONFIG : 'N U T, 0, 0, 0',
	X =  223.192  mm,	Y =   -413.687  mm,	Z =   -247.881  mm,
	W =  90.000 deg,	P =   0.000 deg,	R =   30.000 deg
};
P[80]{
   GP1:
	UF : 0, UT : 6,		CONFIG : 'N U T, 0, 0, 0',
	X =  225.687  mm,	Y =   -412.252  mm,	Z =   -247.822  mm,
	W =  90.000 deg,	P =   0.000 deg,	R =   30.000 deg
};
P[81]{
   GP1:
	UF : 0, UT : 6,		CONFIG : 'N U T, 0, 0, 0',
	X =  226.506  mm,	Y =   -411.767  mm,	Z =   -247.970  mm,
	W =  90.000 deg,	P =   0.000 deg,	R =   30.000 deg
};
P[82]{
   GP1:
	UF : 0, UT : 6,		CONFIG : 'N U T, 0, 0, 0',
	X =  227.441  mm,	Y =   -411.235  mm,	Z =   -247.873  mm,
	W =  90.000 deg,	P =   0.000 deg,	R =   30.000 deg
};
P[83]{
   GP1:
	UF : 0, UT : 6,		CONFIG : 'N U T, 0, 0, 0',
	X =  230.847  mm,	Y =   -409.262  mm,	Z =   -247.943  mm,
	W =  90.000 deg,	P =   0.000 deg,	R =   30.000 deg
};
P[84]{
   GP1:
	UF : 0, UT : 6,		CONFIG : 'N U T, 0, 0, 0',
	X =  231.803  mm,	Y =   -408.707  mm,	Z =   -247.986  mm,
	W =  90.000 deg,	P =   0.000 deg,	R =   30.000 deg
};
P[85]{
   GP1:
	UF : 0, UT : 6,		CONFIG : 'N U T, 0, 0, 0',
	X =  232.581  mm,	Y =   -408.261  mm,	Z =   -247.948  mm,
	W =  90.000 deg,	P =   0.000 deg,	R =   30.000 deg
};
P[86]{
   GP1:
	UF : 0, UT : 6,		CONFIG : 'N U T, 0, 0, 0',
	X =  233.317  mm,	Y =   -407.831  mm,	Z =   -248.002  mm,
	W =  90.000 deg,	P =   0.000 deg,	R =   30.000 deg
};
P[87]{
   GP1:
	UF : 0, UT : 6,		CONFIG : 'N U T, 0, 0, 0',
	X =  235.217  mm,	Y =   -406.736  mm,	Z =   -247.978  mm,
	W =  90.000 deg,	P =   0.000 deg,	R =   30.000 deg
};
P[88]{
   GP1:
	UF : 0, UT : 6,		CONFIG : 'N U T, 0, 0, 0',
	X =  235.983  mm,	Y =   -406.298  mm,	Z =   -247.926  mm,
	W =  90.000 deg,	P =   0.000 deg,	R =   30.000 deg
};
P[89]{
   GP1:
	UF : 0, UT : 6,		CONFIG : 'N U T, 0, 0, 0',
	X =  237.879  mm,	Y =   -405.202  mm,	Z =   -247.948  mm,
	W =  90.000 deg,	P =   0.000 deg,	R =   30.000 deg
};
P[90]{
   GP1:
	UF : 0, UT : 6,		CONFIG : 'N U T, 0, 0, 0',
	X =  238.829  mm,	Y =   -404.650  mm,	Z =   -247.985  mm,
	W =  90.000 deg,	P =   0.000 deg,	R =   30.000 deg
};
P[91]{
   GP1:
	UF : 0, UT : 6,		CONFIG : 'N U T, 0, 0, 0',
	X =  239.592  mm,	Y =   -404.219  mm,	Z =   -247.864  mm,
	W =  90.000 deg,	P =   0.000 deg,	R =   30.000 deg
};
P[92]{
   GP1:
	UF : 0, UT : 6,		CONFIG : 'N U T, 0, 0, 0',
	X =  240.487  mm,	Y =   -403.695  mm,	Z =   -247.958  mm,
	W =  90.000 deg,	P =   0.000 deg,	R =   30.000 deg
};
P[93]{
   GP1:
	UF : 0, UT : 6,		CONFIG : 'N U T, 0, 0, 0',
	X =  245.550  mm,	Y =   -400.770  mm,	Z =   -247.979  mm,
	W =  90.000 deg,	P =   0.000 deg,	R =   30.000 deg
};
P[94]{
   GP1:
	UF : 0, UT : 6,		CONFIG : 'N U T, 0, 0, 0',
	X =  247.347  mm,	Y =   -399.731  mm,	Z =   -247.989  mm,
	W =  90.000 deg,	P =   0.000 deg,	R =   30.000 deg
};
P[95]{
   GP1:
	UF : 0, UT : 6,		CONFIG : 'N U T, 0, 0, 0',
	X =  248.991  mm,	Y =   -398.784  mm,	Z =   -247.964  mm,
	W =  90.000 deg,	P =   0.000 deg,	R =   30.000 deg
};
P[96]{
   GP1:
	UF : 0, UT : 6,		CONFIG : 'N U T, 0, 0, 0',
	X =  250.678  mm,	Y =   -397.813  mm,	Z =   -247.931  mm,
	W =  90.000 deg,	P =   0.000 deg,	R =   30.000 deg
};
P[97]{
   GP1:
	UF : 0, UT : 6,		CONFIG : 'N U T, 0, 0, 0',
	X =  251.688  mm,	Y =   -397.224  mm,	Z =   -248.000  mm,
	W =  90.000 deg,	P =   0.000 deg,	R =   30.000 deg
};
P[98]{
   GP1:
	UF : 0, UT : 6,		CONFIG : 'N U T, 0, 0, 0',
	X =  257.671  mm,	Y =   -393.774  mm,	Z =   -247.947  mm,
	W =  90.000 deg,	P =   0.000 deg,	R =   30.000 deg
};
P[99]{
   GP1:
	UF : 0, UT : 6,		CONFIG : 'N U T, 0, 0, 0',
	X =  262.887  mm,	Y =   -390.760  mm,	Z =   -247.982  mm,
	W =  90.000 deg,	P =   0.000 deg,	R =   30.000 deg
};
P[100]{
   GP1:
	UF : 0, UT : 6,		CONFIG : 'N U T, 0, 0, 0',
	X =  263.817  mm,	Y =   -390.225  mm,	Z =   -247.952  mm,
	W =  90.000 deg,	P =   0.000 deg,	R =   30.000 deg
};
P[101]{
   GP1:
	UF : 0, UT : 6,		CONFIG : 'N U T, 0, 0, 0',
	X =  265.474  mm,	Y =   -389.267  mm,	Z =   -247.964  mm,
	W =  90.000 deg,	P =   0.000 deg,	R =   30.000 deg
};
P[102]{
   GP1:
	UF : 0, UT : 6,		CONFIG : 'N U T, 0, 0, 0',
	X =  266.409  mm,	Y =   -388.726  mm,	Z =   -247.990  mm,
	W =  90.000 deg,	P =   0.000 deg,	R =   30.000 deg
};
P[103]{
   GP1:
	UF : 0, UT : 6,		CONFIG : 'N U T, 0, 0, 0',
	X =  267.176  mm,	Y =   -388.282  mm,	Z =   -248.001  mm,
	W =  90.000 deg,	P =   0.000 deg,	R =   30.000 deg
};
P[104]{
   GP1:
	UF : 0, UT : 6,		CONFIG : 'N U T, 0, 0, 0',
	X =  268.130  mm,	Y =   -387.732  mm,	Z =   -247.986  mm,
	W =  90.000 deg,	P =   0.000 deg,	R =   30.000 deg
};
P[105]{
   GP1:
	UF : 0, UT : 6,		CONFIG : 'N U T, 0, 0, 0',
	X =  269.077  mm,	Y =   -387.192  mm,	Z =   -247.899  mm,
	W =  90.000 deg,	P =   0.000 deg,	R =   30.000 deg
};
P[106]{
   GP1:
	UF : 0, UT : 6,		CONFIG : 'N U T, 0, 0, 0',
	X =  269.854  mm,	Y =   -386.738  mm,	Z =   -247.964  mm,
	W =  90.000 deg,	P =   0.000 deg,	R =   30.000 deg
};
P[107]{
   GP1:
	UF : 0, UT : 6,		CONFIG : 'N U T, 0, 0, 0',
	X =  270.615  mm,	Y =   -386.312  mm,	Z =   -247.805  mm,
	W =  90.000 deg,	P =   0.000 deg,	R =   30.000 deg
};
P[108]{
   GP1:
	UF : 0, UT : 6,		CONFIG : 'N U T, 0, 0, 0',
	X =  271.531  mm,	Y =   -385.776  mm,	Z =   -247.892  mm,
	W =  90.000 deg,	P =   0.000 deg,	R =   30.000 deg
};
P[109]{
   GP1:
	UF : 0, UT : 6,		CONFIG : 'N U T, 0, 0, 0',
	X =  272.408  mm,	Y =   -385.273  mm,	Z =   -247.853  mm,
	W =  90.000 deg,	P =   0.000 deg,	R =   30.000 deg
};
P[110]{
   GP1:
	UF : 0, UT : 6,		CONFIG : 'N U T, 0, 0, 0',
	X =  275.035  mm,	Y =   -383.747  mm,	Z =   -247.956  mm,
	W =  90.000 deg,	P =   0.000 deg,	R =   30.000 deg
};
P[111]{
   GP1:
	UF : 0, UT : 6,		CONFIG : 'N U T, 0, 0, 0',
	X =  275.987  mm,	Y =   -383.200  mm,	Z =   -247.925  mm,
	W =  90.000 deg,	P =   0.000 deg,	R =   30.000 deg
};
P[112]{
   GP1:
	UF : 0, UT : 6,		CONFIG : 'N U T, 0, 0, 0',
	X =  276.867  mm,	Y =   -382.691  mm,	Z =   -247.935  mm,
	W =  90.000 deg,	P =   0.000 deg,	R =   30.000 deg
};
P[113]{
   GP1:
	UF : 0, UT : 6,		CONFIG : 'N U T, 0, 0, 0',
	X =  278.322  mm,	Y =   -381.847  mm,	Z =   -247.990  mm,
	W =  90.000 deg,	P =   0.000 deg,	R =   30.000 deg
};
P[114]{
   GP1:
	UF : 0, UT : 6,		CONFIG : 'N U T, 0, 0, 0',
	X =  279.355  mm,	Y =   -381.254  mm,	Z =   -247.937  mm,
	W =  90.000 deg,	P =   0.000 deg,	R =   30.000 deg
};
P[115]{
   GP1:
	UF : 0, UT : 6,		CONFIG : 'N U T, 0, 0, 0',
	X =  280.266  mm,	Y =   -380.729  mm,	Z =   -247.932  mm,
	W =  90.000 deg,	P =   0.000 deg,	R =   30.000 deg
};
P[116]{
   GP1:
	UF : 0, UT : 6,		CONFIG : 'N U T, 0, 0, 0',
	X =  281.188  mm,	Y =   -380.193  mm,	Z =   -247.986  mm,
	W =  90.000 deg,	P =   0.000 deg,	R =   30.000 deg
};
P[117]{
   GP1:
	UF : 0, UT : 6,		CONFIG : 'N U T, 0, 0, 0',
	X =  282.844  mm,	Y =   -379.237  mm,	Z =   -247.975  mm,
	W =  90.000 deg,	P =   0.000 deg,	R =   30.000 deg
};
P[118]{
   GP1:
	UF : 0, UT : 6,		CONFIG : 'N U T, 0, 0, 0',
	X =  283.513  mm,	Y =   -378.852  mm,	Z =   -247.956  mm,
	W =  90.000 deg,	P =   0.000 deg,	R =   30.000 deg
};
P[119]{
   GP1:
	UF : 0, UT : 6,		CONFIG : 'N U T, 0, 0, 0',
	X =  284.571  mm,	Y =   -378.242  mm,	Z =   -247.945  mm,
	W =  90.000 deg,	P =   0.000 deg,	R =   30.000 deg
};
P[120]{
   GP1:
	UF : 0, UT : 6,		CONFIG : 'N U T, 0, 0, 0',
	X =  285.411  mm,	Y =   -377.754  mm,	Z =   -247.985  mm,
	W =  90.000 deg,	P =   0.000 deg,	R =   30.000 deg
};
P[121]{
   GP1:
	UF : 0, UT : 6,		CONFIG : 'N U T, 0, 0, 0',
	X =  292.402  mm,	Y =   -373.717  mm,	Z =   -247.993  mm,
	W =  90.000 deg,	P =   0.000 deg,	R =   30.000 deg
};
P[122]{
   GP1:
	UF : 0, UT : 6,		CONFIG : 'N U T, 0, 0, 0',
	X =  293.232  mm,	Y =   -373.244  mm,	Z =   -247.909  mm,
	W =  90.000 deg,	P =   0.000 deg,	R =   30.000 deg
};
P[123]{
   GP1:
	UF : 0, UT : 6,		CONFIG : 'N U T, 0, 0, 0',
	X =  296.698  mm,	Y =   -371.236  mm,	Z =   -247.992  mm,
	W =  90.000 deg,	P =   0.000 deg,	R =   30.000 deg
};
P[124]{
   GP1:
	UF : 0, UT : 6,		CONFIG : 'N U T, 0, 0, 0',
	X =  301.123  mm,	Y =   -368.688  mm,	Z =   -247.910  mm,
	W =  90.000 deg,	P =   0.000 deg,	R =   30.000 deg
};
P[125]{
   GP1:
	UF : 0, UT : 6,		CONFIG : 'N U T, 0, 0, 0',
	X =  301.928  mm,	Y =   -368.232  mm,	Z =   -247.802  mm,
	W =  90.000 deg,	P =   0.000 deg,	R =   30.000 deg
};
P[126]{
   GP1:
	UF : 0, UT : 6,		CONFIG : 'N U T, 0, 0, 0',
	X =  302.760  mm,	Y =   -367.741  mm,	Z =   -247.944  mm,
	W =  90.000 deg,	P =   0.000 deg,	R =   30.000 deg
};
P[127]{
   GP1:
	UF : 0, UT : 6,		CONFIG : 'N U T, 0, 0, 0',
	X =  305.409  mm,	Y =   -366.212  mm,	Z =   -247.921  mm,
	W =  90.000 deg,	P =   0.000 deg,	R =   30.000 deg
};
P[128]{
   GP1:
	UF : 0, UT : 6,		CONFIG : 'N U T, 0, 0, 0',
	X =  307.057  mm,	Y =   -365.270  mm,	Z =   -247.816  mm,
	W =  90.000 deg,	P =   0.000 deg,	R =   30.000 deg
};
P[129]{
   GP1:
	UF : 0, UT : 6,		CONFIG : 'N U T, 0, 0, 0',
	X =  307.943  mm,	Y =   -364.734  mm,	Z =   -247.990  mm,
	W =  90.000 deg,	P =   0.000 deg,	R =   30.000 deg
};
P[130]{
   GP1:
	UF : 0, UT : 6,		CONFIG : 'N U T, 0, 0, 0',
	X =  310.229  mm,	Y =   -362.945  mm,	Z =   -247.759  mm,
	W =  90.000 deg,	P =   0.000 deg,	R =   30.000 deg
};
P[131]{
   GP1:
	UF : 0, UT : 6,		CONFIG : 'N U T, 0, 0, 0',
	X =  311.046  mm,	Y =   -361.920  mm,	Z =   -247.906  mm,
	W =  90.000 deg,	P =   0.000 deg,	R =   30.000 deg
};
P[132]{
   GP1:
	UF : 0, UT : 6,		CONFIG : 'N U T, 0, 0, 0',
	X =  311.504  mm,	Y =   -361.220  mm,	Z =   -247.788  mm,
	W =  90.000 deg,	P =   0.000 deg,	R =   30.000 deg
};
P[133]{
   GP1:
	UF : 0, UT : 6,		CONFIG : 'N U T, 0, 0, 0',
	X =  311.726  mm,	Y =   -360.821  mm,	Z =   -247.951  mm,
	W =  90.000 deg,	P =   0.000 deg,	R =   30.000 deg
};
P[134]{
   GP1:
	UF : 0, UT : 6,		CONFIG : 'N U T, 0, 0, 0',
	X =  312.590  mm,	Y =   -358.566  mm,	Z =   -247.938  mm,
	W =  90.000 deg,	P =   0.000 deg,	R =   30.000 deg
};
P[135]{
   GP1:
	UF : 0, UT : 6,		CONFIG : 'N U T, 0, 0, 0',
	X =  312.734  mm,	Y =   -354.261  mm,	Z =   -247.792  mm,
	W =  90.000 deg,	P =   0.000 deg,	R =   30.000 deg
};
P[136]{
   GP1:
	UF : 0, UT : 6,		CONFIG : 'N U T, 0, 0, 0',
	X =  312.589  mm,	Y =   -353.599  mm,	Z =   -247.883  mm,
	W =  90.000 deg,	P =   0.000 deg,	R =   30.000 deg
};
P[137]{
   GP1:
	UF : 0, UT : 6,		CONFIG : 'N U T, 0, 0, 0',
	X =  311.079  mm,	Y =   -350.266  mm,	Z =   -247.970  mm,
	W =  90.000 deg,	P =   0.000 deg,	R =   30.000 deg
};
P[138]{
   GP1:
	UF : 0, UT : 6,		CONFIG : 'N U T, 0, 0, 0',
	X =  310.605  mm,	Y =   -349.434  mm,	Z =   -247.887  mm,
	W =  90.000 deg,	P =   0.000 deg,	R =   30.000 deg
};
P[139]{
   GP1:
	UF : 0, UT : 6,		CONFIG : 'N U T, 0, 0, 0',
	X =  309.087  mm,	Y =   -346.808  mm,	Z =   -247.918  mm,
	W =  90.000 deg,	P =   0.000 deg,	R =   30.000 deg
};
P[140]{
   GP1:
	UF : 0, UT : 6,		CONFIG : 'N U T, 0, 0, 0',
	X =  308.118  mm,	Y =   -345.133  mm,	Z =   -247.934  mm,
	W =  90.000 deg,	P =   0.000 deg,	R =   30.000 deg
};
P[141]{
   GP1:
	UF : 0, UT : 6,		CONFIG : 'N U T, 0, 0, 0',
	X =  306.579  mm,	Y =   -342.463  mm,	Z =   -247.904  mm,
	W =  90.000 deg,	P =   0.000 deg,	R =   30.000 deg
};
P[142]{
   GP1:
	UF : 0, UT : 6,		CONFIG : 'N U T, 0, 0, 0',
	X =  305.607  mm,	Y =   -340.789  mm,	Z =   -247.973  mm,
	W =  90.000 deg,	P =   0.000 deg,	R =   30.000 deg
};
P[143]{
   GP1:
	UF : 0, UT : 6,		CONFIG : 'N U T, 0, 0, 0',
	X =  305.111  mm,	Y =   -339.914  mm,	Z =   -247.862  mm,
	W =  90.000 deg,	P =   0.000 deg,	R =   30.000 deg
};
P[144]{
   GP1:
	UF : 0, UT : 6,		CONFIG : 'N U T, 0, 0, 0',
	X =  304.599  mm,	Y =   -339.037  mm,	Z =   -247.929  mm,
	W =  90.000 deg,	P =   0.000 deg,	R =   30.000 deg
};
P[145]{
   GP1:
	UF : 0, UT : 6,		CONFIG : 'N U T, 0, 0, 0',
	X =  304.079  mm,	Y =   -338.143  mm,	Z =   -247.977  mm,
	W =  90.000 deg,	P =   0.000 deg,	R =   30.000 deg
};
P[146]{
   GP1:
	UF : 0, UT : 6,		CONFIG : 'N U T, 0, 0, 0',
	X =  303.608  mm,	Y =   -337.326  mm,	Z =   -247.965  mm,
	W =  90.000 deg,	P =   0.000 deg,	R =   30.000 deg
};
P[147]{
   GP1:
	UF : 0, UT : 6,		CONFIG : 'N U T, 0, 0, 0',
	X =  302.125  mm,	Y =   -334.758  mm,	Z =   -247.966  mm,
	W =  90.000 deg,	P =   0.000 deg,	R =   30.000 deg
};
P[148]{
   GP1:
	UF : 0, UT : 6,		CONFIG : 'N U T, 0, 0, 0',
	X =  301.582  mm,	Y =   -333.820  mm,	Z =   -247.985  mm,
	W =  90.000 deg,	P =   0.000 deg,	R =   30.000 deg
};
P[149]{
   GP1:
	UF : 0, UT : 6,		CONFIG : 'N U T, 0, 0, 0',
	X =  301.180  mm,	Y =   -333.108  mm,	Z =   -247.873  mm,
	W =  90.000 deg,	P =   0.000 deg,	R =   30.000 deg
};
P[150]{
   GP1:
	UF : 0, UT : 6,		CONFIG : 'N U T, 0, 0, 0',
	X =  299.075  mm,	Y =   -329.469  mm,	Z =   -247.914  mm,
	W =  90.000 deg,	P =   0.000 deg,	R =   30.000 deg
};
P[151]{
   GP1:
	UF : 0, UT : 6,		CONFIG : 'N U T, 0, 0, 0',
	X =  298.137  mm,	Y =   -327.854  mm,	Z =   -247.998  mm,
	W =  90.000 deg,	P =   0.000 deg,	R =   30.000 deg
};
P[152]{
   GP1:
	UF : 0, UT : 6,		CONFIG : 'N U T, 0, 0, 0',
	X =  296.575  mm,	Y =   -325.145  mm,	Z =   -247.957  mm,
	W =  90.000 deg,	P =   0.000 deg,	R =   30.000 deg
};
P[153]{
   GP1:
	UF : 0, UT : 6,		CONFIG : 'N U T, 0, 0, 0',
	X =  296.080  mm,	Y =   -324.292  mm,	Z =   -247.999  mm,
	W =  90.000 deg,	P =   0.000 deg,	R =   30.000 deg
};
P[154]{
   GP1:
	UF : 0, UT : 6,		CONFIG : 'N U T, 0, 0, 0',
	X =  294.601  mm,	Y =   -321.712  mm,	Z =   -247.856  mm,
	W =  90.000 deg,	P =   0.000 deg,	R =   30.000 deg
};
P[155]{
   GP1:
	UF : 0, UT : 6,		CONFIG : 'N U T, 0, 0, 0',
	X =  293.585  mm,	Y =   -319.957  mm,	Z =   -247.891  mm,
	W =  90.000 deg,	P =   0.000 deg,	R =   30.000 deg
};
P[156]{
   GP1:
	UF : 0, UT : 6,		CONFIG : 'N U T, 0, 0, 0',
	X =  293.101  mm,	Y =   -319.116  mm,	Z =   -247.870  mm,
	W =  90.000 deg,	P =   0.000 deg,	R =   30.000 deg
};
P[157]{
   GP1:
	UF : 0, UT : 6,		CONFIG : 'N U T, 0, 0, 0',
	X =  292.524  mm,	Y =   -318.133  mm,	Z =   -247.989  mm,
	W =  90.000 deg,	P =   0.000 deg,	R =   30.000 deg
};
P[158]{
   GP1:
	UF : 0, UT : 6,		CONFIG : 'N U T, 0, 0, 0',
	X =  292.089  mm,	Y =   -317.399  mm,	Z =   -247.977  mm,
	W =  90.000 deg,	P =   0.000 deg,	R =   30.000 deg
};
P[159]{
   GP1:
	UF : 0, UT : 6,		CONFIG : 'N U T, 0, 0, 0',
	X =  290.882  mm,	Y =   -315.767  mm,	Z =   -247.934  mm,
	W =  90.000 deg,	P =   0.000 deg,	R =   30.000 deg
};
P[160]{
   GP1:
	UF : 0, UT : 6,		CONFIG : 'N U T, 0, 0, 0',
	X =  290.391  mm,	Y =   -315.220  mm,	Z =   -247.883  mm,
	W =  90.000 deg,	P =   0.000 deg,	R =   30.000 deg
};
P[161]{
   GP1:
	UF : 0, UT : 6,		CONFIG : 'N U T, 0, 0, 0',
	X =  290.046  mm,	Y =   -314.944  mm,	Z =   -247.994  mm,
	W =  90.000 deg,	P =   0.000 deg,	R =   30.000 deg
};
P[162]{
   GP1:
	UF : 0, UT : 6,		CONFIG : 'N U T, 0, 0, 0',
	X =  289.263  mm,	Y =   -314.308  mm,	Z =   -247.926  mm,
	W =  90.000 deg,	P =   0.000 deg,	R =   30.000 deg
};
P[163]{
   GP1:
	UF : 0, UT : 6,		CONFIG : 'N U T, 0, 0, 0',
	X =  288.754  mm,	Y =   -313.975  mm,	Z =   -247.877  mm,
	W =  90.000 deg,	P =   0.000 deg,	R =   30.000 deg
};
P[164]{
   GP1:
	UF : 0, UT : 6,		CONFIG : 'N U T, 0, 0, 0',
	X =  286.123  mm,	Y =   -312.821  mm,	Z =   -247.854  mm,
	W =  90.000 deg,	P =   0.000 deg,	R =   30.000 deg
};
P[165]{
   GP1:
	UF : 0, UT : 6,		CONFIG : 'N U T, 0, 0, 0',
	X =  284.856  mm,	Y =   -312.572  mm,	Z =   -247.977  mm,
	W =  90.000 deg,	P =   0.000 deg,	R =   30.000 deg
};
P[166]{
   GP1:
	UF : 0, UT : 6,		CONFIG : 'N U T, 0, 0, 0',
	X =  283.970  mm,	Y =   -312.455  mm,	Z =   -247.838  mm,
	W =  90.000 deg,	P =   0.000 deg,	R =   30.000 deg
};
P[167]{
   GP1:
	UF : 0, UT : 6,		CONFIG : 'N U T, 0, 0, 0',
	X =  282.473  mm,	Y =   -312.519  mm,	Z =   -247.886  mm,
	W =  90.000 deg,	P =   0.000 deg,	R =   30.000 deg
};
P[168]{
   GP1:
	UF : 0, UT : 6,		CONFIG : 'N U T, 0, 0, 0',
	X =  281.127  mm,	Y =   -312.701  mm,	Z =   -247.512  mm,
	W =  90.000 deg,	P =   0.000 deg,	R =   30.000 deg
};
P[169]{
   GP1:
	UF : 0, UT : 6,		CONFIG : 'N U T, 0, 0, 0',
	X =  280.525  mm,	Y =   -312.925  mm,	Z =   -247.871  mm,
	W =  90.000 deg,	P =   0.000 deg,	R =   30.000 deg
};
P[170]{
   GP1:
	UF : 0, UT : 6,		CONFIG : 'N U T, 0, 0, 0',
	X =  277.661  mm,	Y =   -314.273  mm,	Z =   -247.893  mm,
	W =  90.000 deg,	P =   0.000 deg,	R =   30.000 deg
};
P[171]{
   GP1:
	UF : 0, UT : 6,		CONFIG : 'N U T, 0, 0, 0',
	X =  276.775  mm,	Y =   -314.781  mm,	Z =   -247.841  mm,
	W =  90.000 deg,	P =   0.000 deg,	R =   30.000 deg
};
P[172]{
   GP1:
	UF : 0, UT : 6,		CONFIG : 'N U T, 0, 0, 0',
	X =  275.981  mm,	Y =   -315.245  mm,	Z =   -247.916  mm,
	W =  90.000 deg,	P =   0.000 deg,	R =   30.000 deg
};
P[173]{
   GP1:
	UF : 0, UT : 6,		CONFIG : 'N U T, 0, 0, 0',
	X =  275.125  mm,	Y =   -315.745  mm,	Z =   -247.980  mm,
	W =  90.000 deg,	P =   0.000 deg,	R =   30.000 deg
};
P[174]{
   GP1:
	UF : 0, UT : 6,		CONFIG : 'N U T, 0, 0, 0',
	X =  274.157  mm,	Y =   -316.296  mm,	Z =   -247.889  mm,
	W =  90.000 deg,	P =   0.000 deg,	R =   30.000 deg
};
P[175]{
   GP1:
	UF : 0, UT : 6,		CONFIG : 'N U T, 0, 0, 0',
	X =  270.750  mm,	Y =   -318.264  mm,	Z =   -247.893  mm,
	W =  90.000 deg,	P =   0.000 deg,	R =   30.000 deg
};
P[176]{
   GP1:
	UF : 0, UT : 6,		CONFIG : 'N U T, 0, 0, 0',
	X =  269.073  mm,	Y =   -319.238  mm,	Z =   -247.974  mm,
	W =  90.000 deg,	P =   0.000 deg,	R =   30.000 deg
};
P[177]{
   GP1:
	UF : 0, UT : 6,		CONFIG : 'N U T, 0, 0, 0',
	X =  268.149  mm,	Y =   -319.774  mm,	Z =   -247.997  mm,
	W =  90.000 deg,	P =   0.000 deg,	R =   30.000 deg
};
P[178]{
   GP1:
	UF : 0, UT : 6,		CONFIG : 'N U T, 0, 0, 0',
	X =  267.349  mm,	Y =   -320.235  mm,	Z =   -247.985  mm,
	W =  90.000 deg,	P =   0.000 deg,	R =   30.000 deg
};
P[179]{
   GP1:
	UF : 0, UT : 6,		CONFIG : 'N U T, 0, 0, 0',
	X =  266.488  mm,	Y =   -320.733  mm,	Z =   -247.990  mm,
	W =  90.000 deg,	P =   0.000 deg,	R =   30.000 deg
};
P[180]{
   GP1:
	UF : 0, UT : 6,		CONFIG : 'N U T, 0, 0, 0',
	X =  265.591  mm,	Y =   -321.248  mm,	Z =   -247.963  mm,
	W =  90.000 deg,	P =   0.000 deg,	R =   30.000 deg
};
P[181]{
   GP1:
	UF : 0, UT : 6,		CONFIG : 'N U T, 0, 0, 0',
	X =  264.653  mm,	Y =   -321.784  mm,	Z =   -247.890  mm,
	W =  90.000 deg,	P =   0.000 deg,	R =   30.000 deg
};
P[182]{
   GP1:
	UF : 0, UT : 6,		CONFIG : 'N U T, 0, 0, 0',
	X =  263.882  mm,	Y =   -322.231  mm,	Z =   -247.903  mm,
	W =  90.000 deg,	P =   0.000 deg,	R =   30.000 deg
};
P[183]{
   GP1:
	UF : 0, UT : 6,		CONFIG : 'N U T, 0, 0, 0',
	X =  262.063  mm,	Y =   -323.282  mm,	Z =   -247.933  mm,
	W =  90.000 deg,	P =   0.000 deg,	R =   30.000 deg
};
P[184]{
   GP1:
	UF : 0, UT : 6,		CONFIG : 'N U T, 0, 0, 0',
	X =  259.444  mm,	Y =   -324.800  mm,	Z =   -247.992  mm,
	W =  90.000 deg,	P =   0.000 deg,	R =   30.000 deg
};
P[185]{
   GP1:
	UF : 0, UT : 6,		CONFIG : 'N U T, 0, 0, 0',
	X =  257.686  mm,	Y =   -325.815  mm,	Z =   -247.988  mm,
	W =  90.000 deg,	P =   0.000 deg,	R =   30.000 deg
};
P[186]{
   GP1:
	UF : 0, UT : 6,		CONFIG : 'N U T, 0, 0, 0',
	X =  257.005  mm,	Y =   -326.209  mm,	Z =   -248.003  mm,
	W =  90.000 deg,	P =   0.000 deg,	R =   30.000 deg
};
P[187]{
   GP1:
	UF : 0, UT : 6,		CONFIG : 'N U T, 0, 0, 0',
	X =  255.173  mm,	Y =   -327.257  mm,	Z =   -247.883  mm,
	W =  90.000 deg,	P =   0.000 deg,	R =   30.000 deg
};
P[188]{
   GP1:
	UF : 0, UT : 6,		CONFIG : 'N U T, 0, 0, 0',
	X =  249.898  mm,	Y =   -330.304  mm,	Z =   -247.907  mm,
	W =  90.000 deg,	P =   0.000 deg,	R =   30.000 deg
};
P[189]{
   GP1:
	UF : 0, UT : 6,		CONFIG : 'N U T, 0, 0, 0',
	X =  248.993  mm,	Y =   -330.834  mm,	Z =   -247.984  mm,
	W =  90.000 deg,	P =   0.000 deg,	R =   30.000 deg
};
P[190]{
   GP1:
	UF : 0, UT : 6,		CONFIG : 'N U T, 0, 0, 0',
	X =  244.728  mm,	Y =   -333.290  mm,	Z =   -247.915  mm,
	W =  90.000 deg,	P =   0.000 deg,	R =   30.000 deg
};
P[191]{
   GP1:
	UF : 0, UT : 6,		CONFIG : 'N U T, 0, 0, 0',
	X =  242.953  mm,	Y =   -334.320  mm,	Z =   -247.976  mm,
	W =  90.000 deg,	P =   0.000 deg,	R =   30.000 deg
};
P[192]{
   GP1:
	UF : 0, UT : 6,		CONFIG : 'N U T, 0, 0, 0',
	X =  241.360  mm,	Y =   -335.239  mm,	Z =   -247.957  mm,
	W =  90.000 deg,	P =   0.000 deg,	R =   30.000 deg
};
P[193]{
   GP1:
	UF : 0, UT : 6,		CONFIG : 'N U T, 0, 0, 0',
	X =  240.526  mm,	Y =   -335.718  mm,	Z =   -247.935  mm,
	W =  90.000 deg,	P =   0.000 deg,	R =   30.000 deg
};
P[194]{
   GP1:
	UF : 0, UT : 6,		CONFIG : 'N U T, 0, 0, 0',
	X =  237.933  mm,	Y =   -337.216  mm,	Z =   -247.942  mm,
	W =  90.000 deg,	P =   0.000 deg,	R =   30.000 deg
};
P[195]{
   GP1:
	UF : 0, UT : 6,		CONFIG : 'N U T, 0, 0, 0',
	X =  236.944  mm,	Y =   -337.788  mm,	Z =   -247.954  mm,
	W =  90.000 deg,	P =   0.000 deg,	R =   30.000 deg
};
P[196]{
   GP1:
	UF : 0, UT : 6,		CONFIG : 'N U T, 0, 0, 0',
	X =  235.227  mm,	Y =   -338.781  mm,	Z =   -247.969  mm,
	W =  90.000 deg,	P =   0.000 deg,	R =   30.000 deg
};
P[197]{
   GP1:
	UF : 0, UT : 6,		CONFIG : 'N U T, 0, 0, 0',
	X =  234.344  mm,	Y =   -339.286  mm,	Z =   -247.917  mm,
	W =  90.000 deg,	P =   0.000 deg,	R =   30.000 deg
};
P[198]{
   GP1:
	UF : 0, UT : 6,		CONFIG : 'N U T, 0, 0, 0',
	X =  230.988  mm,	Y =   -341.224  mm,	Z =   -247.920  mm,
	W =  90.000 deg,	P =   0.000 deg,	R =   30.000 deg
};
P[199]{
   GP1:
	UF : 0, UT : 6,		CONFIG : 'N U T, 0, 0, 0',
	X =  228.388  mm,	Y =   -342.730  mm,	Z =   -247.975  mm,
	W =  90.000 deg,	P =   0.000 deg,	R =   30.000 deg
};
P[200]{
   GP1:
	UF : 0, UT : 6,		CONFIG : 'N U T, 0, 0, 0',
	X =  226.477  mm,	Y =   -343.835  mm,	Z =   -247.996  mm,
	W =  90.000 deg,	P =   0.000 deg,	R =   30.000 deg
};
P[201]{
   GP1:
	UF : 0, UT : 6,		CONFIG : 'N U T, 0, 0, 0',
	X =  225.634  mm,	Y =   -344.321  mm,	Z =   -247.978  mm,
	W =  90.000 deg,	P =   0.000 deg,	R =   30.000 deg
};
P[202]{
   GP1:
	UF : 0, UT : 6,		CONFIG : 'N U T, 0, 0, 0',
	X =  224.068  mm,	Y =   -343.439  mm,	Z =   -225.868  mm,
	W =  90.000 deg,	P =   0.000 deg,	R =   30.000 deg
};
P[203]{
   GP1:
	UF : 0, UT : 6,		CONFIG : 'N U T, 0, 0, 0',
	X =  223.058  mm,	Y =   -344.025  mm,	Z =   -225.905  mm,
	W =  90.000 deg,	P =   0.000 deg,	R =   30.000 deg
};
P[204]{
   GP1:
	UF : 0, UT : 6,		CONFIG : 'N U T, 0, 0, 0',
	X =  222.219  mm,	Y =   -344.506  mm,	Z =   -225.853  mm,
	W =  90.000 deg,	P =   0.000 deg,	R =   30.000 deg
};
P[205]{
   GP1:
	UF : 0, UT : 6,		CONFIG : 'N U T, 0, 0, 0',
	X =  221.609  mm,	Y =   -344.862  mm,	Z =   -225.905  mm,
	W =  90.000 deg,	P =   0.000 deg,	R =   30.000 deg
};
P[206]{
   GP1:
	UF : 0, UT : 6,		CONFIG : 'N U T, 0, 0, 0',
	X =  219.706  mm,	Y =   -345.956  mm,	Z =   -225.845  mm,
	W =  90.000 deg,	P =   0.000 deg,	R =   30.000 deg
};
P[207]{
   GP1:
	UF : 0, UT : 6,		CONFIG : 'N U T, 0, 0, 0',
	X =  218.896  mm,	Y =   -346.435  mm,	Z =   -225.992  mm,
	W =  90.000 deg,	P =   0.000 deg,	R =   30.000 deg
};
P[208]{
   GP1:
	UF : 0, UT : 6,		CONFIG : 'N U T, 0, 0, 0',
	X =  217.996  mm,	Y =   -346.954  mm,	Z =   -225.979  mm,
	W =  90.000 deg,	P =   0.000 deg,	R =   30.000 deg
};
P[209]{
   GP1:
	UF : 0, UT : 6,		CONFIG : 'N U T, 0, 0, 0',
	X =  216.335  mm,	Y =   -347.914  mm,	Z =   -225.994  mm,
	W =  90.000 deg,	P =   0.000 deg,	R =   30.000 deg
};
P[210]{
   GP1:
	UF : 0, UT : 6,		CONFIG : 'N U T, 0, 0, 0',
	X =  215.415  mm,	Y =   -348.445  mm,	Z =   -225.984  mm,
	W =  90.000 deg,	P =   0.000 deg,	R =   30.000 deg
};
P[211]{
   GP1:
	UF : 0, UT : 6,		CONFIG : 'N U T, 0, 0, 0',
	X =  214.548  mm,	Y =   -348.947  mm,	Z =   -226.006  mm,
	W =  90.000 deg,	P =   0.000 deg,	R =   30.000 deg
};
P[212]{
   GP1:
	UF : 0, UT : 6,		CONFIG : 'N U T, 0, 0, 0',
	X =  212.819  mm,	Y =   -349.934  mm,	Z =   -225.859  mm,
	W =  90.000 deg,	P =   0.000 deg,	R =   30.000 deg
};
P[213]{
   GP1:
	UF : 0, UT : 6,		CONFIG : 'N U T, 0, 0, 0',
	X =  209.338  mm,	Y =   -351.945  mm,	Z =   -225.877  mm,
	W =  90.000 deg,	P =   0.000 deg,	R =   30.000 deg
};
P[214]{
   GP1:
	UF : 0, UT : 6,		CONFIG : 'N U T, 0, 0, 0',
	X =  208.496  mm,	Y =   -352.435  mm,	Z =   -225.931  mm,
	W =  90.000 deg,	P =   0.000 deg,	R =   30.000 deg
};
P[215]{
   GP1:
	UF : 0, UT : 6,		CONFIG : 'N U T, 0, 0, 0',
	X =  203.165  mm,	Y =   -355.513  mm,	Z =   -225.932  mm,
	W =  90.000 deg,	P =   0.000 deg,	R =   30.000 deg
};
P[216]{
   GP1:
	UF : 0, UT : 6,		CONFIG : 'N U T, 0, 0, 0',
	X =  200.821  mm,	Y =   -356.861  mm,	Z =   -225.869  mm,
	W =  90.000 deg,	P =   0.000 deg,	R =   30.000 deg
};
P[217]{
   GP1:
	UF : 0, UT : 6,		CONFIG : 'N U T, 0, 0, 0',
	X =  198.988  mm,	Y =   -357.929  mm,	Z =   -225.973  mm,
	W =  90.000 deg,	P =   0.000 deg,	R =   30.000 deg
};
P[218]{
   GP1:
	UF : 0, UT : 6,		CONFIG : 'N U T, 0, 0, 0',
	X =  198.119  mm,	Y =   -358.429  mm,	Z =   -225.952  mm,
	W =  90.000 deg,	P =   0.000 deg,	R =   30.000 deg
};
P[219]{
   GP1:
	UF : 0, UT : 6,		CONFIG : 'N U T, 0, 0, 0',
	X =  197.300  mm,	Y =   -358.901  mm,	Z =   -225.952  mm,
	W =  90.000 deg,	P =   0.000 deg,	R =   30.000 deg
};
P[220]{
   GP1:
	UF : 0, UT : 6,		CONFIG : 'N U T, 0, 0, 0',
	X =  194.681  mm,	Y =   -360.418  mm,	Z =   -226.004  mm,
	W =  90.000 deg,	P =   0.000 deg,	R =   30.000 deg
};
P[221]{
   GP1:
	UF : 0, UT : 6,		CONFIG : 'N U T, 0, 0, 0',
	X =  193.852  mm,	Y =   -360.890  mm,	Z =   -225.928  mm,
	W =  90.000 deg,	P =   0.000 deg,	R =   30.000 deg
};
P[222]{
   GP1:
	UF : 0, UT : 6,		CONFIG : 'N U T, 0, 0, 0',
	X =  190.341  mm,	Y =   -362.924  mm,	Z =   -226.007  mm,
	W =  90.000 deg,	P =   0.000 deg,	R =   30.000 deg
};
P[223]{
   GP1:
	UF : 0, UT : 6,		CONFIG : 'N U T, 0, 0, 0',
	X =  189.441  mm,	Y =   -363.442  mm,	Z =   -225.982  mm,
	W =  90.000 deg,	P =   0.000 deg,	R =   30.000 deg
};
P[224]{
   GP1:
	UF : 0, UT : 6,		CONFIG : 'N U T, 0, 0, 0',
	X =  188.630  mm,	Y =   -363.903  mm,	Z =   -225.892  mm,
	W =  90.000 deg,	P =   0.000 deg,	R =   30.000 deg
};
P[225]{
   GP1:
	UF : 0, UT : 6,		CONFIG : 'N U T, 0, 0, 0',
	X =  187.784  mm,	Y =   -364.389  mm,	Z =   -225.865  mm,
	W =  90.000 deg,	P =   0.000 deg,	R =   30.000 deg
};
P[226]{
   GP1:
	UF : 0, UT : 6,		CONFIG : 'N U T, 0, 0, 0',
	X =  185.897  mm,	Y =   -365.485  mm,	Z =   -225.944  mm,
	W =  90.000 deg,	P =   0.000 deg,	R =   30.000 deg
};
P[227]{
   GP1:
	UF : 0, UT : 6,		CONFIG : 'N U T, 0, 0, 0',
	X =  184.154  mm,	Y =   -366.488  mm,	Z =   -225.902  mm,
	W =  90.000 deg,	P =   0.000 deg,	R =   30.000 deg
};
P[228]{
   GP1:
	UF : 0, UT : 6,		CONFIG : 'N U T, 0, 0, 0',
	X =  182.499  mm,	Y =   -367.450  mm,	Z =   -225.987  mm,
	W =  90.000 deg,	P =   0.000 deg,	R =   30.000 deg
};
P[229]{
   GP1:
	UF : 0, UT : 6,		CONFIG : 'N U T, 0, 0, 0',
	X =  181.602  mm,	Y =   -367.962  mm,	Z =   -225.913  mm,
	W =  90.000 deg,	P =   0.000 deg,	R =   30.000 deg
};
P[230]{
   GP1:
	UF : 0, UT : 6,		CONFIG : 'N U T, 0, 0, 0',
	X =  179.116  mm,	Y =   -369.400  mm,	Z =   -225.939  mm,
	W =  90.000 deg,	P =   0.000 deg,	R =   30.000 deg
};
P[231]{
   GP1:
	UF : 0, UT : 6,		CONFIG : 'N U T, 0, 0, 0',
	X =  177.287  mm,	Y =   -370.455  mm,	Z =   -225.927  mm,
	W =  90.000 deg,	P =   0.000 deg,	R =   30.000 deg
};
P[232]{
   GP1:
	UF : 0, UT : 6,		CONFIG : 'N U T, 0, 0, 0',
	X =  176.422  mm,	Y =   -370.954  mm,	Z =   -225.922  mm,
	W =  90.000 deg,	P =   0.000 deg,	R =   30.000 deg
};
P[233]{
   GP1:
	UF : 0, UT : 6,		CONFIG : 'N U T, 0, 0, 0',
	X =  175.631  mm,	Y =   -371.414  mm,	Z =   -225.961  mm,
	W =  90.000 deg,	P =   0.000 deg,	R =   30.000 deg
};
P[234]{
   GP1:
	UF : 0, UT : 6,		CONFIG : 'N U T, 0, 0, 0',
	X =  174.715  mm,	Y =   -371.938  mm,	Z =   -225.899  mm,
	W =  90.000 deg,	P =   0.000 deg,	R =   30.000 deg
};
P[235]{
   GP1:
	UF : 0, UT : 6,		CONFIG : 'N U T, 0, 0, 0',
	X =  172.083  mm,	Y =   -373.466  mm,	Z =   -226.001  mm,
	W =  90.000 deg,	P =   0.000 deg,	R =   30.000 deg
};
P[236]{
   GP1:
	UF : 0, UT : 6,		CONFIG : 'N U T, 0, 0, 0',
	X =  171.288  mm,	Y =   -373.915  mm,	Z =   -225.887  mm,
	W =  90.000 deg,	P =   0.000 deg,	R =   30.000 deg
};
P[237]{
   GP1:
	UF : 0, UT : 6,		CONFIG : 'N U T, 0, 0, 0',
	X =  170.321  mm,	Y =   -374.480  mm,	Z =   -225.969  mm,
	W =  90.000 deg,	P =   0.000 deg,	R =   30.000 deg
};
P[238]{
   GP1:
	UF : 0, UT : 6,		CONFIG : 'N U T, 0, 0, 0',
	X =  169.475  mm,	Y =   -375.020  mm,	Z =   -225.981  mm,
	W =  90.000 deg,	P =   0.000 deg,	R =   30.000 deg
};
P[239]{
   GP1:
	UF : 0, UT : 6,		CONFIG : 'N U T, 0, 0, 0',
	X =  167.231  mm,	Y =   -377.053  mm,	Z =   -225.985  mm,
	W =  90.000 deg,	P =   0.000 deg,	R =   30.000 deg
};
P[240]{
   GP1:
	UF : 0, UT : 6,		CONFIG : 'N U T, 0, 0, 0',
	X =  166.797  mm,	Y =   -377.575  mm,	Z =   -225.889  mm,
	W =  90.000 deg,	P =   0.000 deg,	R =   30.000 deg
};
P[241]{
   GP1:
	UF : 0, UT : 6,		CONFIG : 'N U T, 0, 0, 0',
	X =  166.439  mm,	Y =   -378.158  mm,	Z =   -225.865  mm,
	W =  90.000 deg,	P =   0.000 deg,	R =   30.000 deg
};
P[242]{
   GP1:
	UF : 0, UT : 6,		CONFIG : 'N U T, 0, 0, 0',
	X =  166.042  mm,	Y =   -378.896  mm,	Z =   -225.988  mm,
	W =  90.000 deg,	P =   0.000 deg,	R =   30.000 deg
};
P[243]{
   GP1:
	UF : 0, UT : 6,		CONFIG : 'N U T, 0, 0, 0',
	X =  165.020  mm,	Y =   -382.725  mm,	Z =   -225.942  mm,
	W =  90.000 deg,	P =   0.000 deg,	R =   30.000 deg
};
P[244]{
   GP1:
	UF : 0, UT : 6,		CONFIG : 'N U T, 0, 0, 0',
	X =  164.988  mm,	Y =   -384.248  mm,	Z =   -225.566  mm,
	W =  90.000 deg,	P =   0.000 deg,	R =   30.000 deg
};
P[245]{
   GP1:
	UF : 0, UT : 6,		CONFIG : 'N U T, 0, 0, 0',
	X =  165.137  mm,	Y =   -384.926  mm,	Z =   -225.956  mm,
	W =  90.000 deg,	P =   0.000 deg,	R =   30.000 deg
};
P[246]{
   GP1:
	UF : 0, UT : 6,		CONFIG : 'N U T, 0, 0, 0',
	X =  165.324  mm,	Y =   -385.860  mm,	Z =   -225.962  mm,
	W =  90.000 deg,	P =   0.000 deg,	R =   30.000 deg
};
P[247]{
   GP1:
	UF : 0, UT : 6,		CONFIG : 'N U T, 0, 0, 0',
	X =  166.577  mm,	Y =   -388.749  mm,	Z =   -225.981  mm,
	W =  90.000 deg,	P =   0.000 deg,	R =   30.000 deg
};
P[248]{
   GP1:
	UF : 0, UT : 6,		CONFIG : 'N U T, 0, 0, 0',
	X =  167.504  mm,	Y =   -390.364  mm,	Z =   -225.921  mm,
	W =  90.000 deg,	P =   0.000 deg,	R =   30.000 deg
};
P[249]{
   GP1:
	UF : 0, UT : 6,		CONFIG : 'N U T, 0, 0, 0',
	X =  169.574  mm,	Y =   -393.958  mm,	Z =   -225.863  mm,
	W =  90.000 deg,	P =   0.000 deg,	R =   30.000 deg
};
P[250]{
   GP1:
	UF : 0, UT : 6,		CONFIG : 'N U T, 0, 0, 0',
	X =  170.604  mm,	Y =   -395.728  mm,	Z =   -225.950  mm,
	W =  90.000 deg,	P =   0.000 deg,	R =   30.000 deg
};
P[251]{
   GP1:
	UF : 0, UT : 6,		CONFIG : 'N U T, 0, 0, 0',
	X =  171.543  mm,	Y =   -397.371  mm,	Z =   -225.839  mm,
	W =  90.000 deg,	P =   0.000 deg,	R =   30.000 deg
};
P[252]{
   GP1:
	UF : 0, UT : 6,		CONFIG : 'N U T, 0, 0, 0',
	X =  173.559  mm,	Y =   -400.840  mm,	Z =   -225.995  mm,
	W =  90.000 deg,	P =   0.000 deg,	R =   30.000 deg
};
P[253]{
   GP1:
	UF : 0, UT : 6,		CONFIG : 'N U T, 0, 0, 0',
	X =  174.492  mm,	Y =   -402.458  mm,	Z =   -225.973  mm,
	W =  90.000 deg,	P =   0.000 deg,	R =   30.000 deg
};
P[254]{
   GP1:
	UF : 0, UT : 6,		CONFIG : 'N U T, 0, 0, 0',
	X =  175.544  mm,	Y =   -404.286  mm,	Z =   -225.945  mm,
	W =  90.000 deg,	P =   0.000 deg,	R =   30.000 deg
};
P[255]{
   GP1:
	UF : 0, UT : 6,		CONFIG : 'N U T, 0, 0, 0',
	X =  177.050  mm,	Y =   -406.888  mm,	Z =   -225.974  mm,
	W =  90.000 deg,	P =   0.000 deg,	R =   30.000 deg
};
P[256]{
   GP1:
	UF : 0, UT : 6,		CONFIG : 'N U T, 0, 0, 0',
	X =  177.586  mm,	Y =   -407.819  mm,	Z =   -225.968  mm,
	W =  90.000 deg,	P =   0.000 deg,	R =   30.000 deg
};
P[257]{
   GP1:
	UF : 0, UT : 6,		CONFIG : 'N U T, 0, 0, 0',
	X =  179.159  mm,	Y =   -410.547  mm,	Z =   -225.943  mm,
	W =  90.000 deg,	P =   0.000 deg,	R =   30.000 deg
};
P[258]{
   GP1:
	UF : 0, UT : 6,		CONFIG : 'N U T, 0, 0, 0',
	X =  179.632  mm,	Y =   -411.383  mm,	Z =   -225.823  mm,
	W =  90.000 deg,	P =   0.000 deg,	R =   30.000 deg
};
P[259]{
   GP1:
	UF : 0, UT : 6,		CONFIG : 'N U T, 0, 0, 0',
	X =  180.016  mm,	Y =   -412.052  mm,	Z =   -225.791  mm,
	W =  90.000 deg,	P =   0.000 deg,	R =   30.000 deg
};
P[260]{
   GP1:
	UF : 0, UT : 6,		CONFIG : 'N U T, 0, 0, 0',
	X =  182.152  mm,	Y =   -415.739  mm,	Z =   -225.875  mm,
	W =  90.000 deg,	P =   0.000 deg,	R =   30.000 deg
};
P[261]{
   GP1:
	UF : 0, UT : 6,		CONFIG : 'N U T, 0, 0, 0',
	X =  182.633  mm,	Y =   -416.575  mm,	Z =   -225.861  mm,
	W =  90.000 deg,	P =   0.000 deg,	R =   30.000 deg
};
P[262]{
   GP1:
	UF : 0, UT : 6,		CONFIG : 'N U T, 0, 0, 0',
	X =  183.053  mm,	Y =   -417.291  mm,	Z =   -225.942  mm,
	W =  90.000 deg,	P =   0.000 deg,	R =   30.000 deg
};
P[263]{
   GP1:
	UF : 0, UT : 6,		CONFIG : 'N U T, 0, 0, 0',
	X =  184.084  mm,	Y =   -419.069  mm,	Z =   -225.989  mm,
	W =  90.000 deg,	P =   0.000 deg,	R =   30.000 deg
};
P[264]{
   GP1:
	UF : 0, UT : 6,		CONFIG : 'N U T, 0, 0, 0',
	X =  184.598  mm,	Y =   -419.975  mm,	Z =   -225.876  mm,
	W =  90.000 deg,	P =   0.000 deg,	R =   30.000 deg
};
P[265]{
   GP1:
	UF : 0, UT : 6,		CONFIG : 'N U T, 0, 0, 0',
	X =  185.533  mm,	Y =   -421.598  mm,	Z =   -225.853  mm,
	W =  90.000 deg,	P =   0.000 deg,	R =   30.000 deg
};
P[266]{
   GP1:
	UF : 0, UT : 6,		CONFIG : 'N U T, 0, 0, 0',
	X =  186.070  mm,	Y =   -422.520  mm,	Z =   -225.912  mm,
	W =  90.000 deg,	P =   0.000 deg,	R =   30.000 deg
};
P[267]{
   GP1:
	UF : 0, UT : 6,		CONFIG : 'N U T, 0, 0, 0',
	X =  187.044  mm,	Y =   -424.207  mm,	Z =   -225.902  mm,
	W =  90.000 deg,	P =   0.000 deg,	R =   30.000 deg
};
P[268]{
   GP1:
	UF : 0, UT : 6,		CONFIG : 'N U T, 0, 0, 0',
	X =  187.452  mm,	Y =   -424.864  mm,	Z =   -226.008  mm,
	W =  90.000 deg,	P =   0.000 deg,	R =   30.000 deg
};
P[269]{
   GP1:
	UF : 0, UT : 6,		CONFIG : 'N U T, 0, 0, 0',
	X =  188.126  mm,	Y =   -425.854  mm,	Z =   -225.818  mm,
	W =  90.000 deg,	P =   0.000 deg,	R =   30.000 deg
};
P[270]{
   GP1:
	UF : 0, UT : 6,		CONFIG : 'N U T, 0, 0, 0',
	X =  190.237  mm,	Y =   -427.856  mm,	Z =   -225.864  mm,
	W =  90.000 deg,	P =   0.000 deg,	R =   30.000 deg
};
P[271]{
   GP1:
	UF : 0, UT : 6,		CONFIG : 'N U T, 0, 0, 0',
	X =  190.634  mm,	Y =   -428.088  mm,	Z =   -225.960  mm,
	W =  90.000 deg,	P =   0.000 deg,	R =   30.000 deg
};
P[272]{
   GP1:
	UF : 0, UT : 6,		CONFIG : 'N U T, 0, 0, 0',
	X =  192.708  mm,	Y =   -429.090  mm,	Z =   -225.913  mm,
	W =  90.000 deg,	P =   0.000 deg,	R =   30.000 deg
};
P[273]{
   GP1:
	UF : 0, UT : 6,		CONFIG : 'N U T, 0, 0, 0',
	X =  194.107  mm,	Y =   -429.462  mm,	Z =   -225.835  mm,
	W =  90.000 deg,	P =   0.000 deg,	R =   30.000 deg
};
P[274]{
   GP1:
	UF : 0, UT : 6,		CONFIG : 'N U T, 0, 0, 0',
	X =  195.498  mm,	Y =   -429.618  mm,	Z =   -225.964  mm,
	W =  90.000 deg,	P =   0.000 deg,	R =   30.000 deg
};
P[275]{
   GP1:
	UF : 0, UT : 6,		CONFIG : 'N U T, 0, 0, 0',
	X =  196.400  mm,	Y =   -429.616  mm,	Z =   -225.940  mm,
	W =  90.000 deg,	P =   0.000 deg,	R =   30.000 deg
};
P[276]{
   GP1:
	UF : 0, UT : 6,		CONFIG : 'N U T, 0, 0, 0',
	X =  196.926  mm,	Y =   -429.599  mm,	Z =   -225.930  mm,
	W =  90.000 deg,	P =   0.000 deg,	R =   30.000 deg
};
P[277]{
   GP1:
	UF : 0, UT : 6,		CONFIG : 'N U T, 0, 0, 0',
	X =  197.626  mm,	Y =   -429.479  mm,	Z =   -225.955  mm,
	W =  90.000 deg,	P =   0.000 deg,	R =   30.000 deg
};
P[278]{
   GP1:
	UF : 0, UT : 6,		CONFIG : 'N U T, 0, 0, 0',
	X =  198.695  mm,	Y =   -429.249  mm,	Z =   -225.832  mm,
	W =  90.000 deg,	P =   0.000 deg,	R =   30.000 deg
};
P[279]{
   GP1:
	UF : 0, UT : 6,		CONFIG : 'N U T, 0, 0, 0',
	X =  201.283  mm,	Y =   -428.108  mm,	Z =   -225.955  mm,
	W =  90.000 deg,	P =   0.000 deg,	R =   30.000 deg
};
P[280]{
   GP1:
	UF : 0, UT : 6,		CONFIG : 'N U T, 0, 0, 0',
	X =  202.286  mm,	Y =   -427.527  mm,	Z =   -225.977  mm,
	W =  90.000 deg,	P =   0.000 deg,	R =   30.000 deg
};
P[281]{
   GP1:
	UF : 0, UT : 6,		CONFIG : 'N U T, 0, 0, 0',
	X =  203.099  mm,	Y =   -427.068  mm,	Z =   -225.851  mm,
	W =  90.000 deg,	P =   0.000 deg,	R =   30.000 deg
};
P[282]{
   GP1:
	UF : 0, UT : 6,		CONFIG : 'N U T, 0, 0, 0',
	X =  205.670  mm,	Y =   -425.580  mm,	Z =   -225.891  mm,
	W =  90.000 deg,	P =   0.000 deg,	R =   30.000 deg
};
P[283]{
   GP1:
	UF : 0, UT : 6,		CONFIG : 'N U T, 0, 0, 0',
	X =  208.258  mm,	Y =   -424.083  mm,	Z =   -225.920  mm,
	W =  90.000 deg,	P =   0.000 deg,	R =   30.000 deg
};
P[284]{
   GP1:
	UF : 0, UT : 6,		CONFIG : 'N U T, 0, 0, 0',
	X =  209.154  mm,	Y =   -423.560  mm,	Z =   -225.991  mm,
	W =  90.000 deg,	P =   0.000 deg,	R =   30.000 deg
};
P[285]{
   GP1:
	UF : 0, UT : 6,		CONFIG : 'N U T, 0, 0, 0',
	X =  212.585  mm,	Y =   -421.590  mm,	Z =   -225.860  mm,
	W =  90.000 deg,	P =   0.000 deg,	R =   30.000 deg
};
P[286]{
   GP1:
	UF : 0, UT : 6,		CONFIG : 'N U T, 0, 0, 0',
	X =  215.207  mm,	Y =   -420.070  mm,	Z =   -225.925  mm,
	W =  90.000 deg,	P =   0.000 deg,	R =   30.000 deg
};
P[287]{
   GP1:
	UF : 0, UT : 6,		CONFIG : 'N U T, 0, 0, 0',
	X =  217.087  mm,	Y =   -418.987  mm,	Z =   -225.900  mm,
	W =  90.000 deg,	P =   0.000 deg,	R =   30.000 deg
};
P[288]{
   GP1:
	UF : 0, UT : 6,		CONFIG : 'N U T, 0, 0, 0',
	X =  219.397  mm,	Y =   -417.651  mm,	Z =   -225.930  mm,
	W =  90.000 deg,	P =   0.000 deg,	R =   30.000 deg
};
P[289]{
   GP1:
	UF : 0, UT : 6,		CONFIG : 'N U T, 0, 0, 0',
	X =  220.429  mm,	Y =   -417.054  mm,	Z =   -225.940  mm,
	W =  90.000 deg,	P =   0.000 deg,	R =   30.000 deg
};
P[290]{
   GP1:
	UF : 0, UT : 6,		CONFIG : 'N U T, 0, 0, 0',
	X =  223.105  mm,	Y =   -415.508  mm,	Z =   -225.954  mm,
	W =  90.000 deg,	P =   0.000 deg,	R =   30.000 deg
};
P[291]{
   GP1:
	UF : 0, UT : 6,		CONFIG : 'N U T, 0, 0, 0',
	X =  224.701  mm,	Y =   -414.585  mm,	Z =   -225.975  mm,
	W =  90.000 deg,	P =   0.000 deg,	R =   30.000 deg
};
P[292]{
   GP1:
	UF : 0, UT : 6,		CONFIG : 'N U T, 0, 0, 0',
	X =  226.504  mm,	Y =   -413.544  mm,	Z =   -225.966  mm,
	W =  90.000 deg,	P =   0.000 deg,	R =   30.000 deg
};
P[293]{
   GP1:
	UF : 0, UT : 6,		CONFIG : 'N U T, 0, 0, 0',
	X =  227.229  mm,	Y =   -413.126  mm,	Z =   -225.964  mm,
	W =  90.000 deg,	P =   0.000 deg,	R =   30.000 deg
};
P[294]{
   GP1:
	UF : 0, UT : 6,		CONFIG : 'N U T, 0, 0, 0',
	X =  228.150  mm,	Y =   -412.591  mm,	Z =   -226.005  mm,
	W =  90.000 deg,	P =   0.000 deg,	R =   30.000 deg
};
P[295]{
   GP1:
	UF : 0, UT : 6,		CONFIG : 'N U T, 0, 0, 0',
	X =  229.941  mm,	Y =   -411.561  mm,	Z =   -225.952  mm,
	W =  90.000 deg,	P =   0.000 deg,	R =   30.000 deg
};
P[296]{
   GP1:
	UF : 0, UT : 6,		CONFIG : 'N U T, 0, 0, 0',
	X =  233.416  mm,	Y =   -409.558  mm,	Z =   -225.903  mm,
	W =  90.000 deg,	P =   0.000 deg,	R =   30.000 deg
};
P[297]{
   GP1:
	UF : 0, UT : 6,		CONFIG : 'N U T, 0, 0, 0',
	X =  234.274  mm,	Y =   -409.061  mm,	Z =   -225.939  mm,
	W =  90.000 deg,	P =   0.000 deg,	R =   30.000 deg
};
P[298]{
   GP1:
	UF : 0, UT : 6,		CONFIG : 'N U T, 0, 0, 0',
	X =  236.045  mm,	Y =   -408.033  mm,	Z =   -225.996  mm,
	W =  90.000 deg,	P =   0.000 deg,	R =   30.000 deg
};
P[299]{
   GP1:
	UF : 0, UT : 6,		CONFIG : 'N U T, 0, 0, 0',
	X =  236.777  mm,	Y =   -407.633  mm,	Z =   -225.720  mm,
	W =  90.000 deg,	P =   0.000 deg,	R =   30.000 deg
};
P[300]{
   GP1:
	UF : 0, UT : 6,		CONFIG : 'N U T, 0, 0, 0',
	X =  239.493  mm,	Y =   -406.045  mm,	Z =   -225.965  mm,
	W =  90.000 deg,	P =   0.000 deg,	R =   30.000 deg
};
P[301]{
   GP1:
	UF : 0, UT : 6,		CONFIG : 'N U T, 0, 0, 0',
	X =  241.086  mm,	Y =   -405.129  mm,	Z =   -225.916  mm,
	W =  90.000 deg,	P =   0.000 deg,	R =   30.000 deg
};
P[302]{
   GP1:
	UF : 0, UT : 6,		CONFIG : 'N U T, 0, 0, 0',
	X =  242.853  mm,	Y =   -404.110  mm,	Z =   -225.899  mm,
	W =  90.000 deg,	P =   0.000 deg,	R =   30.000 deg
};
P[303]{
   GP1:
	UF : 0, UT : 6,		CONFIG : 'N U T, 0, 0, 0',
	X =  244.662  mm,	Y =   -403.061  mm,	Z =   -225.963  mm,
	W =  90.000 deg,	P =   0.000 deg,	R =   30.000 deg
};
P[304]{
   GP1:
	UF : 0, UT : 6,		CONFIG : 'N U T, 0, 0, 0',
	X =  246.492  mm,	Y =   -402.008  mm,	Z =   -225.912  mm,
	W =  90.000 deg,	P =   0.000 deg,	R =   30.000 deg
};
P[305]{
   GP1:
	UF : 0, UT : 6,		CONFIG : 'N U T, 0, 0, 0',
	X =  248.082  mm,	Y =   -401.090  mm,	Z =   -225.909  mm,
	W =  90.000 deg,	P =   0.000 deg,	R =   30.000 deg
};
P[306]{
   GP1:
	UF : 0, UT : 6,		CONFIG : 'N U T, 0, 0, 0',
	X =  250.702  mm,	Y =   -399.575  mm,	Z =   -225.938  mm,
	W =  90.000 deg,	P =   0.000 deg,	R =   30.000 deg
};
P[307]{
   GP1:
	UF : 0, UT : 6,		CONFIG : 'N U T, 0, 0, 0',
	X =  251.662  mm,	Y =   -399.015  mm,	Z =   -226.007  mm,
	W =  90.000 deg,	P =   0.000 deg,	R =   30.000 deg
};
P[308]{
   GP1:
	UF : 0, UT : 6,		CONFIG : 'N U T, 0, 0, 0',
	X =  252.486  mm,	Y =   -398.549  mm,	Z =   -225.885  mm,
	W =  90.000 deg,	P =   0.000 deg,	R =   30.000 deg
};
P[309]{
   GP1:
	UF : 0, UT : 6,		CONFIG : 'N U T, 0, 0, 0',
	X =  255.893  mm,	Y =   -396.572  mm,	Z =   -226.005  mm,
	W =  90.000 deg,	P =   0.000 deg,	R =   30.000 deg
};
P[310]{
   GP1:
	UF : 0, UT : 6,		CONFIG : 'N U T, 0, 0, 0',
	X =  256.792  mm,	Y =   -396.057  mm,	Z =   -225.954  mm,
	W =  90.000 deg,	P =   0.000 deg,	R =   30.000 deg
};
P[311]{
   GP1:
	UF : 0, UT : 6,		CONFIG : 'N U T, 0, 0, 0',
	X =  261.174  mm,	Y =   -393.533  mm,	Z =   -225.876  mm,
	W =  90.000 deg,	P =   0.000 deg,	R =   30.000 deg
};
P[312]{
   GP1:
	UF : 0, UT : 6,		CONFIG : 'N U T, 0, 0, 0',
	X =  262.831  mm,	Y =   -392.575  mm,	Z =   -225.901  mm,
	W =  90.000 deg,	P =   0.000 deg,	R =   30.000 deg
};
P[313]{
   GP1:
	UF : 0, UT : 6,		CONFIG : 'N U T, 0, 0, 0',
	X =  263.682  mm,	Y =   -392.077  mm,	Z =   -225.977  mm,
	W =  90.000 deg,	P =   0.000 deg,	R =   30.000 deg
};
P[314]{
   GP1:
	UF : 0, UT : 6,		CONFIG : 'N U T, 0, 0, 0',
	X =  264.643  mm,	Y =   -391.528  mm,	Z =   -225.906  mm,
	W =  90.000 deg,	P =   0.000 deg,	R =   30.000 deg
};
P[315]{
   GP1:
	UF : 0, UT : 6,		CONFIG : 'N U T, 0, 0, 0',
	X =  266.366  mm,	Y =   -390.537  mm,	Z =   -225.857  mm,
	W =  90.000 deg,	P =   0.000 deg,	R =   30.000 deg
};
P[316]{
   GP1:
	UF : 0, UT : 6,		CONFIG : 'N U T, 0, 0, 0',
	X =  267.336  mm,	Y =   -389.966  mm,	Z =   -226.001  mm,
	W =  90.000 deg,	P =   0.000 deg,	R =   30.000 deg
};
P[317]{
   GP1:
	UF : 0, UT : 6,		CONFIG : 'N U T, 0, 0, 0',
	X =  268.796  mm,	Y =   -389.130  mm,	Z =   -225.906  mm,
	W =  90.000 deg,	P =   0.000 deg,	R =   30.000 deg
};
P[318]{
   GP1:
	UF : 0, UT : 6,		CONFIG : 'N U T, 0, 0, 0',
	X =  269.692  mm,	Y =   -388.606  mm,	Z =   -225.987  mm,
	W =  90.000 deg,	P =   0.000 deg,	R =   30.000 deg
};
P[319]{
   GP1:
	UF : 0, UT : 6,		CONFIG : 'N U T, 0, 0, 0',
	X =  270.700  mm,	Y =   -388.027  mm,	Z =   -225.954  mm,
	W =  90.000 deg,	P =   0.000 deg,	R =   30.000 deg
};
P[320]{
   GP1:
	UF : 0, UT : 6,		CONFIG : 'N U T, 0, 0, 0',
	X =  271.514  mm,	Y =   -387.562  mm,	Z =   -225.894  mm,
	W =  90.000 deg,	P =   0.000 deg,	R =   30.000 deg
};
P[321]{
   GP1:
	UF : 0, UT : 6,		CONFIG : 'N U T, 0, 0, 0',
	X =  272.266  mm,	Y =   -387.135  mm,	Z =   -225.800  mm,
	W =  90.000 deg,	P =   0.000 deg,	R =   30.000 deg
};
P[322]{
   GP1:
	UF : 0, UT : 6,		CONFIG : 'N U T, 0, 0, 0',
	X =  275.897  mm,	Y =   -385.029  mm,	Z =   -225.925  mm,
	W =  90.000 deg,	P =   0.000 deg,	R =   30.000 deg
};
P[323]{
   GP1:
	UF : 0, UT : 6,		CONFIG : 'N U T, 0, 0, 0',
	X =  276.600  mm,	Y =   -384.616  mm,	Z =   -226.008  mm,
	W =  90.000 deg,	P =   0.000 deg,	R =   30.000 deg
};
P[324]{
   GP1:
	UF : 0, UT : 6,		CONFIG : 'N U T, 0, 0, 0',
	X =  278.538  mm,	Y =   -383.504  mm,	Z =   -225.919  mm,
	W =  90.000 deg,	P =   0.000 deg,	R =   30.000 deg
};
P[325]{
   GP1:
	UF : 0, UT : 6,		CONFIG : 'N U T, 0, 0, 0',
	X =  279.337  mm,	Y =   -383.040  mm,	Z =   -225.955  mm,
	W =  90.000 deg,	P =   0.000 deg,	R =   30.000 deg
};
P[326]{
   GP1:
	UF : 0, UT : 6,		CONFIG : 'N U T, 0, 0, 0',
	X =  281.091  mm,	Y =   -382.027  mm,	Z =   -225.960  mm,
	W =  90.000 deg,	P =   0.000 deg,	R =   30.000 deg
};
P[327]{
   GP1:
	UF : 0, UT : 6,		CONFIG : 'N U T, 0, 0, 0',
	X =  281.880  mm,	Y =   -381.579  mm,	Z =   -225.867  mm,
	W =  90.000 deg,	P =   0.000 deg,	R =   30.000 deg
};
P[328]{
   GP1:
	UF : 0, UT : 6,		CONFIG : 'N U T, 0, 0, 0',
	X =  282.601  mm,	Y =   -381.153  mm,	Z =   -225.978  mm,
	W =  90.000 deg,	P =   0.000 deg,	R =   30.000 deg
};
P[329]{
   GP1:
	UF : 0, UT : 6,		CONFIG : 'N U T, 0, 0, 0',
	X =  284.577  mm,	Y =   -380.014  mm,	Z =   -225.964  mm,
	W =  90.000 deg,	P =   0.000 deg,	R =   30.000 deg
};
P[330]{
   GP1:
	UF : 0, UT : 6,		CONFIG : 'N U T, 0, 0, 0',
	X =  285.351  mm,	Y =   -379.570  mm,	Z =   -225.919  mm,
	W =  90.000 deg,	P =   0.000 deg,	R =   30.000 deg
};
P[331]{
   GP1:
	UF : 0, UT : 6,		CONFIG : 'N U T, 0, 0, 0',
	X =  286.198  mm,	Y =   -379.082  mm,	Z =   -225.908  mm,
	W =  90.000 deg,	P =   0.000 deg,	R =   30.000 deg
};
P[332]{
   GP1:
	UF : 0, UT : 6,		CONFIG : 'N U T, 0, 0, 0',
	X =  287.859  mm,	Y =   -378.123  mm,	Z =   -225.915  mm,
	W =  90.000 deg,	P =   0.000 deg,	R =   30.000 deg
};
P[333]{
   GP1:
	UF : 0, UT : 6,		CONFIG : 'N U T, 0, 0, 0',
	X =  288.846  mm,	Y =   -377.546  mm,	Z =   -225.994  mm,
	W =  90.000 deg,	P =   0.000 deg,	R =   30.000 deg
};
P[334]{
   GP1:
	UF : 0, UT : 6,		CONFIG : 'N U T, 0, 0, 0',
	X =  289.653  mm,	Y =   -377.084  mm,	Z =   -225.958  mm,
	W =  90.000 deg,	P =   0.000 deg,	R =   30.000 deg
};
P[335]{
   GP1:
	UF : 0, UT : 6,		CONFIG : 'N U T, 0, 0, 0',
	X =  290.443  mm,	Y =   -376.629  mm,	Z =   -225.938  mm,
	W =  90.000 deg,	P =   0.000 deg,	R =   30.000 deg
};
P[336]{
   GP1:
	UF : 0, UT : 6,		CONFIG : 'N U T, 0, 0, 0',
	X =  291.385  mm,	Y =   -376.087  mm,	Z =   -225.909  mm,
	W =  90.000 deg,	P =   0.000 deg,	R =   30.000 deg
};
P[337]{
   GP1:
	UF : 0, UT : 6,		CONFIG : 'N U T, 0, 0, 0',
	X =  293.095  mm,	Y =   -375.104  mm,	Z =   -225.862  mm,
	W =  90.000 deg,	P =   0.000 deg,	R =   30.000 deg
};
P[338]{
   GP1:
	UF : 0, UT : 6,		CONFIG : 'N U T, 0, 0, 0',
	X =  294.751  mm,	Y =   -374.138  mm,	Z =   -225.975  mm,
	W =  90.000 deg,	P =   0.000 deg,	R =   30.000 deg
};
P[339]{
   GP1:
	UF : 0, UT : 6,		CONFIG : 'N U T, 0, 0, 0',
	X =  300.058  mm,	Y =   -371.076  mm,	Z =   -225.951  mm,
	W =  90.000 deg,	P =   0.000 deg,	R =   30.000 deg
};
P[340]{
   GP1:
	UF : 0, UT : 6,		CONFIG : 'N U T, 0, 0, 0',
	X =  301.016  mm,	Y =   -370.527  mm,	Z =   -225.899  mm,
	W =  90.000 deg,	P =   0.000 deg,	R =   30.000 deg
};
P[341]{
   GP1:
	UF : 0, UT : 6,		CONFIG : 'N U T, 0, 0, 0',
	X =  301.817  mm,	Y =   -370.060  mm,	Z =   -225.957  mm,
	W =  90.000 deg,	P =   0.000 deg,	R =   30.000 deg
};
P[342]{
   GP1:
	UF : 0, UT : 6,		CONFIG : 'N U T, 0, 0, 0',
	X =  304.497  mm,	Y =   -368.512  mm,	Z =   -225.966  mm,
	W =  90.000 deg,	P =   0.000 deg,	R =   30.000 deg
};
P[343]{
   GP1:
	UF : 0, UT : 6,		CONFIG : 'N U T, 0, 0, 0',
	X =  306.092  mm,	Y =   -367.595  mm,	Z =   -225.910  mm,
	W =  90.000 deg,	P =   0.000 deg,	R =   30.000 deg
};
P[344]{
   GP1:
	UF : 0, UT : 6,		CONFIG : 'N U T, 0, 0, 0',
	X =  310.554  mm,	Y =   -364.970  mm,	Z =   -225.881  mm,
	W =  90.000 deg,	P =   0.000 deg,	R =   30.000 deg
};
P[345]{
   GP1:
	UF : 0, UT : 6,		CONFIG : 'N U T, 0, 0, 0',
	X =  311.419  mm,	Y =   -364.328  mm,	Z =   -225.942  mm,
	W =  90.000 deg,	P =   0.000 deg,	R =   30.000 deg
};
P[346]{
   GP1:
	UF : 0, UT : 6,		CONFIG : 'N U T, 0, 0, 0',
	X =  312.144  mm,	Y =   -363.659  mm,	Z =   -225.961  mm,
	W =  90.000 deg,	P =   0.000 deg,	R =   30.000 deg
};
P[347]{
   GP1:
	UF : 0, UT : 6,		CONFIG : 'N U T, 0, 0, 0',
	X =  312.776  mm,	Y =   -362.941  mm,	Z =   -225.964  mm,
	W =  90.000 deg,	P =   0.000 deg,	R =   30.000 deg
};
P[348]{
   GP1:
	UF : 0, UT : 6,		CONFIG : 'N U T, 0, 0, 0',
	X =  313.106  mm,	Y =   -362.549  mm,	Z =   -225.918  mm,
	W =  90.000 deg,	P =   0.000 deg,	R =   30.000 deg
};
P[349]{
   GP1:
	UF : 0, UT : 6,		CONFIG : 'N U T, 0, 0, 0',
	X =  313.488  mm,	Y =   -361.955  mm,	Z =   -225.901  mm,
	W =  90.000 deg,	P =   0.000 deg,	R =   30.000 deg
};
P[350]{
   GP1:
	UF : 0, UT : 6,		CONFIG : 'N U T, 0, 0, 0',
	X =  314.683  mm,	Y =   -359.264  mm,	Z =   -225.682  mm,
	W =  90.000 deg,	P =   0.000 deg,	R =   30.000 deg
};
P[351]{
   GP1:
	UF : 0, UT : 6,		CONFIG : 'N U T, 0, 0, 0',
	X =  314.975  mm,	Y =   -357.276  mm,	Z =   -226.007  mm,
	W =  90.000 deg,	P =   0.000 deg,	R =   30.000 deg
};
P[352]{
   GP1:
	UF : 0, UT : 6,		CONFIG : 'N U T, 0, 0, 0',
	X =  314.870  mm,	Y =   -355.122  mm,	Z =   -225.968  mm,
	W =  90.000 deg,	P =   0.000 deg,	R =   30.000 deg
};
P[353]{
   GP1:
	UF : 0, UT : 6,		CONFIG : 'N U T, 0, 0, 0',
	X =  313.438  mm,	Y =   -351.265  mm,	Z =   -225.901  mm,
	W =  90.000 deg,	P =   0.000 deg,	R =   30.000 deg
};
P[354]{
   GP1:
	UF : 0, UT : 6,		CONFIG : 'N U T, 0, 0, 0',
	X =  311.936  mm,	Y =   -348.665  mm,	Z =   -225.913  mm,
	W =  90.000 deg,	P =   0.000 deg,	R =   30.000 deg
};
P[355]{
   GP1:
	UF : 0, UT : 6,		CONFIG : 'N U T, 0, 0, 0',
	X =  310.452  mm,	Y =   -346.100  mm,	Z =   -225.948  mm,
	W =  90.000 deg,	P =   0.000 deg,	R =   30.000 deg
};
P[356]{
   GP1:
	UF : 0, UT : 6,		CONFIG : 'N U T, 0, 0, 0',
	X =  309.019  mm,	Y =   -343.604  mm,	Z =   -225.837  mm,
	W =  90.000 deg,	P =   0.000 deg,	R =   30.000 deg
};
P[357]{
   GP1:
	UF : 0, UT : 6,		CONFIG : 'N U T, 0, 0, 0',
	X =  307.473  mm,	Y =   -340.946  mm,	Z =   -225.986  mm,
	W =  90.000 deg,	P =   0.000 deg,	R =   30.000 deg
};
P[358]{
   GP1:
	UF : 0, UT : 6,		CONFIG : 'N U T, 0, 0, 0',
	X =  306.950  mm,	Y =   -340.031  mm,	Z =   -225.919  mm,
	W =  90.000 deg,	P =   0.000 deg,	R =   30.000 deg
};
P[359]{
   GP1:
	UF : 0, UT : 6,		CONFIG : 'N U T, 0, 0, 0',
	X =  305.995  mm,	Y =   -338.385  mm,	Z =   -225.981  mm,
	W =  90.000 deg,	P =   0.000 deg,	R =   30.000 deg
};
P[360]{
   GP1:
	UF : 0, UT : 6,		CONFIG : 'N U T, 0, 0, 0',
	X =  305.388  mm,	Y =   -337.327  mm,	Z =   -225.926  mm,
	W =  90.000 deg,	P =   0.000 deg,	R =   30.000 deg
};
P[361]{
   GP1:
	UF : 0, UT : 6,		CONFIG : 'N U T, 0, 0, 0',
	X =  303.940  mm,	Y =   -334.819  mm,	Z =   -225.936  mm,
	W =  90.000 deg,	P =   0.000 deg,	R =   30.000 deg
};
P[362]{
   GP1:
	UF : 0, UT : 6,		CONFIG : 'N U T, 0, 0, 0',
	X =  302.960  mm,	Y =   -333.118  mm,	Z =   -225.897  mm,
	W =  90.000 deg,	P =   0.000 deg,	R =   30.000 deg
};
P[363]{
   GP1:
	UF : 0, UT : 6,		CONFIG : 'N U T, 0, 0, 0',
	X =  302.023  mm,	Y =   -331.503  mm,	Z =   -225.966  mm,
	W =  90.000 deg,	P =   0.000 deg,	R =   30.000 deg
};
P[364]{
   GP1:
	UF : 0, UT : 6,		CONFIG : 'N U T, 0, 0, 0',
	X =  301.495  mm,	Y =   -330.594  mm,	Z =   -225.988  mm,
	W =  90.000 deg,	P =   0.000 deg,	R =   30.000 deg
};
P[365]{
   GP1:
	UF : 0, UT : 6,		CONFIG : 'N U T, 0, 0, 0',
	X =  300.972  mm,	Y =   -329.675  mm,	Z =   -225.908  mm,
	W =  90.000 deg,	P =   0.000 deg,	R =   30.000 deg
};
P[366]{
   GP1:
	UF : 0, UT : 6,		CONFIG : 'N U T, 0, 0, 0',
	X =  300.540  mm,	Y =   -328.919  mm,	Z =   -225.840  mm,
	W =  90.000 deg,	P =   0.000 deg,	R =   30.000 deg
};
P[367]{
   GP1:
	UF : 0, UT : 6,		CONFIG : 'N U T, 0, 0, 0',
	X =  299.914  mm,	Y =   -327.846  mm,	Z =   -225.925  mm,
	W =  90.000 deg,	P =   0.000 deg,	R =   30.000 deg
};
P[368]{
   GP1:
	UF : 0, UT : 6,		CONFIG : 'N U T, 0, 0, 0',
	X =  299.368  mm,	Y =   -326.895  mm,	Z =   -225.890  mm,
	W =  90.000 deg,	P =   0.000 deg,	R =   30.000 deg
};
P[369]{
   GP1:
	UF : 0, UT : 6,		CONFIG : 'N U T, 0, 0, 0',
	X =  298.927  mm,	Y =   -326.141  mm,	Z =   -225.959  mm,
	W =  90.000 deg,	P =   0.000 deg,	R =   30.000 deg
};
P[370]{
   GP1:
	UF : 0, UT : 6,		CONFIG : 'N U T, 0, 0, 0',
	X =  297.022  mm,	Y =   -322.847  mm,	Z =   -225.995  mm,
	W =  90.000 deg,	P =   0.000 deg,	R =   30.000 deg
};
P[371]{
   GP1:
	UF : 0, UT : 6,		CONFIG : 'N U T, 0, 0, 0',
	X =  295.930  mm,	Y =   -320.930  mm,	Z =   -225.809  mm,
	W =  90.000 deg,	P =   0.000 deg,	R =   30.000 deg
};
P[372]{
   GP1:
	UF : 0, UT : 6,		CONFIG : 'N U T, 0, 0, 0',
	X =  295.436  mm,	Y =   -320.070  mm,	Z =   -225.778  mm,
	W =  90.000 deg,	P =   0.000 deg,	R =   30.000 deg
};
P[373]{
   GP1:
	UF : 0, UT : 6,		CONFIG : 'N U T, 0, 0, 0',
	X =  294.486  mm,	Y =   -318.434  mm,	Z =   -225.858  mm,
	W =  90.000 deg,	P =   0.000 deg,	R =   30.000 deg
};
P[374]{
   GP1:
	UF : 0, UT : 6,		CONFIG : 'N U T, 0, 0, 0',
	X =  293.494  mm,	Y =   -316.729  mm,	Z =   -225.936  mm,
	W =  90.000 deg,	P =   0.000 deg,	R =   30.000 deg
};
P[375]{
   GP1:
	UF : 0, UT : 6,		CONFIG : 'N U T, 0, 0, 0',
	X =  292.920  mm,	Y =   -315.737  mm,	Z =   -225.956  mm,
	W =  90.000 deg,	P =   0.000 deg,	R =   30.000 deg
};
P[376]{
   GP1:
	UF : 0, UT : 6,		CONFIG : 'N U T, 0, 0, 0',
	X =  292.445  mm,	Y =   -314.974  mm,	Z =   -225.934  mm,
	W =  90.000 deg,	P =   0.000 deg,	R =   30.000 deg
};
P[377]{
   GP1:
	UF : 0, UT : 6,		CONFIG : 'N U T, 0, 0, 0',
	X =  290.992  mm,	Y =   -313.185  mm,	Z =   -225.958  mm,
	W =  90.000 deg,	P =   0.000 deg,	R =   30.000 deg
};
P[378]{
   GP1:
	UF : 0, UT : 6,		CONFIG : 'N U T, 0, 0, 0',
	X =  289.767  mm,	Y =   -312.136  mm,	Z =   -225.769  mm,
	W =  90.000 deg,	P =   0.000 deg,	R =   30.000 deg
};
P[379]{
   GP1:
	UF : 0, UT : 6,		CONFIG : 'N U T, 0, 0, 0',
	X =  288.455  mm,	Y =   -311.399  mm,	Z =   -226.008  mm,
	W =  90.000 deg,	P =   0.000 deg,	R =   30.000 deg
};
P[380]{
   GP1:
	UF : 0, UT : 6,		CONFIG : 'N U T, 0, 0, 0',
	X =  286.651  mm,	Y =   -310.693  mm,	Z =   -225.689  mm,
	W =  90.000 deg,	P =   0.000 deg,	R =   30.000 deg
};
P[381]{
   GP1:
	UF : 0, UT : 6,		CONFIG : 'N U T, 0, 0, 0',
	X =  277.784  mm,	Y =   -312.423  mm,	Z =   -225.856  mm,
	W =  90.000 deg,	P =   0.000 deg,	R =   30.000 deg
};
P[382]{
   GP1:
	UF : 0, UT : 6,		CONFIG : 'N U T, 0, 0, 0',
	X =  276.038  mm,	Y =   -313.438  mm,	Z =   -225.934  mm,
	W =  90.000 deg,	P =   0.000 deg,	R =   30.000 deg
};
P[383]{
   GP1:
	UF : 0, UT : 6,		CONFIG : 'N U T, 0, 0, 0',
	X =  275.067  mm,	Y =   -314.003  mm,	Z =   -226.006  mm,
	W =  90.000 deg,	P =   0.000 deg,	R =   30.000 deg
};
P[384]{
   GP1:
	UF : 0, UT : 6,		CONFIG : 'N U T, 0, 0, 0',
	X =  274.347  mm,	Y =   -314.413  mm,	Z =   -225.919  mm,
	W =  90.000 deg,	P =   0.000 deg,	R =   30.000 deg
};
P[385]{
   GP1:
	UF : 0, UT : 6,		CONFIG : 'N U T, 0, 0, 0',
	X =  272.538  mm,	Y =   -315.464  mm,	Z =   -226.004  mm,
	W =  90.000 deg,	P =   0.000 deg,	R =   30.000 deg
};
P[386]{
   GP1:
	UF : 0, UT : 6,		CONFIG : 'N U T, 0, 0, 0',
	X =  269.925  mm,	Y =   -316.970  mm,	Z =   -225.967  mm,
	W =  90.000 deg,	P =   0.000 deg,	R =   30.000 deg
};
P[387]{
   GP1:
	UF : 0, UT : 6,		CONFIG : 'N U T, 0, 0, 0',
	X =  269.027  mm,	Y =   -317.491  mm,	Z =   -225.996  mm,
	W =  90.000 deg,	P =   0.000 deg,	R =   30.000 deg
};
P[388]{
   GP1:
	UF : 0, UT : 6,		CONFIG : 'N U T, 0, 0, 0',
	X =  267.236  mm,	Y =   -318.519  mm,	Z =   -225.928  mm,
	W =  90.000 deg,	P =   0.000 deg,	R =   30.000 deg
};
P[389]{
   GP1:
	UF : 0, UT : 6,		CONFIG : 'N U T, 0, 0, 0',
	X =  263.136  mm,	Y =   -320.888  mm,	Z =   -225.941  mm,
	W =  90.000 deg,	P =   0.000 deg,	R =   30.000 deg
};
P[390]{
   GP1:
	UF : 0, UT : 6,		CONFIG : 'N U T, 0, 0, 0',
	X =  259.535  mm,	Y =   -322.972  mm,	Z =   -226.005  mm,
	W =  90.000 deg,	P =   0.000 deg,	R =   30.000 deg
};
P[391]{
   GP1:
	UF : 0, UT : 6,		CONFIG : 'N U T, 0, 0, 0',
	X =  258.673  mm,	Y =   -323.459  mm,	Z =   -225.874  mm,
	W =  90.000 deg,	P =   0.000 deg,	R =   30.000 deg
};
P[392]{
   GP1:
	UF : 0, UT : 6,		CONFIG : 'N U T, 0, 0, 0',
	X =  256.153  mm,	Y =   -324.920  mm,	Z =   -225.953  mm,
	W =  90.000 deg,	P =   0.000 deg,	R =   30.000 deg
};
P[393]{
   GP1:
	UF : 0, UT : 6,		CONFIG : 'N U T, 0, 0, 0',
	X =  255.271  mm,	Y =   -325.430  mm,	Z =   -225.951  mm,
	W =  90.000 deg,	P =   0.000 deg,	R =   30.000 deg
};
P[394]{
   GP1:
	UF : 0, UT : 6,		CONFIG : 'N U T, 0, 0, 0',
	X =  253.514  mm,	Y =   -326.445  mm,	Z =   -225.962  mm,
	W =  90.000 deg,	P =   0.000 deg,	R =   30.000 deg
};
P[395]{
   GP1:
	UF : 0, UT : 6,		CONFIG : 'N U T, 0, 0, 0',
	X =  252.693  mm,	Y =   -326.922  mm,	Z =   -225.998  mm,
	W =  90.000 deg,	P =   0.000 deg,	R =   30.000 deg
};
P[396]{
   GP1:
	UF : 0, UT : 6,		CONFIG : 'N U T, 0, 0, 0',
	X =  250.112  mm,	Y =   -328.411  mm,	Z =   -225.986  mm,
	W =  90.000 deg,	P =   0.000 deg,	R =   30.000 deg
};
P[397]{
   GP1:
	UF : 0, UT : 6,		CONFIG : 'N U T, 0, 0, 0',
	X =  249.139  mm,	Y =   -328.959  mm,	Z =   -225.811  mm,
	W =  90.000 deg,	P =   0.000 deg,	R =   30.000 deg
};
P[398]{
   GP1:
	UF : 0, UT : 6,		CONFIG : 'N U T, 0, 0, 0',
	X =  247.495  mm,	Y =   -329.921  mm,	Z =   -225.980  mm,
	W =  90.000 deg,	P =   0.000 deg,	R =   30.000 deg
};
P[399]{
   GP1:
	UF : 0, UT : 6,		CONFIG : 'N U T, 0, 0, 0',
	X =  243.203  mm,	Y =   -332.390  mm,	Z =   -225.850  mm,
	W =  90.000 deg,	P =   0.000 deg,	R =   30.000 deg
};
P[400]{
   GP1:
	UF : 0, UT : 6,		CONFIG : 'N U T, 0, 0, 0',
	X =  241.512  mm,	Y =   -333.373  mm,	Z =   -225.941  mm,
	W =  90.000 deg,	P =   0.000 deg,	R =   30.000 deg
};
P[401]{
   GP1:
	UF : 0, UT : 6,		CONFIG : 'N U T, 0, 0, 0',
	X =  240.519  mm,	Y =   -333.946  mm,	Z =   -225.941  mm,
	W =  90.000 deg,	P =   0.000 deg,	R =   30.000 deg
};
P[402]{
   GP1:
	UF : 0, UT : 6,		CONFIG : 'N U T, 0, 0, 0',
	X =  239.549  mm,	Y =   -334.509  mm,	Z =   -225.971  mm,
	W =  90.000 deg,	P =   0.000 deg,	R =   30.000 deg
};
P[403]{
   GP1:
	UF : 0, UT : 6,		CONFIG : 'N U T, 0, 0, 0',
	X =  238.860  mm,	Y =   -334.909  mm,	Z =   -225.997  mm,
	W =  90.000 deg,	P =   0.000 deg,	R =   30.000 deg
};
P[404]{
   GP1:
	UF : 0, UT : 6,		CONFIG : 'N U T, 0, 0, 0',
	X =  237.853  mm,	Y =   -335.477  mm,	Z =   -225.839  mm,
	W =  90.000 deg,	P =   0.000 deg,	R =   30.000 deg
};
P[405]{
   GP1:
	UF : 0, UT : 6,		CONFIG : 'N U T, 0, 0, 0',
	X =  236.112  mm,	Y =   -336.492  mm,	Z =   -225.950  mm,
	W =  90.000 deg,	P =   0.000 deg,	R =   30.000 deg
};
P[406]{
   GP1:
	UF : 0, UT : 6,		CONFIG : 'N U T, 0, 0, 0',
	X =  235.249  mm,	Y =   -336.990  mm,	Z =   -225.951  mm,
	W =  90.000 deg,	P =   0.000 deg,	R =   30.000 deg
};
P[407]{
   GP1:
	UF : 0, UT : 6,		CONFIG : 'N U T, 0, 0, 0',
	X =  233.586  mm,	Y =   -337.952  mm,	Z =   -225.966  mm,
	W =  90.000 deg,	P =   0.000 deg,	R =   30.000 deg
};
P[408]{
   GP1:
	UF : 0, UT : 6,		CONFIG : 'N U T, 0, 0, 0',
	X =  231.796  mm,	Y =   -338.986  mm,	Z =   -225.984  mm,
	W =  90.000 deg,	P =   0.000 deg,	R =   30.000 deg
};
P[409]{
   GP1:
	UF : 0, UT : 6,		CONFIG : 'N U T, 0, 0, 0',
	X =  228.436  mm,	Y =   -340.924  mm,	Z =   -225.948  mm,
	W =  90.000 deg,	P =   0.000 deg,	R =   30.000 deg
};
P[410]{
   GP1:
	UF : 0, UT : 6,		CONFIG : 'N U T, 0, 0, 0',
	X =  227.642  mm,	Y =   -341.377  mm,	Z =   -225.886  mm,
	W =  90.000 deg,	P =   0.000 deg,	R =   30.000 deg
};
P[411]{
   GP1:
	UF : 0, UT : 6,		CONFIG : 'N U T, 0, 0, 0',
	X =  240.000  mm,	Y =   -370.000  mm,	Z =   -270.000  mm,
	W =  90.000 deg,	P =   0.000 deg,	R =   30.000 deg
};
/END
