/PROG  WALL01.LS
/ATTR
OWNER       = MNEDITOR;
COMMENT     = "";
PROG_SIZE   = 636;
CREATE      = DATE 23-01-07  TIME 11:59:14;
MODIFIED    = DATE 23-01-07  TIME 12:02:18;
FILE_NAME   = ;
VERSION     = 0;
LINE_COUNT  = 4;
MEMORY_SIZE = 992;
PROTECT     = READ_WRITE;
TCD:  STACK_SIZE	= 0,
      TASK_PRIORITY	= 50,
      TIME_SLICE	= 0,
      BUSY_LAMP_OFF	= 0,
      ABORT_REQUEST	= 0,
      PAUSE_REQUEST	= 0;
DEFAULT_GROUP	= 1,*,*,*,*;
CONTROL_CODE	= 00000000 00000000;
/MN
   1:J P[1] 100% FINE    ;
   2:L P[2] 100mm/sec CNT0    ;
   3:L P[3] 100mm/sec CNT0    ;
   4:L P[4] 100mm/sec CNT0    ;
   5:L P[5] 100mm/sec CNT0    ;
   6:L P[6] 100mm/sec CNT0    ;
   7:L P[7] 100mm/sec CNT0    ;
   8:L P[8] 100mm/sec CNT0    ;
   9:L P[9] 100mm/sec CNT0    ;
   10:L P[10] 100mm/sec CNT0    ;
   11:L P[11] 100mm/sec CNT0    ;
   12:L P[12] 100mm/sec CNT0    ;
   13:L P[13] 100mm/sec CNT0    ;
   14:L P[14] 100mm/sec CNT0    ;
   15:L P[15] 100mm/sec CNT0    ;
   16:L P[16] 100mm/sec CNT0    ;
   17:L P[17] 100mm/sec CNT0    ;
   18:L P[18] 100mm/sec CNT0    ;
   19:L P[19] 100mm/sec CNT0    ;
   20:L P[20] 100mm/sec CNT0    ;
   21:L P[21] 100mm/sec CNT0    ;
   22:L P[22] 100mm/sec CNT0    ;
   23:L P[23] 100mm/sec CNT0    ;
   24:L P[24] 100mm/sec CNT0    ;
   25:L P[25] 100mm/sec CNT0    ;
   26:L P[26] 100mm/sec CNT0    ;
   27:L P[27] 100mm/sec CNT0    ;
   28:L P[28] 100mm/sec CNT0    ;
   29:L P[29] 100mm/sec CNT0    ;
   30:L P[30] 100mm/sec CNT0    ;
   31:L P[31] 100mm/sec CNT0    ;
   32:L P[32] 100mm/sec CNT0    ;
   33:L P[33] 100mm/sec CNT0    ;
   34:L P[34] 100mm/sec CNT0    ;
   35:L P[35] 100mm/sec CNT0    ;
   36:L P[36] 100mm/sec CNT0    ;
   37:L P[37] 100mm/sec CNT0    ;
   38:L P[38] 100mm/sec CNT0    ;
   39:L P[39] 100mm/sec CNT0    ;
   40:L P[40] 100mm/sec CNT0    ;
   41:L P[41] 100mm/sec CNT0    ;
   42:L P[42] 100mm/sec CNT0    ;
   43:L P[43] 100mm/sec CNT0    ;
   44:L P[44] 100mm/sec CNT0    ;
   45:L P[45] 100mm/sec CNT0    ;
   46:L P[46] 100mm/sec CNT0    ;
   47:L P[47] 100mm/sec CNT0    ;
   48:L P[48] 100mm/sec CNT0    ;
   49:L P[49] 100mm/sec CNT0    ;
   50:L P[50] 100mm/sec CNT0    ;
   51:L P[51] 100mm/sec CNT0    ;
   52:L P[52] 100mm/sec CNT0    ;
   53:L P[53] 100mm/sec CNT0    ;
   54:L P[54] 100mm/sec CNT0    ;
   55:L P[55] 100mm/sec CNT0    ;
   56:L P[56] 100mm/sec CNT0    ;
   57:L P[57] 100mm/sec CNT0    ;
   58:L P[58] 100mm/sec CNT0    ;
   59:L P[59] 100mm/sec CNT0    ;
   60:L P[60] 100mm/sec CNT0    ;
   61:L P[61] 100mm/sec CNT0    ;
   62:L P[62] 100mm/sec CNT0    ;
   63:L P[63] 100mm/sec CNT0    ;
   64:L P[64] 100mm/sec CNT0    ;
   65:L P[65] 100mm/sec CNT0    ;
   66:L P[66] 100mm/sec CNT0    ;
   67:L P[67] 100mm/sec CNT0    ;
   68:L P[68] 100mm/sec CNT0    ;
   69:L P[69] 100mm/sec CNT0    ;
   70:L P[70] 100mm/sec CNT0    ;
   71:L P[71] 100mm/sec CNT0    ;
   72:L P[72] 100mm/sec CNT0    ;
   73:L P[73] 100mm/sec CNT0    ;
   74:L P[74] 100mm/sec CNT0    ;
   75:L P[75] 100mm/sec CNT0    ;
   76:L P[76] 100mm/sec CNT0    ;
   77:L P[77] 100mm/sec CNT0    ;
   78:L P[78] 100mm/sec CNT0    ;
   79:L P[79] 100mm/sec CNT0    ;
   80:L P[80] 100mm/sec CNT0    ;
   81:L P[81] 100mm/sec CNT0    ;
   82:L P[82] 100mm/sec CNT0    ;
   83:L P[83] 100mm/sec CNT0    ;
   84:L P[84] 100mm/sec CNT0    ;
   85:L P[85] 100mm/sec CNT0    ;
   86:L P[86] 100mm/sec CNT0    ;
   87:L P[87] 100mm/sec CNT0    ;
   88:L P[88] 100mm/sec CNT0    ;
   89:L P[89] 100mm/sec CNT0    ;
   90:L P[90] 100mm/sec CNT0    ;
   91:L P[91] 100mm/sec CNT0    ;
   92:L P[92] 100mm/sec CNT0    ;
   93:L P[93] 100mm/sec CNT0    ;
   94:L P[94] 100mm/sec CNT0    ;
   95:L P[95] 100mm/sec CNT0    ;
   96:L P[96] 100mm/sec CNT0    ;
   97:L P[97] 100mm/sec CNT0    ;
   98:L P[98] 100mm/sec CNT0    ;
   99:L P[99] 100mm/sec CNT0    ;
   100:L P[100] 100mm/sec CNT0    ;
   101:L P[101] 100mm/sec CNT0    ;
   102:L P[102] 100mm/sec CNT0    ;
   103:L P[103] 100mm/sec CNT0    ;
   104:L P[104] 100mm/sec CNT0    ;
   105:L P[105] 100mm/sec CNT0    ;
   106:L P[106] 100mm/sec CNT0    ;
   107:L P[107] 100mm/sec CNT0    ;
   108:L P[108] 100mm/sec CNT0    ;
   109:L P[109] 100mm/sec CNT0    ;
   110:L P[110] 100mm/sec CNT0    ;
   111:L P[111] 100mm/sec CNT0    ;
   112:L P[112] 100mm/sec CNT0    ;
   113:L P[113] 100mm/sec CNT0    ;
   114:L P[114] 100mm/sec CNT0    ;
   115:L P[115] 100mm/sec CNT0    ;
   116:L P[116] 100mm/sec CNT0    ;
   117:L P[117] 100mm/sec CNT0    ;
   118:L P[118] 100mm/sec CNT0    ;
   119:L P[119] 100mm/sec CNT0    ;
   120:L P[120] 100mm/sec CNT0    ;
   121:L P[121] 100mm/sec CNT0    ;
   122:L P[122] 100mm/sec CNT0    ;
   123:L P[123] 100mm/sec CNT0    ;
   124:L P[124] 100mm/sec CNT0    ;
   125:L P[125] 100mm/sec CNT0    ;
   126:L P[126] 100mm/sec CNT0    ;
   127:L P[127] 100mm/sec CNT0    ;
   128:L P[128] 100mm/sec CNT0    ;
   129:L P[129] 100mm/sec CNT0    ;
   130:L P[130] 100mm/sec CNT0    ;
   131:L P[131] 100mm/sec CNT0    ;
   132:L P[132] 100mm/sec CNT0    ;
   133:L P[133] 100mm/sec CNT0    ;
   134:L P[134] 100mm/sec CNT0    ;
   135:L P[135] 100mm/sec CNT0    ;
   136:L P[136] 100mm/sec CNT0    ;
   137:L P[137] 100mm/sec CNT0    ;
   138:L P[138] 100mm/sec CNT0    ;
   139:L P[139] 100mm/sec CNT0    ;
   140:L P[140] 100mm/sec CNT0    ;
   141:L P[141] 100mm/sec CNT0    ;
   142:L P[142] 100mm/sec CNT0    ;
   143:L P[143] 100mm/sec CNT0    ;
   144:L P[144] 100mm/sec CNT0    ;
   145:L P[145] 100mm/sec CNT0    ;
   146:L P[146] 100mm/sec CNT0    ;
   147:L P[147] 100mm/sec CNT0    ;
   148:L P[148] 100mm/sec CNT0    ;
   149:L P[149] 100mm/sec CNT0    ;
   150:L P[150] 100mm/sec CNT0    ;
   151:L P[151] 100mm/sec CNT0    ;
   152:L P[152] 100mm/sec CNT0    ;
   153:L P[153] 100mm/sec CNT0    ;
   154:L P[154] 100mm/sec CNT0    ;
   155:L P[155] 100mm/sec CNT0    ;
   156:L P[156] 100mm/sec CNT0    ;
   157:L P[157] 100mm/sec CNT0    ;
   158:L P[158] 100mm/sec CNT0    ;
   159:L P[159] 100mm/sec CNT0    ;
   160:L P[160] 100mm/sec CNT0    ;
   161:L P[161] 100mm/sec CNT0    ;
   162:L P[162] 100mm/sec CNT0    ;
   163:L P[163] 100mm/sec CNT0    ;
   164:L P[164] 100mm/sec CNT0    ;
   165:L P[165] 100mm/sec CNT0    ;
   166:L P[166] 100mm/sec CNT0    ;
   167:L P[167] 100mm/sec CNT0    ;
   168:L P[168] 100mm/sec CNT0    ;
   169:L P[169] 100mm/sec CNT0    ;
   170:L P[170] 100mm/sec CNT0    ;
   171:L P[171] 100mm/sec CNT0    ;
   172:L P[172] 100mm/sec CNT0    ;
   173:L P[173] 100mm/sec CNT0    ;
   174:L P[174] 100mm/sec CNT0    ;
   175:L P[175] 100mm/sec CNT0    ;
   176:L P[176] 100mm/sec CNT0    ;
   177:L P[177] 100mm/sec CNT0    ;
   178:L P[178] 100mm/sec CNT0    ;
   179:L P[179] 100mm/sec CNT0    ;
   180:L P[180] 100mm/sec CNT0    ;
   181:L P[181] 100mm/sec CNT0    ;
   182:L P[182] 100mm/sec CNT0    ;
   183:L P[183] 100mm/sec CNT0    ;
   184:L P[184] 100mm/sec CNT0    ;
   185:L P[185] 100mm/sec CNT0    ;
   186:L P[186] 100mm/sec CNT0    ;
   187:L P[187] 100mm/sec CNT0    ;
   188:L P[188] 100mm/sec CNT0    ;
   189:L P[189] 100mm/sec CNT0    ;
   190:L P[190] 100mm/sec CNT0    ;
   191:L P[191] 100mm/sec CNT0    ;
   192:L P[192] 100mm/sec CNT0    ;
   193:L P[193] 100mm/sec CNT0    ;
   194:L P[194] 100mm/sec CNT0    ;
   195:L P[195] 100mm/sec CNT0    ;
   196:L P[196] 100mm/sec CNT0    ;
   197:L P[197] 100mm/sec CNT0    ;
   198:L P[198] 100mm/sec CNT0    ;
   199:L P[199] 100mm/sec CNT0    ;
   200:L P[200] 100mm/sec CNT0    ;
   201:L P[201] 100mm/sec CNT0    ;
   202:L P[202] 100mm/sec CNT0    ;
   203:L P[203] 100mm/sec CNT0    ;
   204:L P[204] 100mm/sec CNT0    ;
   205:L P[205] 100mm/sec CNT0    ;
   206:L P[206] 100mm/sec CNT0    ;
   207:L P[207] 100mm/sec CNT0    ;
   208:L P[208] 100mm/sec CNT0    ;
   209:L P[209] 100mm/sec CNT0    ;
   210:L P[210] 100mm/sec CNT0    ;
   211:L P[211] 100mm/sec CNT0    ;
   212:L P[212] 100mm/sec CNT0    ;
   213:L P[213] 100mm/sec CNT0    ;
   214:L P[214] 100mm/sec CNT0    ;
   215:L P[215] 100mm/sec CNT0    ;
   216:L P[216] 100mm/sec CNT0    ;
   217:L P[217] 100mm/sec CNT0    ;
   218:L P[218] 100mm/sec CNT0    ;
   219:L P[219] 100mm/sec CNT0    ;
   220:L P[220] 100mm/sec CNT0    ;
   221:L P[221] 100mm/sec CNT0    ;
   222:L P[222] 100mm/sec CNT0    ;
   223:L P[223] 100mm/sec CNT0    ;
   224:L P[224] 100mm/sec CNT0    ;
   225:L P[225] 100mm/sec CNT0    ;
   226:L P[226] 100mm/sec CNT0    ;
   227:L P[227] 100mm/sec CNT0    ;
   228:L P[228] 100mm/sec CNT0    ;
   229:L P[229] 100mm/sec CNT0    ;
   230:L P[230] 100mm/sec CNT0    ;
   231:L P[231] 100mm/sec CNT0    ;
   232:L P[232] 100mm/sec CNT0    ;
   233:L P[233] 100mm/sec CNT0    ;
   234:L P[234] 100mm/sec CNT0    ;
   235:L P[235] 100mm/sec CNT0    ;
   236:L P[236] 100mm/sec CNT0    ;
   237:L P[237] 100mm/sec CNT0    ;
   238:L P[238] 100mm/sec CNT0    ;
   239:L P[239] 100mm/sec CNT0    ;
   240:L P[240] 100mm/sec CNT0    ;
   241:L P[241] 100mm/sec CNT0    ;
   242:L P[242] 100mm/sec CNT0    ;
   243:L P[243] 100mm/sec CNT0    ;
   244:L P[244] 100mm/sec CNT0    ;
   245:L P[245] 100mm/sec CNT0    ;
   246:L P[246] 100mm/sec CNT0    ;
   247:L P[247] 100mm/sec CNT0    ;
   248:L P[248] 100mm/sec CNT0    ;
   249:L P[249] 100mm/sec CNT0    ;
   250:L P[250] 100mm/sec CNT0    ;
   251:L P[251] 100mm/sec CNT0    ;
   252:L P[252] 100mm/sec CNT0    ;
   253:L P[253] 100mm/sec CNT0    ;
   254:L P[254] 100mm/sec CNT0    ;
   255:L P[255] 100mm/sec CNT0    ;
   256:L P[256] 100mm/sec CNT0    ;
   257:L P[257] 100mm/sec CNT0    ;
   258:L P[258] 100mm/sec CNT0    ;
   259:L P[259] 100mm/sec CNT0    ;
/POS
P[1]{
   GP1:
	UF : 0, UT : 6,		CONFIG : 'N U T, 0, 0, 0',
	X =  225.505  mm,	Y =   -357.239  mm,	Z =   -263.425  mm,
	W =  92.756 deg,	P =   -1.592 deg,	R =   90.000 deg
};
P[2]{
   GP1:
	UF : 0, UT : 6,		CONFIG : 'N U T, 0, 0, 0',
	X =  214.333  mm,	Y =   -363.688  mm,	Z =   -263.423  mm,
	W =  92.756 deg,	P =   -1.592 deg,	R =   90.000 deg
};
P[3]{
   GP1:
	UF : 0, UT : 6,		CONFIG : 'N U T, 0, 0, 0',
	X =  203.141  mm,	Y =   -370.154  mm,	Z =   -263.444  mm,
	W =  92.756 deg,	P =   -1.592 deg,	R =   90.000 deg
};
P[4]{
   GP1:
	UF : 0, UT : 6,		CONFIG : 'N U T, 0, 0, 0',
	X =  179.473  mm,	Y =   -379.944  mm,	Z =   -262.943  mm,
	W =  88.408 deg,	P =   -2.756 deg,	R =   90.000 deg
};
P[5]{
   GP1:
	UF : 0, UT : 6,		CONFIG : 'N U T, 0, 0, 0',
	X =  179.075  mm,	Y =   -382.770  mm,	Z =   -263.420  mm,
	W =  88.408 deg,	P =   -2.756 deg,	R =   90.000 deg
};
P[6]{
   GP1:
	UF : 0, UT : 6,		CONFIG : 'N U T, 0, 0, 0',
	X =  180.284  mm,	Y =   -387.121  mm,	Z =   -263.432  mm,
	W =  88.408 deg,	P =   -2.756 deg,	R =   90.000 deg
};
P[7]{
   GP1:
	UF : 0, UT : 6,		CONFIG : 'N U T, 0, 0, 0',
	X =  182.446  mm,	Y =   -390.921  mm,	Z =   -263.393  mm,
	W =  88.408 deg,	P =   -2.756 deg,	R =   90.000 deg
};
P[8]{
   GP1:
	UF : 0, UT : 6,		CONFIG : 'N U T, 0, 0, 0',
	X =  193.117  mm,	Y =   -409.395  mm,	Z =   -263.422  mm,
	W =  88.408 deg,	P =   -2.756 deg,	R =   90.000 deg
};
P[9]{
   GP1:
	UF : 0, UT : 6,		CONFIG : 'N U T, 0, 0, 0',
	X =  195.311  mm,	Y =   -413.168  mm,	Z =   -263.369  mm,
	W =  88.408 deg,	P =   -2.756 deg,	R =   90.000 deg
};
P[10]{
   GP1:
	UF : 0, UT : 6,		CONFIG : 'N U T, 0, 0, 0',
	X =  198.446  mm,	Y =   -416.349  mm,	Z =   -263.396  mm,
	W =  88.408 deg,	P =   -2.756 deg,	R =   90.000 deg
};
P[11]{
   GP1:
	UF : 0, UT : 6,		CONFIG : 'N U T, 0, 0, 0',
	X =  201.098  mm,	Y =   -417.411  mm,	Z =   -263.292  mm,
	W =  88.408 deg,	P =   -2.756 deg,	R =   90.000 deg
};
P[12]{
   GP1:
	UF : 0, UT : 6,		CONFIG : 'N U T, 0, 0, 0',
	X =  215.861  mm,	Y =   -405.048  mm,	Z =   -263.433  mm,
	W =  87.244 deg,	P =   1.592 deg,	R =   90.000 deg
};
P[13]{
   GP1:
	UF : 0, UT : 6,		CONFIG : 'N U T, 0, 0, 0',
	X =  224.253  mm,	Y =   -400.222  mm,	Z =   -263.414  mm,
	W =  87.244 deg,	P =   1.592 deg,	R =   90.000 deg
};
P[14]{
   GP1:
	UF : 0, UT : 6,		CONFIG : 'N U T, 0, 0, 0',
	X =  238.196  mm,	Y =   -392.169  mm,	Z =   -263.435  mm,
	W =  87.244 deg,	P =   1.592 deg,	R =   90.000 deg
};
P[15]{
   GP1:
	UF : 0, UT : 6,		CONFIG : 'N U T, 0, 0, 0',
	X =  269.016  mm,	Y =   -374.378  mm,	Z =   -263.424  mm,
	W =  87.244 deg,	P =   1.592 deg,	R =   90.000 deg
};
P[16]{
   GP1:
	UF : 0, UT : 6,		CONFIG : 'N U T, 0, 0, 0',
	X =  282.973  mm,	Y =   -366.240  mm,	Z =   -263.419  mm,
	W =  87.244 deg,	P =   1.592 deg,	R =   90.000 deg
};
P[17]{
   GP1:
	UF : 0, UT : 6,		CONFIG : 'N U T, 0, 0, 0',
	X =  299.376  mm,	Y =   -361.834  mm,	Z =   -263.424  mm,
	W =  91.592 deg,	P =   2.756 deg,	R =   90.000 deg
};
P[18]{
   GP1:
	UF : 0, UT : 6,		CONFIG : 'N U T, 0, 0, 0',
	X =  300.951  mm,	Y =   -357.119  mm,	Z =   -263.290  mm,
	W =  91.592 deg,	P =   2.756 deg,	R =   90.000 deg
};
P[19]{
   GP1:
	UF : 0, UT : 6,		CONFIG : 'N U T, 0, 0, 0',
	X =  295.420  mm,	Y =   -345.388  mm,	Z =   -263.412  mm,
	W =  91.592 deg,	P =   2.756 deg,	R =   90.000 deg
};
P[20]{
   GP1:
	UF : 0, UT : 6,		CONFIG : 'N U T, 0, 0, 0',
	X =  293.311  mm,	Y =   -341.726  mm,	Z =   -263.368  mm,
	W =  91.592 deg,	P =   2.756 deg,	R =   90.000 deg
};
P[21]{
   GP1:
	UF : 0, UT : 6,		CONFIG : 'N U T, 0, 0, 0',
	X =  281.694  mm,	Y =   -323.705  mm,	Z =   -263.387  mm,
	W =  91.592 deg,	P =   2.756 deg,	R =   90.000 deg
};
P[22]{
   GP1:
	UF : 0, UT : 6,		CONFIG : 'N U T, 0, 0, 0',
	X =  276.737  mm,	Y =   -322.659  mm,	Z =   -263.402  mm,
	W =  91.592 deg,	P =   2.756 deg,	R =   90.000 deg
};
P[23]{
   GP1:
	UF : 0, UT : 6,		CONFIG : 'N U T, 0, 0, 0',
	X =  259.109  mm,	Y =   -337.835  mm,	Z =   -263.432  mm,
	W =  92.756 deg,	P =   -1.592 deg,	R =   90.000 deg
};
P[24]{
   GP1:
	UF : 0, UT : 6,		CONFIG : 'N U T, 0, 0, 0',
	X =  256.328  mm,	Y =   -339.441  mm,	Z =   -263.402  mm,
	W =  92.756 deg,	P =   -1.592 deg,	R =   90.000 deg
};
P[25]{
   GP1:
	UF : 0, UT : 6,		CONFIG : 'N U T, 0, 0, 0',
	X =  239.521  mm,	Y =   -349.145  mm,	Z =   -263.434  mm,
	W =  92.756 deg,	P =   -1.592 deg,	R =   90.000 deg
};
P[26]{
   GP1:
	UF : 0, UT : 6,		CONFIG : 'N U T, 0, 0, 0',
	X =  228.145  mm,	Y =   -355.301  mm,	Z =   -258.583  mm,
	W =  92.756 deg,	P =   -1.592 deg,	R =   90.000 deg
};
P[27]{
   GP1:
	UF : 0, UT : 6,		CONFIG : 'N U T, 0, 0, 0',
	X =  225.349  mm,	Y =   -356.909  mm,	Z =   -258.499  mm,
	W =  92.756 deg,	P =   -1.592 deg,	R =   90.000 deg
};
P[28]{
   GP1:
	UF : 0, UT : 6,		CONFIG : 'N U T, 0, 0, 0',
	X =  222.492  mm,	Y =   -358.557  mm,	Z =   -258.485  mm,
	W =  92.756 deg,	P =   -1.592 deg,	R =   90.000 deg
};
P[29]{
   GP1:
	UF : 0, UT : 6,		CONFIG : 'N U T, 0, 0, 0',
	X =  219.670  mm,	Y =   -360.178  mm,	Z =   -258.385  mm,
	W =  92.756 deg,	P =   -1.592 deg,	R =   90.000 deg
};
P[30]{
   GP1:
	UF : 0, UT : 6,		CONFIG : 'N U T, 0, 0, 0',
	X =  216.871  mm,	Y =   -361.795  mm,	Z =   -258.384  mm,
	W =  92.756 deg,	P =   -1.592 deg,	R =   90.000 deg
};
P[31]{
   GP1:
	UF : 0, UT : 6,		CONFIG : 'N U T, 0, 0, 0',
	X =  214.002  mm,	Y =   -363.453  mm,	Z =   -258.409  mm,
	W =  92.756 deg,	P =   -1.592 deg,	R =   90.000 deg
};
P[32]{
   GP1:
	UF : 0, UT : 6,		CONFIG : 'N U T, 0, 0, 0',
	X =  211.194  mm,	Y =   -365.075  mm,	Z =   -258.417  mm,
	W =  92.756 deg,	P =   -1.592 deg,	R =   90.000 deg
};
P[33]{
   GP1:
	UF : 0, UT : 6,		CONFIG : 'N U T, 0, 0, 0',
	X =  208.411  mm,	Y =   -366.686  mm,	Z =   -258.465  mm,
	W =  92.756 deg,	P =   -1.592 deg,	R =   90.000 deg
};
P[34]{
   GP1:
	UF : 0, UT : 6,		CONFIG : 'N U T, 0, 0, 0',
	X =  205.555  mm,	Y =   -368.333  mm,	Z =   -258.446  mm,
	W =  92.756 deg,	P =   -1.592 deg,	R =   90.000 deg
};
P[35]{
   GP1:
	UF : 0, UT : 6,		CONFIG : 'N U T, 0, 0, 0',
	X =  202.740  mm,	Y =   -369.956  mm,	Z =   -258.419  mm,
	W =  92.756 deg,	P =   -1.592 deg,	R =   90.000 deg
};
P[36]{
   GP1:
	UF : 0, UT : 6,		CONFIG : 'N U T, 0, 0, 0',
	X =  199.860  mm,	Y =   -371.629  mm,	Z =   -258.541  mm,
	W =  92.756 deg,	P =   -1.592 deg,	R =   90.000 deg
};
P[37]{
   GP1:
	UF : 0, UT : 6,		CONFIG : 'N U T, 0, 0, 0',
	X =  197.066  mm,	Y =   -373.243  mm,	Z =   -258.369  mm,
	W =  92.756 deg,	P =   -1.592 deg,	R =   90.000 deg
};
P[38]{
   GP1:
	UF : 0, UT : 6,		CONFIG : 'N U T, 0, 0, 0',
	X =  180.976  mm,	Y =   -377.055  mm,	Z =   -258.491  mm,
	W =  88.408 deg,	P =   -2.756 deg,	R =   90.000 deg
};
P[39]{
   GP1:
	UF : 0, UT : 6,		CONFIG : 'N U T, 0, 0, 0',
	X =  179.038  mm,	Y =   -379.843  mm,	Z =   -258.181  mm,
	W =  88.408 deg,	P =   -2.756 deg,	R =   90.000 deg
};
P[40]{
   GP1:
	UF : 0, UT : 6,		CONFIG : 'N U T, 0, 0, 0',
	X =  178.616  mm,	Y =   -383.118  mm,	Z =   -258.432  mm,
	W =  88.408 deg,	P =   -2.756 deg,	R =   90.000 deg
};
P[41]{
   GP1:
	UF : 0, UT : 6,		CONFIG : 'N U T, 0, 0, 0',
	X =  179.997  mm,	Y =   -387.382  mm,	Z =   -258.468  mm,
	W =  88.408 deg,	P =   -2.756 deg,	R =   90.000 deg
};
P[42]{
   GP1:
	UF : 0, UT : 6,		CONFIG : 'N U T, 0, 0, 0',
	X =  182.122  mm,	Y =   -391.078  mm,	Z =   -258.511  mm,
	W =  88.408 deg,	P =   -2.756 deg,	R =   90.000 deg
};
P[43]{
   GP1:
	UF : 0, UT : 6,		CONFIG : 'N U T, 0, 0, 0',
	X =  184.251  mm,	Y =   -394.754  mm,	Z =   -258.594  mm,
	W =  88.408 deg,	P =   -2.756 deg,	R =   90.000 deg
};
P[44]{
   GP1:
	UF : 0, UT : 6,		CONFIG : 'N U T, 0, 0, 0',
	X =  186.364  mm,	Y =   -398.433  mm,	Z =   -258.457  mm,
	W =  88.408 deg,	P =   -2.756 deg,	R =   90.000 deg
};
P[45]{
   GP1:
	UF : 0, UT : 6,		CONFIG : 'N U T, 0, 0, 0',
	X =  188.534  mm,	Y =   -402.200  mm,	Z =   -258.392  mm,
	W =  88.408 deg,	P =   -2.756 deg,	R =   90.000 deg
};
P[46]{
   GP1:
	UF : 0, UT : 6,		CONFIG : 'N U T, 0, 0, 0',
	X =  190.712  mm,	Y =   -405.970  mm,	Z =   -258.399  mm,
	W =  88.408 deg,	P =   -2.756 deg,	R =   90.000 deg
};
P[47]{
   GP1:
	UF : 0, UT : 6,		CONFIG : 'N U T, 0, 0, 0',
	X =  192.855  mm,	Y =   -409.662  mm,	Z =   -258.547  mm,
	W =  88.408 deg,	P =   -2.756 deg,	R =   90.000 deg
};
P[48]{
   GP1:
	UF : 0, UT : 6,		CONFIG : 'N U T, 0, 0, 0',
	X =  194.955  mm,	Y =   -413.307  mm,	Z =   -258.314  mm,
	W =  88.408 deg,	P =   -2.756 deg,	R =   90.000 deg
};
P[49]{
   GP1:
	UF : 0, UT : 6,		CONFIG : 'N U T, 0, 0, 0',
	X =  198.035  mm,	Y =   -416.659  mm,	Z =   -258.444  mm,
	W =  88.408 deg,	P =   -2.756 deg,	R =   90.000 deg
};
P[50]{
   GP1:
	UF : 0, UT : 6,		CONFIG : 'N U T, 0, 0, 0',
	X =  200.999  mm,	Y =   -417.864  mm,	Z =   -258.318  mm,
	W =  88.408 deg,	P =   -2.756 deg,	R =   90.000 deg
};
P[51]{
   GP1:
	UF : 0, UT : 6,		CONFIG : 'N U T, 0, 0, 0',
	X =  204.345  mm,	Y =   -417.590  mm,	Z =   -258.485  mm,
	W =  88.408 deg,	P =   -2.756 deg,	R =   90.000 deg
};
P[52]{
   GP1:
	UF : 0, UT : 6,		CONFIG : 'N U T, 0, 0, 0',
	X =  215.767  mm,	Y =   -405.527  mm,	Z =   -258.519  mm,
	W =  87.244 deg,	P =   1.592 deg,	R =   90.000 deg
};
P[53]{
   GP1:
	UF : 0, UT : 6,		CONFIG : 'N U T, 0, 0, 0',
	X =  218.639  mm,	Y =   -403.891  mm,	Z =   -258.416  mm,
	W =  87.244 deg,	P =   1.592 deg,	R =   90.000 deg
};
P[54]{
   GP1:
	UF : 0, UT : 6,		CONFIG : 'N U T, 0, 0, 0',
	X =  221.476  mm,	Y =   -402.247  mm,	Z =   -258.487  mm,
	W =  87.244 deg,	P =   1.592 deg,	R =   90.000 deg
};
P[55]{
   GP1:
	UF : 0, UT : 6,		CONFIG : 'N U T, 0, 0, 0',
	X =  224.243  mm,	Y =   -400.650  mm,	Z =   -258.476  mm,
	W =  87.244 deg,	P =   1.592 deg,	R =   90.000 deg
};
P[56]{
   GP1:
	UF : 0, UT : 6,		CONFIG : 'N U T, 0, 0, 0',
	X =  227.022  mm,	Y =   -399.048  mm,	Z =   -258.453  mm,
	W =  87.244 deg,	P =   1.592 deg,	R =   90.000 deg
};
P[57]{
   GP1:
	UF : 0, UT : 6,		CONFIG : 'N U T, 0, 0, 0',
	X =  229.862  mm,	Y =   -397.408  mm,	Z =   -258.454  mm,
	W =  87.244 deg,	P =   1.592 deg,	R =   90.000 deg
};
P[58]{
   GP1:
	UF : 0, UT : 6,		CONFIG : 'N U T, 0, 0, 0',
	X =  232.730  mm,	Y =   -395.756  mm,	Z =   -258.410  mm,
	W =  87.244 deg,	P =   1.592 deg,	R =   90.000 deg
};
P[59]{
   GP1:
	UF : 0, UT : 6,		CONFIG : 'N U T, 0, 0, 0',
	X =  235.473  mm,	Y =   -394.170  mm,	Z =   -258.431  mm,
	W =  87.244 deg,	P =   1.592 deg,	R =   90.000 deg
};
P[60]{
   GP1:
	UF : 0, UT : 6,		CONFIG : 'N U T, 0, 0, 0',
	X =  238.342  mm,	Y =   -392.514  mm,	Z =   -258.431  mm,
	W =  87.244 deg,	P =   1.592 deg,	R =   90.000 deg
};
P[61]{
   GP1:
	UF : 0, UT : 6,		CONFIG : 'N U T, 0, 0, 0',
	X =  241.165  mm,	Y =   -390.884  mm,	Z =   -258.420  mm,
	W =  87.244 deg,	P =   1.592 deg,	R =   90.000 deg
};
P[62]{
   GP1:
	UF : 0, UT : 6,		CONFIG : 'N U T, 0, 0, 0',
	X =  244.000  mm,	Y =   -389.242  mm,	Z =   -258.487  mm,
	W =  87.244 deg,	P =   1.592 deg,	R =   90.000 deg
};
P[63]{
   GP1:
	UF : 0, UT : 6,		CONFIG : 'N U T, 0, 0, 0',
	X =  246.723  mm,	Y =   -387.668  mm,	Z =   -258.507  mm,
	W =  87.244 deg,	P =   1.592 deg,	R =   90.000 deg
};
P[64]{
   GP1:
	UF : 0, UT : 6,		CONFIG : 'N U T, 0, 0, 0',
	X =  249.661  mm,	Y =   -385.978  mm,	Z =   -258.436  mm,
	W =  87.244 deg,	P =   1.592 deg,	R =   90.000 deg
};
P[65]{
   GP1:
	UF : 0, UT : 6,		CONFIG : 'N U T, 0, 0, 0',
	X =  252.475  mm,	Y =   -384.353  mm,	Z =   -258.428  mm,
	W =  87.244 deg,	P =   1.592 deg,	R =   90.000 deg
};
P[66]{
   GP1:
	UF : 0, UT : 6,		CONFIG : 'N U T, 0, 0, 0',
	X =  255.293  mm,	Y =   -382.728  mm,	Z =   -258.407  mm,
	W =  87.244 deg,	P =   1.592 deg,	R =   90.000 deg
};
P[67]{
   GP1:
	UF : 0, UT : 6,		CONFIG : 'N U T, 0, 0, 0',
	X =  258.068  mm,	Y =   -381.117  mm,	Z =   -258.510  mm,
	W =  87.244 deg,	P =   1.592 deg,	R =   90.000 deg
};
P[68]{
   GP1:
	UF : 0, UT : 6,		CONFIG : 'N U T, 0, 0, 0',
	X =  260.889  mm,	Y =   -379.489  mm,	Z =   -258.504  mm,
	W =  87.244 deg,	P =   1.592 deg,	R =   90.000 deg
};
P[69]{
   GP1:
	UF : 0, UT : 6,		CONFIG : 'N U T, 0, 0, 0',
	X =  263.729  mm,	Y =   -377.853  mm,	Z =   -258.468  mm,
	W =  87.244 deg,	P =   1.592 deg,	R =   90.000 deg
};
P[70]{
   GP1:
	UF : 0, UT : 6,		CONFIG : 'N U T, 0, 0, 0',
	X =  266.513  mm,	Y =   -376.245  mm,	Z =   -258.469  mm,
	W =  87.244 deg,	P =   1.592 deg,	R =   90.000 deg
};
P[71]{
   GP1:
	UF : 0, UT : 6,		CONFIG : 'N U T, 0, 0, 0',
	X =  269.377  mm,	Y =   -374.596  mm,	Z =   -258.410  mm,
	W =  87.244 deg,	P =   1.592 deg,	R =   90.000 deg
};
P[72]{
   GP1:
	UF : 0, UT : 6,		CONFIG : 'N U T, 0, 0, 0',
	X =  272.223  mm,	Y =   -372.955  mm,	Z =   -258.376  mm,
	W =  87.244 deg,	P =   1.592 deg,	R =   90.000 deg
};
P[73]{
   GP1:
	UF : 0, UT : 6,		CONFIG : 'N U T, 0, 0, 0',
	X =  274.963  mm,	Y =   -371.371  mm,	Z =   -258.408  mm,
	W =  87.244 deg,	P =   1.592 deg,	R =   90.000 deg
};
P[74]{
   GP1:
	UF : 0, UT : 6,		CONFIG : 'N U T, 0, 0, 0',
	X =  277.796  mm,	Y =   -369.729  mm,	Z =   -258.477  mm,
	W =  87.244 deg,	P =   1.592 deg,	R =   90.000 deg
};
P[75]{
   GP1:
	UF : 0, UT : 6,		CONFIG : 'N U T, 0, 0, 0',
	X =  280.668  mm,	Y =   -368.077  mm,	Z =   -258.409  mm,
	W =  87.244 deg,	P =   1.592 deg,	R =   90.000 deg
};
P[76]{
   GP1:
	UF : 0, UT : 6,		CONFIG : 'N U T, 0, 0, 0',
	X =  283.414  mm,	Y =   -366.424  mm,	Z =   -258.508  mm,
	W =  87.244 deg,	P =   1.592 deg,	R =   90.000 deg
};
P[77]{
   GP1:
	UF : 0, UT : 6,		CONFIG : 'N U T, 0, 0, 0',
	X =  299.696  mm,	Y =   -362.117  mm,	Z =   -258.485  mm,
	W =  91.592 deg,	P =   2.756 deg,	R =   90.000 deg
};
P[78]{
   GP1:
	UF : 0, UT : 6,		CONFIG : 'N U T, 0, 0, 0',
	X =  301.221  mm,	Y =   -359.571  mm,	Z =   -257.850  mm,
	W =  91.592 deg,	P =   2.756 deg,	R =   90.000 deg
};
P[79]{
   GP1:
	UF : 0, UT : 6,		CONFIG : 'N U T, 0, 0, 0',
	X =  301.389  mm,	Y =   -356.904  mm,	Z =   -258.433  mm,
	W =  91.592 deg,	P =   2.756 deg,	R =   90.000 deg
};
P[80]{
   GP1:
	UF : 0, UT : 6,		CONFIG : 'N U T, 0, 0, 0',
	X =  300.061  mm,	Y =   -352.728  mm,	Z =   -258.499  mm,
	W =  91.592 deg,	P =   2.756 deg,	R =   90.000 deg
};
P[81]{
   GP1:
	UF : 0, UT : 6,		CONFIG : 'N U T, 0, 0, 0',
	X =  297.943  mm,	Y =   -349.030  mm,	Z =   -258.477  mm,
	W =  91.592 deg,	P =   2.756 deg,	R =   90.000 deg
};
P[82]{
   GP1:
	UF : 0, UT : 6,		CONFIG : 'N U T, 0, 0, 0',
	X =  295.749  mm,	Y =   -345.224  mm,	Z =   -258.426  mm,
	W =  91.592 deg,	P =   2.756 deg,	R =   90.000 deg
};
P[83]{
   GP1:
	UF : 0, UT : 6,		CONFIG : 'N U T, 0, 0, 0',
	X =  293.615  mm,	Y =   -341.518  mm,	Z =   -258.364  mm,
	W =  91.592 deg,	P =   2.756 deg,	R =   90.000 deg
};
P[84]{
   GP1:
	UF : 0, UT : 6,		CONFIG : 'N U T, 0, 0, 0',
	X =  291.451  mm,	Y =   -337.789  mm,	Z =   -258.495  mm,
	W =  91.592 deg,	P =   2.756 deg,	R =   90.000 deg
};
P[85]{
   GP1:
	UF : 0, UT : 6,		CONFIG : 'N U T, 0, 0, 0',
	X =  289.308  mm,	Y =   -334.073  mm,	Z =   -258.459  mm,
	W =  91.592 deg,	P =   2.756 deg,	R =   90.000 deg
};
P[86]{
   GP1:
	UF : 0, UT : 6,		CONFIG : 'N U T, 0, 0, 0',
	X =  287.123  mm,	Y =   -330.289  mm,	Z =   -258.471  mm,
	W =  91.592 deg,	P =   2.756 deg,	R =   90.000 deg
};
P[87]{
   GP1:
	UF : 0, UT : 6,		CONFIG : 'N U T, 0, 0, 0',
	X =  284.997  mm,	Y =   -326.636  mm,	Z =   -258.489  mm,
	W =  91.592 deg,	P =   2.756 deg,	R =   90.000 deg
};
P[88]{
   GP1:
	UF : 0, UT : 6,		CONFIG : 'N U T, 0, 0, 0',
	X =  282.002  mm,	Y =   -323.357  mm,	Z =   -258.392  mm,
	W =  91.592 deg,	P =   2.756 deg,	R =   90.000 deg
};
P[89]{
   GP1:
	UF : 0, UT : 6,		CONFIG : 'N U T, 0, 0, 0',
	X =  279.616  mm,	Y =   -322.200  mm,	Z =   -258.004  mm,
	W =  91.592 deg,	P =   2.756 deg,	R =   90.000 deg
};
P[90]{
   GP1:
	UF : 0, UT : 6,		CONFIG : 'N U T, 0, 0, 0',
	X =  276.723  mm,	Y =   -322.231  mm,	Z =   -258.471  mm,
	W =  91.592 deg,	P =   2.756 deg,	R =   90.000 deg
};
P[91]{
   GP1:
	UF : 0, UT : 6,		CONFIG : 'N U T, 0, 0, 0',
	X =  264.788  mm,	Y =   -334.190  mm,	Z =   -258.422  mm,
	W =  92.756 deg,	P =   -1.592 deg,	R =   90.000 deg
};
P[92]{
   GP1:
	UF : 0, UT : 6,		CONFIG : 'N U T, 0, 0, 0',
	X =  261.940  mm,	Y =   -335.778  mm,	Z =   -258.463  mm,
	W =  92.756 deg,	P =   -1.592 deg,	R =   90.000 deg
};
P[93]{
   GP1:
	UF : 0, UT : 6,		CONFIG : 'N U T, 0, 0, 0',
	X =  259.099  mm,	Y =   -337.416  mm,	Z =   -258.426  mm,
	W =  92.756 deg,	P =   -1.592 deg,	R =   90.000 deg
};
P[94]{
   GP1:
	UF : 0, UT : 6,		CONFIG : 'N U T, 0, 0, 0',
	X =  256.370  mm,	Y =   -339.000  mm,	Z =   -258.527  mm,
	W =  92.756 deg,	P =   -1.592 deg,	R =   90.000 deg
};
P[95]{
   GP1:
	UF : 0, UT : 6,		CONFIG : 'N U T, 0, 0, 0',
	X =  253.539  mm,	Y =   -340.625  mm,	Z =   -258.415  mm,
	W =  92.756 deg,	P =   -1.592 deg,	R =   90.000 deg
};
P[96]{
   GP1:
	UF : 0, UT : 6,		CONFIG : 'N U T, 0, 0, 0',
	X =  250.673  mm,	Y =   -342.280  mm,	Z =   -258.422  mm,
	W =  92.756 deg,	P =   -1.592 deg,	R =   90.000 deg
};
P[97]{
   GP1:
	UF : 0, UT : 6,		CONFIG : 'N U T, 0, 0, 0',
	X =  247.896  mm,	Y =   -343.887  mm,	Z =   -258.461  mm,
	W =  92.756 deg,	P =   -1.592 deg,	R =   90.000 deg
};
P[98]{
   GP1:
	UF : 0, UT : 6,		CONFIG : 'N U T, 0, 0, 0',
	X =  245.073  mm,	Y =   -345.515  mm,	Z =   -258.436  mm,
	W =  92.756 deg,	P =   -1.592 deg,	R =   90.000 deg
};
P[99]{
   GP1:
	UF : 0, UT : 6,		CONFIG : 'N U T, 0, 0, 0',
	X =  242.255  mm,	Y =   -347.145  mm,	Z =   -258.476  mm,
	W =  92.756 deg,	P =   -1.592 deg,	R =   90.000 deg
};
P[100]{
   GP1:
	UF : 0, UT : 6,		CONFIG : 'N U T, 0, 0, 0',
	X =  239.376  mm,	Y =   -348.800  mm,	Z =   -258.379  mm,
	W =  92.756 deg,	P =   -1.592 deg,	R =   90.000 deg
};
P[101]{
   GP1:
	UF : 0, UT : 6,		CONFIG : 'N U T, 0, 0, 0',
	X =  236.555  mm,	Y =   -350.433  mm,	Z =   -258.431  mm,
	W =  92.756 deg,	P =   -1.592 deg,	R =   90.000 deg
};
P[102]{
   GP1:
	UF : 0, UT : 6,		CONFIG : 'N U T, 0, 0, 0',
	X =  233.727  mm,	Y =   -352.067  mm,	Z =   -258.447  mm,
	W =  92.756 deg,	P =   -1.592 deg,	R =   90.000 deg
};
P[103]{
   GP1:
	UF : 0, UT : 6,		CONFIG : 'N U T, 0, 0, 0',
	X =  230.934  mm,	Y =   -353.671  mm,	Z =   -258.341  mm,
	W =  92.756 deg,	P =   -1.592 deg,	R =   90.000 deg
};
P[104]{
   GP1:
	UF : 0, UT : 6,		CONFIG : 'N U T, 0, 0, 0',
	X =  227.996  mm,	Y =   -354.978  mm,	Z =   -253.514  mm,
	W =  92.756 deg,	P =   -1.592 deg,	R =   90.000 deg
};
P[105]{
   GP1:
	UF : 0, UT : 6,		CONFIG : 'N U T, 0, 0, 0',
	X =  225.134  mm,	Y =   -356.625  mm,	Z =   -253.453  mm,
	W =  92.756 deg,	P =   -1.592 deg,	R =   90.000 deg
};
P[106]{
   GP1:
	UF : 0, UT : 6,		CONFIG : 'N U T, 0, 0, 0',
	X =  222.223  mm,	Y =   -358.297  mm,	Z =   -253.339  mm,
	W =  92.756 deg,	P =   -1.592 deg,	R =   90.000 deg
};
P[107]{
   GP1:
	UF : 0, UT : 6,		CONFIG : 'N U T, 0, 0, 0',
	X =  219.368  mm,	Y =   -359.947  mm,	Z =   -253.362  mm,
	W =  92.756 deg,	P =   -1.592 deg,	R =   90.000 deg
};
P[108]{
   GP1:
	UF : 0, UT : 6,		CONFIG : 'N U T, 0, 0, 0',
	X =  216.564  mm,	Y =   -361.573  mm,	Z =   -253.449  mm,
	W =  92.756 deg,	P =   -1.592 deg,	R =   90.000 deg
};
P[109]{
   GP1:
	UF : 0, UT : 6,		CONFIG : 'N U T, 0, 0, 0',
	X =  213.747  mm,	Y =   -363.196  mm,	Z =   -253.403  mm,
	W =  92.756 deg,	P =   -1.592 deg,	R =   90.000 deg
};
P[110]{
   GP1:
	UF : 0, UT : 6,		CONFIG : 'N U T, 0, 0, 0',
	X =  210.897  mm,	Y =   -364.851  mm,	Z =   -253.519  mm,
	W =  92.756 deg,	P =   -1.592 deg,	R =   90.000 deg
};
P[111]{
   GP1:
	UF : 0, UT : 6,		CONFIG : 'N U T, 0, 0, 0',
	X =  208.061  mm,	Y =   -366.480  mm,	Z =   -253.414  mm,
	W =  92.756 deg,	P =   -1.592 deg,	R =   90.000 deg
};
P[112]{
   GP1:
	UF : 0, UT : 6,		CONFIG : 'N U T, 0, 0, 0',
	X =  205.250  mm,	Y =   -368.110  mm,	Z =   -253.499  mm,
	W =  92.756 deg,	P =   -1.592 deg,	R =   90.000 deg
};
P[113]{
   GP1:
	UF : 0, UT : 6,		CONFIG : 'N U T, 0, 0, 0',
	X =  202.399  mm,	Y =   -369.750  mm,	Z =   -253.422  mm,
	W =  92.756 deg,	P =   -1.592 deg,	R =   90.000 deg
};
P[114]{
   GP1:
	UF : 0, UT : 6,		CONFIG : 'N U T, 0, 0, 0',
	X =  199.614  mm,	Y =   -371.361  mm,	Z =   -253.458  mm,
	W =  92.756 deg,	P =   -1.592 deg,	R =   90.000 deg
};
P[115]{
   GP1:
	UF : 0, UT : 6,		CONFIG : 'N U T, 0, 0, 0',
	X =  196.681  mm,	Y =   -373.061  mm,	Z =   -253.449  mm,
	W =  92.756 deg,	P =   -1.592 deg,	R =   90.000 deg
};
P[116]{
   GP1:
	UF : 0, UT : 6,		CONFIG : 'N U T, 0, 0, 0',
	X =  194.769  mm,	Y =   -375.060  mm,	Z =   -253.385  mm,
	W =  92.756 deg,	P =   -1.592 deg,	R =   90.000 deg
};
P[117]{
   GP1:
	UF : 0, UT : 6,		CONFIG : 'N U T, 0, 0, 0',
	X =  178.579  mm,	Y =   -379.794  mm,	Z =   -253.242  mm,
	W =  88.408 deg,	P =   -2.756 deg,	R =   90.000 deg
};
P[118]{
   GP1:
	UF : 0, UT : 6,		CONFIG : 'N U T, 0, 0, 0',
	X =  178.175  mm,	Y =   -383.264  mm,	Z =   -253.506  mm,
	W =  88.408 deg,	P =   -2.756 deg,	R =   90.000 deg
};
P[119]{
   GP1:
	UF : 0, UT : 6,		CONFIG : 'N U T, 0, 0, 0',
	X =  179.628  mm,	Y =   -387.453  mm,	Z =   -253.457  mm,
	W =  88.408 deg,	P =   -2.756 deg,	R =   90.000 deg
};
P[120]{
   GP1:
	UF : 0, UT : 6,		CONFIG : 'N U T, 0, 0, 0',
	X =  181.755  mm,	Y =   -391.149  mm,	Z =   -253.454  mm,
	W =  88.408 deg,	P =   -2.756 deg,	R =   90.000 deg
};
P[121]{
   GP1:
	UF : 0, UT : 6,		CONFIG : 'N U T, 0, 0, 0',
	X =  183.898  mm,	Y =   -394.853  mm,	Z =   -253.510  mm,
	W =  88.408 deg,	P =   -2.756 deg,	R =   90.000 deg
};
P[122]{
   GP1:
	UF : 0, UT : 6,		CONFIG : 'N U T, 0, 0, 0',
	X =  186.108  mm,	Y =   -398.687  mm,	Z =   -253.468  mm,
	W =  88.408 deg,	P =   -2.756 deg,	R =   90.000 deg
};
P[123]{
   GP1:
	UF : 0, UT : 6,		CONFIG : 'N U T, 0, 0, 0',
	X =  188.197  mm,	Y =   -402.305  mm,	Z =   -253.457  mm,
	W =  88.408 deg,	P =   -2.756 deg,	R =   90.000 deg
};
P[124]{
   GP1:
	UF : 0, UT : 6,		CONFIG : 'N U T, 0, 0, 0',
	X =  190.346  mm,	Y =   -406.026  mm,	Z =   -253.472  mm,
	W =  88.408 deg,	P =   -2.756 deg,	R =   90.000 deg
};
P[125]{
   GP1:
	UF : 0, UT : 6,		CONFIG : 'N U T, 0, 0, 0',
	X =  192.521  mm,	Y =   -409.790  mm,	Z =   -253.498  mm,
	W =  88.408 deg,	P =   -2.756 deg,	R =   90.000 deg
};
P[126]{
   GP1:
	UF : 0, UT : 6,		CONFIG : 'N U T, 0, 0, 0',
	X =  194.743  mm,	Y =   -413.630  mm,	Z =   -253.432  mm,
	W =  88.408 deg,	P =   -2.756 deg,	R =   90.000 deg
};
P[127]{
   GP1:
	UF : 0, UT : 6,		CONFIG : 'N U T, 0, 0, 0',
	X =  197.468  mm,	Y =   -416.837  mm,	Z =   -253.416  mm,
	W =  88.408 deg,	P =   -2.756 deg,	R =   90.000 deg
};
P[128]{
   GP1:
	UF : 0, UT : 6,		CONFIG : 'N U T, 0, 0, 0',
	X =  200.802  mm,	Y =   -418.286  mm,	Z =   -253.294  mm,
	W =  88.408 deg,	P =   -2.756 deg,	R =   90.000 deg
};
P[129]{
   GP1:
	UF : 0, UT : 6,		CONFIG : 'N U T, 0, 0, 0',
	X =  213.004  mm,	Y =   -406.633  mm,	Z =   -253.446  mm,
	W =  87.244 deg,	P =   1.592 deg,	R =   90.000 deg
};
P[130]{
   GP1:
	UF : 0, UT : 6,		CONFIG : 'N U T, 0, 0, 0',
	X =  215.751  mm,	Y =   -405.953  mm,	Z =   -253.443  mm,
	W =  87.244 deg,	P =   1.592 deg,	R =   90.000 deg
};
P[131]{
   GP1:
	UF : 0, UT : 6,		CONFIG : 'N U T, 0, 0, 0',
	X =  218.518  mm,	Y =   -404.363  mm,	Z =   -253.439  mm,
	W =  87.244 deg,	P =   1.592 deg,	R =   90.000 deg
};
P[132]{
   GP1:
	UF : 0, UT : 6,		CONFIG : 'N U T, 0, 0, 0',
	X =  221.390  mm,	Y =   -402.692  mm,	Z =   -253.592  mm,
	W =  87.244 deg,	P =   1.592 deg,	R =   90.000 deg
};
P[133]{
   GP1:
	UF : 0, UT : 6,		CONFIG : 'N U T, 0, 0, 0',
	X =  224.223  mm,	Y =   -401.070  mm,	Z =   -253.427  mm,
	W =  87.244 deg,	P =   1.592 deg,	R =   90.000 deg
};
P[134]{
   GP1:
	UF : 0, UT : 6,		CONFIG : 'N U T, 0, 0, 0',
	X =  227.073  mm,	Y =   -399.420  mm,	Z =   -253.483  mm,
	W =  87.244 deg,	P =   1.592 deg,	R =   90.000 deg
};
P[135]{
   GP1:
	UF : 0, UT : 6,		CONFIG : 'N U T, 0, 0, 0',
	X =  229.948  mm,	Y =   -397.761  mm,	Z =   -253.462  mm,
	W =  87.244 deg,	P =   1.592 deg,	R =   90.000 deg
};
P[136]{
   GP1:
	UF : 0, UT : 6,		CONFIG : 'N U T, 0, 0, 0',
	X =  232.717  mm,	Y =   -396.173  mm,	Z =   -253.337  mm,
	W =  87.244 deg,	P =   1.592 deg,	R =   90.000 deg
};
P[137]{
   GP1:
	UF : 0, UT : 6,		CONFIG : 'N U T, 0, 0, 0',
	X =  235.580  mm,	Y =   -394.511  mm,	Z =   -253.442  mm,
	W =  87.244 deg,	P =   1.592 deg,	R =   90.000 deg
};
P[138]{
   GP1:
	UF : 0, UT : 6,		CONFIG : 'N U T, 0, 0, 0',
	X =  238.445  mm,	Y =   -392.863  mm,	Z =   -253.372  mm,
	W =  87.244 deg,	P =   1.592 deg,	R =   90.000 deg
};
P[139]{
   GP1:
	UF : 0, UT : 6,		CONFIG : 'N U T, 0, 0, 0',
	X =  241.319  mm,	Y =   -391.192  mm,	Z =   -253.514  mm,
	W =  87.244 deg,	P =   1.592 deg,	R =   90.000 deg
};
P[140]{
   GP1:
	UF : 0, UT : 6,		CONFIG : 'N U T, 0, 0, 0',
	X =  244.087  mm,	Y =   -389.597  mm,	Z =   -253.469  mm,
	W =  87.244 deg,	P =   1.592 deg,	R =   90.000 deg
};
P[141]{
   GP1:
	UF : 0, UT : 6,		CONFIG : 'N U T, 0, 0, 0',
	X =  246.982  mm,	Y =   -387.932  mm,	Z =   -253.395  mm,
	W =  87.244 deg,	P =   1.592 deg,	R =   90.000 deg
};
P[142]{
   GP1:
	UF : 0, UT : 6,		CONFIG : 'N U T, 0, 0, 0',
	X =  249.775  mm,	Y =   -386.317  mm,	Z =   -253.419  mm,
	W =  87.244 deg,	P =   1.592 deg,	R =   90.000 deg
};
P[143]{
   GP1:
	UF : 0, UT : 6,		CONFIG : 'N U T, 0, 0, 0',
	X =  252.615  mm,	Y =   -384.678  mm,	Z =   -253.415  mm,
	W =  87.244 deg,	P =   1.592 deg,	R =   90.000 deg
};
P[144]{
   GP1:
	UF : 0, UT : 6,		CONFIG : 'N U T, 0, 0, 0',
	X =  255.474  mm,	Y =   -383.025  mm,	Z =   -253.440  mm,
	W =  87.244 deg,	P =   1.592 deg,	R =   90.000 deg
};
P[145]{
   GP1:
	UF : 0, UT : 6,		CONFIG : 'N U T, 0, 0, 0',
	X =  258.291  mm,	Y =   -381.396  mm,	Z =   -253.463  mm,
	W =  87.244 deg,	P =   1.592 deg,	R =   90.000 deg
};
P[146]{
   GP1:
	UF : 0, UT : 6,		CONFIG : 'N U T, 0, 0, 0',
	X =  261.131  mm,	Y =   -379.758  mm,	Z =   -253.442  mm,
	W =  87.244 deg,	P =   1.592 deg,	R =   90.000 deg
};
P[147]{
   GP1:
	UF : 0, UT : 6,		CONFIG : 'N U T, 0, 0, 0',
	X =  263.991  mm,	Y =   -378.097  mm,	Z =   -253.558  mm,
	W =  87.244 deg,	P =   1.592 deg,	R =   90.000 deg
};
P[148]{
   GP1:
	UF : 0, UT : 6,		CONFIG : 'N U T, 0, 0, 0',
	X =  266.852  mm,	Y =   -376.449  mm,	Z =   -253.519  mm,
	W =  87.244 deg,	P =   1.592 deg,	R =   90.000 deg
};
P[149]{
   GP1:
	UF : 0, UT : 6,		CONFIG : 'N U T, 0, 0, 0',
	X =  269.682  mm,	Y =   -374.824  mm,	Z =   -253.409  mm,
	W =  87.244 deg,	P =   1.592 deg,	R =   90.000 deg
};
P[150]{
   GP1:
	UF : 0, UT : 6,		CONFIG : 'N U T, 0, 0, 0',
	X =  272.527  mm,	Y =   -373.184  mm,	Z =   -253.374  mm,
	W =  87.244 deg,	P =   1.592 deg,	R =   90.000 deg
};
P[151]{
   GP1:
	UF : 0, UT : 6,		CONFIG : 'N U T, 0, 0, 0',
	X =  275.352  mm,	Y =   -371.546  mm,	Z =   -253.451  mm,
	W =  87.244 deg,	P =   1.592 deg,	R =   90.000 deg
};
P[152]{
   GP1:
	UF : 0, UT : 6,		CONFIG : 'N U T, 0, 0, 0',
	X =  278.161  mm,	Y =   -369.924  mm,	Z =   -253.455  mm,
	W =  87.244 deg,	P =   1.592 deg,	R =   90.000 deg
};
P[153]{
   GP1:
	UF : 0, UT : 6,		CONFIG : 'N U T, 0, 0, 0',
	X =  281.005  mm,	Y =   -368.281  mm,	Z =   -253.466  mm,
	W =  87.244 deg,	P =   1.592 deg,	R =   90.000 deg
};
P[154]{
   GP1:
	UF : 0, UT : 6,		CONFIG : 'N U T, 0, 0, 0',
	X =  283.865  mm,	Y =   -366.592  mm,	Z =   -253.423  mm,
	W =  87.244 deg,	P =   1.592 deg,	R =   90.000 deg
};
P[155]{
   GP1:
	UF : 0, UT : 6,		CONFIG : 'N U T, 0, 0, 0',
	X =  299.984  mm,	Y =   -362.474  mm,	Z =   -253.388  mm,
	W =  91.592 deg,	P =   2.756 deg,	R =   90.000 deg
};
P[156]{
   GP1:
	UF : 0, UT : 6,		CONFIG : 'N U T, 0, 0, 0',
	X =  301.646  mm,	Y =   -359.650  mm,	Z =   -253.148  mm,
	W =  91.592 deg,	P =   2.756 deg,	R =   90.000 deg
};
P[157]{
   GP1:
	UF : 0, UT : 6,		CONFIG : 'N U T, 0, 0, 0',
	X =  301.827  mm,	Y =   -356.633  mm,	Z =   -253.487  mm,
	W =  91.592 deg,	P =   2.756 deg,	R =   90.000 deg
};
P[158]{
   GP1:
	UF : 0, UT : 6,		CONFIG : 'N U T, 0, 0, 0',
	X =  300.381  mm,	Y =   -352.560  mm,	Z =   -253.427  mm,
	W =  91.592 deg,	P =   2.756 deg,	R =   90.000 deg
};
P[159]{
   GP1:
	UF : 0, UT : 6,		CONFIG : 'N U T, 0, 0, 0',
	X =  298.195  mm,	Y =   -348.761  mm,	Z =   -253.435  mm,
	W =  91.592 deg,	P =   2.756 deg,	R =   90.000 deg
};
P[160]{
   GP1:
	UF : 0, UT : 6,		CONFIG : 'N U T, 0, 0, 0',
	X =  296.080  mm,	Y =   -345.103  mm,	Z =   -253.469  mm,
	W =  91.592 deg,	P =   2.756 deg,	R =   90.000 deg
};
P[161]{
   GP1:
	UF : 0, UT : 6,		CONFIG : 'N U T, 0, 0, 0',
	X =  293.931  mm,	Y =   -341.371  mm,	Z =   -253.393  mm,
	W =  91.592 deg,	P =   2.756 deg,	R =   90.000 deg
};
P[162]{
   GP1:
	UF : 0, UT : 6,		CONFIG : 'N U T, 0, 0, 0',
	X =  291.758  mm,	Y =   -337.621  mm,	Z =   -253.494  mm,
	W =  91.592 deg,	P =   2.756 deg,	R =   90.000 deg
};
P[163]{
   GP1:
	UF : 0, UT : 6,		CONFIG : 'N U T, 0, 0, 0',
	X =  289.596  mm,	Y =   -333.866  mm,	Z =   -253.421  mm,
	W =  91.592 deg,	P =   2.756 deg,	R =   90.000 deg
};
P[164]{
   GP1:
	UF : 0, UT : 6,		CONFIG : 'N U T, 0, 0, 0',
	X =  287.511  mm,	Y =   -330.255  mm,	Z =   -253.420  mm,
	W =  91.592 deg,	P =   2.756 deg,	R =   90.000 deg
};
P[165]{
   GP1:
	UF : 0, UT : 6,		CONFIG : 'N U T, 0, 0, 0',
	X =  285.352  mm,	Y =   -326.528  mm,	Z =   -253.411  mm,
	W =  91.592 deg,	P =   2.756 deg,	R =   90.000 deg
};
P[166]{
   GP1:
	UF : 0, UT : 6,		CONFIG : 'N U T, 0, 0, 0',
	X =  282.541  mm,	Y =   -323.171  mm,	Z =   -253.441  mm,
	W =  91.592 deg,	P =   2.756 deg,	R =   90.000 deg
};
P[167]{
   GP1:
	UF : 0, UT : 6,		CONFIG : 'N U T, 0, 0, 0',
	X =  279.787  mm,	Y =   -321.791  mm,	Z =   -253.192  mm,
	W =  91.592 deg,	P =   2.756 deg,	R =   90.000 deg
};
P[168]{
   GP1:
	UF : 0, UT : 6,		CONFIG : 'N U T, 0, 0, 0',
	X =  276.383  mm,	Y =   -321.844  mm,	Z =   -253.410  mm,
	W =  91.592 deg,	P =   2.756 deg,	R =   90.000 deg
};
P[169]{
   GP1:
	UF : 0, UT : 6,		CONFIG : 'N U T, 0, 0, 0',
	X =  264.821  mm,	Y =   -333.746  mm,	Z =   -253.457  mm,
	W =  92.756 deg,	P =   -1.592 deg,	R =   90.000 deg
};
P[170]{
   GP1:
	UF : 0, UT : 6,		CONFIG : 'N U T, 0, 0, 0',
	X =  262.053  mm,	Y =   -335.305  mm,	Z =   -253.411  mm,
	W =  92.756 deg,	P =   -1.592 deg,	R =   90.000 deg
};
P[171]{
   GP1:
	UF : 0, UT : 6,		CONFIG : 'N U T, 0, 0, 0',
	X =  259.149  mm,	Y =   -336.986  mm,	Z =   -253.460  mm,
	W =  92.756 deg,	P =   -1.592 deg,	R =   90.000 deg
};
P[172]{
   GP1:
	UF : 0, UT : 6,		CONFIG : 'N U T, 0, 0, 0',
	X =  256.308  mm,	Y =   -338.620  mm,	Z =   -253.389  mm,
	W =  92.756 deg,	P =   -1.592 deg,	R =   90.000 deg
};
P[173]{
   GP1:
	UF : 0, UT : 6,		CONFIG : 'N U T, 0, 0, 0',
	X =  253.512  mm,	Y =   -340.231  mm,	Z =   -253.336  mm,
	W =  92.756 deg,	P =   -1.592 deg,	R =   90.000 deg
};
P[174]{
   GP1:
	UF : 0, UT : 6,		CONFIG : 'N U T, 0, 0, 0',
	X =  250.672  mm,	Y =   -341.880  mm,	Z =   -253.454  mm,
	W =  92.756 deg,	P =   -1.592 deg,	R =   90.000 deg
};
P[175]{
   GP1:
	UF : 0, UT : 6,		CONFIG : 'N U T, 0, 0, 0',
	X =  247.801  mm,	Y =   -343.533  mm,	Z =   -253.406  mm,
	W =  92.756 deg,	P =   -1.592 deg,	R =   90.000 deg
};
P[176]{
   GP1:
	UF : 0, UT : 6,		CONFIG : 'N U T, 0, 0, 0',
	X =  245.020  mm,	Y =   -345.143  mm,	Z =   -253.453  mm,
	W =  92.756 deg,	P =   -1.592 deg,	R =   90.000 deg
};
P[177]{
   GP1:
	UF : 0, UT : 6,		CONFIG : 'N U T, 0, 0, 0',
	X =  242.150  mm,	Y =   -346.798  mm,	Z =   -253.426  mm,
	W =  92.756 deg,	P =   -1.592 deg,	R =   90.000 deg
};
P[178]{
   GP1:
	UF : 0, UT : 6,		CONFIG : 'N U T, 0, 0, 0',
	X =  239.314  mm,	Y =   -348.435  mm,	Z =   -253.412  mm,
	W =  92.756 deg,	P =   -1.592 deg,	R =   90.000 deg
};
P[179]{
   GP1:
	UF : 0, UT : 6,		CONFIG : 'N U T, 0, 0, 0',
	X =  236.453  mm,	Y =   -350.082  mm,	Z =   -253.353  mm,
	W =  92.756 deg,	P =   -1.592 deg,	R =   90.000 deg
};
P[180]{
   GP1:
	UF : 0, UT : 6,		CONFIG : 'N U T, 0, 0, 0',
	X =  233.565  mm,	Y =   -351.752  mm,	Z =   -253.385  mm,
	W =  92.756 deg,	P =   -1.592 deg,	R =   90.000 deg
};
P[181]{
   GP1:
	UF : 0, UT : 6,		CONFIG : 'N U T, 0, 0, 0',
	X =  230.746  mm,	Y =   -353.380  mm,	Z =   -253.400  mm,
	W =  92.756 deg,	P =   -1.592 deg,	R =   90.000 deg
};
P[182]{
   GP1:
	UF : 0, UT : 6,		CONFIG : 'N U T, 0, 0, 0',
	X =  227.766  mm,	Y =   -354.696  mm,	Z =   -248.381  mm,
	W =  92.756 deg,	P =   -1.592 deg,	R =   90.000 deg
};
P[183]{
   GP1:
	UF : 0, UT : 6,		CONFIG : 'N U T, 0, 0, 0',
	X =  224.891  mm,	Y =   -356.362  mm,	Z =   -248.453  mm,
	W =  92.756 deg,	P =   -1.592 deg,	R =   90.000 deg
};
P[184]{
   GP1:
	UF : 0, UT : 6,		CONFIG : 'N U T, 0, 0, 0',
	X =  222.084  mm,	Y =   -357.984  mm,	Z =   -248.465  mm,
	W =  92.756 deg,	P =   -1.592 deg,	R =   90.000 deg
};
P[185]{
   GP1:
	UF : 0, UT : 6,		CONFIG : 'N U T, 0, 0, 0',
	X =  219.166  mm,	Y =   -359.665  mm,	Z =   -248.425  mm,
	W =  92.756 deg,	P =   -1.592 deg,	R =   90.000 deg
};
P[186]{
   GP1:
	UF : 0, UT : 6,		CONFIG : 'N U T, 0, 0, 0',
	X =  216.334  mm,	Y =   -361.311  mm,	Z =   -248.558  mm,
	W =  92.756 deg,	P =   -1.592 deg,	R =   90.000 deg
};
P[187]{
   GP1:
	UF : 0, UT : 6,		CONFIG : 'N U T, 0, 0, 0',
	X =  213.447  mm,	Y =   -362.963  mm,	Z =   -248.372  mm,
	W =  92.756 deg,	P =   -1.592 deg,	R =   90.000 deg
};
P[188]{
   GP1:
	UF : 0, UT : 6,		CONFIG : 'N U T, 0, 0, 0',
	X =  210.619  mm,	Y =   -364.607  mm,	Z =   -248.502  mm,
	W =  92.756 deg,	P =   -1.592 deg,	R =   90.000 deg
};
P[189]{
   GP1:
	UF : 0, UT : 6,		CONFIG : 'N U T, 0, 0, 0',
	X =  207.727  mm,	Y =   -366.271  mm,	Z =   -248.442  mm,
	W =  92.756 deg,	P =   -1.592 deg,	R =   90.000 deg
};
P[190]{
   GP1:
	UF : 0, UT : 6,		CONFIG : 'N U T, 0, 0, 0',
	X =  204.897  mm,	Y =   -367.907  mm,	Z =   -248.461  mm,
	W =  92.756 deg,	P =   -1.592 deg,	R =   90.000 deg
};
P[191]{
   GP1:
	UF : 0, UT : 6,		CONFIG : 'N U T, 0, 0, 0',
	X =  201.992  mm,	Y =   -369.581  mm,	Z =   -248.420  mm,
	W =  92.756 deg,	P =   -1.592 deg,	R =   90.000 deg
};
P[192]{
   GP1:
	UF : 0, UT : 6,		CONFIG : 'N U T, 0, 0, 0',
	X =  199.189  mm,	Y =   -371.202  mm,	Z =   -248.446  mm,
	W =  92.756 deg,	P =   -1.592 deg,	R =   90.000 deg
};
P[193]{
   GP1:
	UF : 0, UT : 6,		CONFIG : 'N U T, 0, 0, 0',
	X =  196.336  mm,	Y =   -372.844  mm,	Z =   -248.354  mm,
	W =  92.756 deg,	P =   -1.592 deg,	R =   90.000 deg
};
P[194]{
   GP1:
	UF : 0, UT : 6,		CONFIG : 'N U T, 0, 0, 0',
	X =  194.189  mm,	Y =   -374.895  mm,	Z =   -248.439  mm,
	W =  92.756 deg,	P =   -1.592 deg,	R =   90.000 deg
};
P[195]{
   GP1:
	UF : 0, UT : 6,		CONFIG : 'N U T, 0, 0, 0',
	X =  178.173  mm,	Y =   -379.631  mm,	Z =   -248.319  mm,
	W =  88.408 deg,	P =   -2.756 deg,	R =   90.000 deg
};
P[196]{
   GP1:
	UF : 0, UT : 6,		CONFIG : 'N U T, 0, 0, 0',
	X =  177.741  mm,	Y =   -383.586  mm,	Z =   -248.385  mm,
	W =  88.408 deg,	P =   -2.756 deg,	R =   90.000 deg
};
P[197]{
   GP1:
	UF : 0, UT : 6,		CONFIG : 'N U T, 0, 0, 0',
	X =  179.320  mm,	Y =   -387.626  mm,	Z =   -248.443  mm,
	W =  88.408 deg,	P =   -2.756 deg,	R =   90.000 deg
};
P[198]{
   GP1:
	UF : 0, UT : 6,		CONFIG : 'N U T, 0, 0, 0',
	X =  181.489  mm,	Y =   -391.373  mm,	Z =   -248.557  mm,
	W =  88.408 deg,	P =   -2.756 deg,	R =   90.000 deg
};
P[199]{
   GP1:
	UF : 0, UT : 6,		CONFIG : 'N U T, 0, 0, 0',
	X =  183.622  mm,	Y =   -395.083  mm,	Z =   -248.446  mm,
	W =  88.408 deg,	P =   -2.756 deg,	R =   90.000 deg
};
P[200]{
   GP1:
	UF : 0, UT : 6,		CONFIG : 'N U T, 0, 0, 0',
	X =  185.777  mm,	Y =   -398.815  mm,	Z =   -248.443  mm,
	W =  88.408 deg,	P =   -2.756 deg,	R =   90.000 deg
};
P[201]{
   GP1:
	UF : 0, UT : 6,		CONFIG : 'N U T, 0, 0, 0',
	X =  187.914  mm,	Y =   -402.513  mm,	Z =   -248.470  mm,
	W =  88.408 deg,	P =   -2.756 deg,	R =   90.000 deg
};
P[202]{
   GP1:
	UF : 0, UT : 6,		CONFIG : 'N U T, 0, 0, 0',
	X =  190.031  mm,	Y =   -406.190  mm,	Z =   -248.397  mm,
	W =  88.408 deg,	P =   -2.756 deg,	R =   90.000 deg
};
P[203]{
   GP1:
	UF : 0, UT : 6,		CONFIG : 'N U T, 0, 0, 0',
	X =  192.217  mm,	Y =   -409.969  mm,	Z =   -248.443  mm,
	W =  88.408 deg,	P =   -2.756 deg,	R =   90.000 deg
};
P[204]{
   GP1:
	UF : 0, UT : 6,		CONFIG : 'N U T, 0, 0, 0',
	X =  194.427  mm,	Y =   -413.792  mm,	Z =   -248.427  mm,
	W =  88.408 deg,	P =   -2.756 deg,	R =   90.000 deg
};
P[205]{
   GP1:
	UF : 0, UT : 6,		CONFIG : 'N U T, 0, 0, 0',
	X =  197.176  mm,	Y =   -417.184  mm,	Z =   -248.429  mm,
	W =  88.408 deg,	P =   -2.756 deg,	R =   90.000 deg
};
P[206]{
   GP1:
	UF : 0, UT : 6,		CONFIG : 'N U T, 0, 0, 0',
	X =  200.732  mm,	Y =   -418.728  mm,	Z =   -248.255  mm,
	W =  88.408 deg,	P =   -2.756 deg,	R =   90.000 deg
};
P[207]{
   GP1:
	UF : 0, UT : 6,		CONFIG : 'N U T, 0, 0, 0',
	X =  212.945  mm,	Y =   -407.266  mm,	Z =   -248.344  mm,
	W =  87.244 deg,	P =   1.592 deg,	R =   90.000 deg
};
P[208]{
   GP1:
	UF : 0, UT : 6,		CONFIG : 'N U T, 0, 0, 0',
	X =  215.686  mm,	Y =   -406.394  mm,	Z =   -248.489  mm,
	W =  87.244 deg,	P =   1.592 deg,	R =   90.000 deg
};
P[209]{
   GP1:
	UF : 0, UT : 6,		CONFIG : 'N U T, 0, 0, 0',
	X =  218.531  mm,	Y =   -404.763  mm,	Z =   -248.385  mm,
	W =  87.244 deg,	P =   1.592 deg,	R =   90.000 deg
};
P[210]{
   GP1:
	UF : 0, UT : 6,		CONFIG : 'N U T, 0, 0, 0',
	X =  221.401  mm,	Y =   -403.099  mm,	Z =   -248.471  mm,
	W =  87.244 deg,	P =   1.592 deg,	R =   90.000 deg
};
P[211]{
   GP1:
	UF : 0, UT : 6,		CONFIG : 'N U T, 0, 0, 0',
	X =  224.224  mm,	Y =   -401.472  mm,	Z =   -248.440  mm,
	W =  87.244 deg,	P =   1.592 deg,	R =   90.000 deg
};
P[212]{
   GP1:
	UF : 0, UT : 6,		CONFIG : 'N U T, 0, 0, 0',
	X =  227.182  mm,	Y =   -399.766  mm,	Z =   -248.417  mm,
	W =  87.244 deg,	P =   1.592 deg,	R =   90.000 deg
};
P[213]{
   GP1:
	UF : 0, UT : 6,		CONFIG : 'N U T, 0, 0, 0',
	X =  229.998  mm,	Y =   -398.140  mm,	Z =   -248.413  mm,
	W =  87.244 deg,	P =   1.592 deg,	R =   90.000 deg
};
P[214]{
   GP1:
	UF : 0, UT : 6,		CONFIG : 'N U T, 0, 0, 0',
	X =  232.833  mm,	Y =   -396.501  mm,	Z =   -248.446  mm,
	W =  87.244 deg,	P =   1.592 deg,	R =   90.000 deg
};
P[215]{
   GP1:
	UF : 0, UT : 6,		CONFIG : 'N U T, 0, 0, 0',
	X =  235.712  mm,	Y =   -394.837  mm,	Z =   -248.469  mm,
	W =  87.244 deg,	P =   1.592 deg,	R =   90.000 deg
};
P[216]{
   GP1:
	UF : 0, UT : 6,		CONFIG : 'N U T, 0, 0, 0',
	X =  238.590  mm,	Y =   -393.181  mm,	Z =   -248.396  mm,
	W =  87.244 deg,	P =   1.592 deg,	R =   90.000 deg
};
P[217]{
   GP1:
	UF : 0, UT : 6,		CONFIG : 'N U T, 0, 0, 0',
	X =  241.389  mm,	Y =   -391.563  mm,	Z =   -248.415  mm,
	W =  87.244 deg,	P =   1.592 deg,	R =   90.000 deg
};
P[218]{
   GP1:
	UF : 0, UT : 6,		CONFIG : 'N U T, 0, 0, 0',
	X =  244.257  mm,	Y =   -389.900  mm,	Z =   -248.504  mm,
	W =  87.244 deg,	P =   1.592 deg,	R =   90.000 deg
};
P[219]{
   GP1:
	UF : 0, UT : 6,		CONFIG : 'N U T, 0, 0, 0',
	X =  247.123  mm,	Y =   -388.244  mm,	Z =   -248.516  mm,
	W =  87.244 deg,	P =   1.592 deg,	R =   90.000 deg
};
P[220]{
   GP1:
	UF : 0, UT : 6,		CONFIG : 'N U T, 0, 0, 0',
	X =  249.924  mm,	Y =   -386.636  mm,	Z =   -248.404  mm,
	W =  87.244 deg,	P =   1.592 deg,	R =   90.000 deg
};
P[221]{
   GP1:
	UF : 0, UT : 6,		CONFIG : 'N U T, 0, 0, 0',
	X =  252.853  mm,	Y =   -384.944  mm,	Z =   -248.412  mm,
	W =  87.244 deg,	P =   1.592 deg,	R =   90.000 deg
};
P[222]{
   GP1:
	UF : 0, UT : 6,		CONFIG : 'N U T, 0, 0, 0',
	X =  255.657  mm,	Y =   -383.323  mm,	Z =   -248.430  mm,
	W =  87.244 deg,	P =   1.592 deg,	R =   90.000 deg
};
P[223]{
   GP1:
	UF : 0, UT : 6,		CONFIG : 'N U T, 0, 0, 0',
	X =  258.551  mm,	Y =   -381.651  mm,	Z =   -248.446  mm,
	W =  87.244 deg,	P =   1.592 deg,	R =   90.000 deg
};
P[224]{
   GP1:
	UF : 0, UT : 6,		CONFIG : 'N U T, 0, 0, 0',
	X =  261.416  mm,	Y =   -379.993  mm,	Z =   -248.502  mm,
	W =  87.244 deg,	P =   1.592 deg,	R =   90.000 deg
};
P[225]{
   GP1:
	UF : 0, UT : 6,		CONFIG : 'N U T, 0, 0, 0',
	X =  264.234  mm,	Y =   -378.359  mm,	Z =   -248.583  mm,
	W =  87.244 deg,	P =   1.592 deg,	R =   90.000 deg
};
P[226]{
   GP1:
	UF : 0, UT : 6,		CONFIG : 'N U T, 0, 0, 0',
	X =  267.100  mm,	Y =   -376.713  mm,	Z =   -248.472  mm,
	W =  87.244 deg,	P =   1.592 deg,	R =   90.000 deg
};
P[227]{
   GP1:
	UF : 0, UT : 6,		CONFIG : 'N U T, 0, 0, 0',
	X =  270.059  mm,	Y =   -375.010  mm,	Z =   -248.400  mm,
	W =  87.244 deg,	P =   1.592 deg,	R =   90.000 deg
};
P[228]{
   GP1:
	UF : 0, UT : 6,		CONFIG : 'N U T, 0, 0, 0',
	X =  272.841  mm,	Y =   -373.399  mm,	Z =   -248.465  mm,
	W =  87.244 deg,	P =   1.592 deg,	R =   90.000 deg
};
P[229]{
   GP1:
	UF : 0, UT : 6,		CONFIG : 'N U T, 0, 0, 0',
	X =  275.632  mm,	Y =   -371.787  mm,	Z =   -248.465  mm,
	W =  87.244 deg,	P =   1.592 deg,	R =   90.000 deg
};
P[230]{
   GP1:
	UF : 0, UT : 6,		CONFIG : 'N U T, 0, 0, 0',
	X =  278.545  mm,	Y =   -370.111  mm,	Z =   -248.397  mm,
	W =  87.244 deg,	P =   1.592 deg,	R =   90.000 deg
};
P[231]{
   GP1:
	UF : 0, UT : 6,		CONFIG : 'N U T, 0, 0, 0',
	X =  281.380  mm,	Y =   -368.470  mm,	Z =   -248.442  mm,
	W =  87.244 deg,	P =   1.592 deg,	R =   90.000 deg
};
P[232]{
   GP1:
	UF : 0, UT : 6,		CONFIG : 'N U T, 0, 0, 0',
	X =  284.253  mm,	Y =   -366.788  mm,	Z =   -248.439  mm,
	W =  87.244 deg,	P =   1.592 deg,	R =   90.000 deg
};
P[233]{
   GP1:
	UF : 0, UT : 6,		CONFIG : 'N U T, 0, 0, 0',
	X =  300.178  mm,	Y =   -362.894  mm,	Z =   -248.413  mm,
	W =  91.592 deg,	P =   2.756 deg,	R =   90.000 deg
};
P[234]{
   GP1:
	UF : 0, UT : 6,		CONFIG : 'N U T, 0, 0, 0',
	X =  302.069  mm,	Y =   -359.768  mm,	Z =   -248.314  mm,
	W =  91.592 deg,	P =   2.756 deg,	R =   90.000 deg
};
P[235]{
   GP1:
	UF : 0, UT : 6,		CONFIG : 'N U T, 0, 0, 0',
	X =  302.248  mm,	Y =   -356.388  mm,	Z =   -248.464  mm,
	W =  91.592 deg,	P =   2.756 deg,	R =   90.000 deg
};
P[236]{
   GP1:
	UF : 0, UT : 6,		CONFIG : 'N U T, 0, 0, 0',
	X =  300.674  mm,	Y =   -352.352  mm,	Z =   -248.382  mm,
	W =  91.592 deg,	P =   2.756 deg,	R =   90.000 deg
};
P[237]{
   GP1:
	UF : 0, UT : 6,		CONFIG : 'N U T, 0, 0, 0',
	X =  298.538  mm,	Y =   -348.653  mm,	Z =   -248.407  mm,
	W =  91.592 deg,	P =   2.756 deg,	R =   90.000 deg
};
P[238]{
   GP1:
	UF : 0, UT : 6,		CONFIG : 'N U T, 0, 0, 0',
	X =  296.388  mm,	Y =   -344.935  mm,	Z =   -248.454  mm,
	W =  91.592 deg,	P =   2.756 deg,	R =   90.000 deg
};
P[239]{
   GP1:
	UF : 0, UT : 6,		CONFIG : 'N U T, 0, 0, 0',
	X =  294.231  mm,	Y =   -341.194  mm,	Z =   -248.413  mm,
	W =  91.592 deg,	P =   2.756 deg,	R =   90.000 deg
};
P[240]{
   GP1:
	UF : 0, UT : 6,		CONFIG : 'N U T, 0, 0, 0',
	X =  292.099  mm,	Y =   -337.509  mm,	Z =   -248.472  mm,
	W =  91.592 deg,	P =   2.756 deg,	R =   90.000 deg
};
P[241]{
   GP1:
	UF : 0, UT : 6,		CONFIG : 'N U T, 0, 0, 0',
	X =  289.944  mm,	Y =   -333.774  mm,	Z =   -248.451  mm,
	W =  91.592 deg,	P =   2.756 deg,	R =   90.000 deg
};
P[242]{
   GP1:
	UF : 0, UT : 6,		CONFIG : 'N U T, 0, 0, 0',
	X =  287.789  mm,	Y =   -330.039  mm,	Z =   -248.433  mm,
	W =  91.592 deg,	P =   2.756 deg,	R =   90.000 deg
};
P[243]{
   GP1:
	UF : 0, UT : 6,		CONFIG : 'N U T, 0, 0, 0',
	X =  285.592  mm,	Y =   -326.251  mm,	Z =   -248.496  mm,
	W =  91.592 deg,	P =   2.756 deg,	R =   90.000 deg
};
P[244]{
   GP1:
	UF : 0, UT : 6,		CONFIG : 'N U T, 0, 0, 0',
	X =  282.903  mm,	Y =   -322.872  mm,	Z =   -248.397  mm,
	W =  91.592 deg,	P =   2.756 deg,	R =   90.000 deg
};
P[245]{
   GP1:
	UF : 0, UT : 6,		CONFIG : 'N U T, 0, 0, 0',
	X =  279.912  mm,	Y =   -321.354  mm,	Z =   -248.199  mm,
	W =  91.592 deg,	P =   2.756 deg,	R =   90.000 deg
};
P[246]{
   GP1:
	UF : 0, UT : 6,		CONFIG : 'N U T, 0, 0, 0',
	X =  276.230  mm,	Y =   -321.441  mm,	Z =   -248.382  mm,
	W =  91.592 deg,	P =   2.756 deg,	R =   90.000 deg
};
P[247]{
   GP1:
	UF : 0, UT : 6,		CONFIG : 'N U T, 0, 0, 0',
	X =  264.934  mm,	Y =   -333.262  mm,	Z =   -248.407  mm,
	W =  92.756 deg,	P =   -1.592 deg,	R =   90.000 deg
};
P[248]{
   GP1:
	UF : 0, UT : 6,		CONFIG : 'N U T, 0, 0, 0',
	X =  262.089  mm,	Y =   -334.884  mm,	Z =   -248.451  mm,
	W =  92.756 deg,	P =   -1.592 deg,	R =   90.000 deg
};
P[249]{
   GP1:
	UF : 0, UT : 6,		CONFIG : 'N U T, 0, 0, 0',
	X =  259.176  mm,	Y =   -336.565  mm,	Z =   -248.440  mm,
	W =  92.756 deg,	P =   -1.592 deg,	R =   90.000 deg
};
P[250]{
   GP1:
	UF : 0, UT : 6,		CONFIG : 'N U T, 0, 0, 0',
	X =  256.257  mm,	Y =   -338.253  mm,	Z =   -248.476  mm,
	W =  92.756 deg,	P =   -1.592 deg,	R =   90.000 deg
};
P[251]{
   GP1:
	UF : 0, UT : 6,		CONFIG : 'N U T, 0, 0, 0',
	X =  253.435  mm,	Y =   -339.883  mm,	Z =   -248.482  mm,
	W =  92.756 deg,	P =   -1.592 deg,	R =   90.000 deg
};
P[252]{
   GP1:
	UF : 0, UT : 6,		CONFIG : 'N U T, 0, 0, 0',
	X =  250.579  mm,	Y =   -341.530  mm,	Z =   -248.450  mm,
	W =  92.756 deg,	P =   -1.592 deg,	R =   90.000 deg
};
P[253]{
   GP1:
	UF : 0, UT : 6,		CONFIG : 'N U T, 0, 0, 0',
	X =  247.764  mm,	Y =   -343.150  mm,	Z =   -248.390  mm,
	W =  92.756 deg,	P =   -1.592 deg,	R =   90.000 deg
};
P[254]{
   GP1:
	UF : 0, UT : 6,		CONFIG : 'N U T, 0, 0, 0',
	X =  244.873  mm,	Y =   -344.826  mm,	Z =   -248.479  mm,
	W =  92.756 deg,	P =   -1.592 deg,	R =   90.000 deg
};
P[255]{
   GP1:
	UF : 0, UT : 6,		CONFIG : 'N U T, 0, 0, 0',
	X =  242.028  mm,	Y =   -346.467  mm,	Z =   -248.456  mm,
	W =  92.756 deg,	P =   -1.592 deg,	R =   90.000 deg
};
P[256]{
   GP1:
	UF : 0, UT : 6,		CONFIG : 'N U T, 0, 0, 0',
	X =  239.190  mm,	Y =   -348.112  mm,	Z =   -248.527  mm,
	W =  92.756 deg,	P =   -1.592 deg,	R =   90.000 deg
};
P[257]{
   GP1:
	UF : 0, UT : 6,		CONFIG : 'N U T, 0, 0, 0',
	X =  236.308  mm,	Y =   -349.760  mm,	Z =   -248.327  mm,
	W =  92.756 deg,	P =   -1.592 deg,	R =   90.000 deg
};
P[258]{
   GP1:
	UF : 0, UT : 6,		CONFIG : 'N U T, 0, 0, 0',
	X =  233.471  mm,	Y =   -351.402  mm,	Z =   -248.380  mm,
	W =  92.756 deg,	P =   -1.592 deg,	R =   90.000 deg
};
P[259]{
   GP1:
	UF : 0, UT : 6,		CONFIG : 'N U T, 0, 0, 0',
	X =  225.704  mm,	Y =   -344.362  mm,	Z =   -248.990  mm,
	W =  90.000 deg,	P =   0.000 deg,	R =   90.000 deg
};
/END
