/PROG  WALL01.LS
/ATTR
OWNER       = MNEDITOR;
COMMENT     = "";
PROG_SIZE   = 636;
CREATE      = DATE 23-01-07  TIME 11:59:14;
MODIFIED    = DATE 23-01-07  TIME 12:02:18;
FILE_NAME   = ;
VERSION     = 0;
LINE_COUNT  = 4;
MEMORY_SIZE = 992;
PROTECT     = READ_WRITE;
TCD:  STACK_SIZE	= 0,
      TASK_PRIORITY	= 50,
      TIME_SLICE	= 0,
      BUSY_LAMP_OFF	= 0,
      ABORT_REQUEST	= 0,
      PAUSE_REQUEST	= 0;
DEFAULT_GROUP	= 1,*,*,*,*;
CONTROL_CODE	= 00000000 00000000;
/MN
   1:J P[1] 100% FINE    ;
   2:L P[2] 100mm/sec CNT0    ;
   3:L P[3] 100mm/sec CNT0    ;
   4:L P[4] 100mm/sec CNT0    ;
   5:L P[5] 100mm/sec CNT0    ;
   6:L P[6] 100mm/sec CNT0    ;
   7:L P[7] 100mm/sec CNT0    ;
   8:L P[8] 100mm/sec CNT0    ;
   9:L P[9] 100mm/sec CNT0    ;
   10:L P[10] 100mm/sec CNT0    ;
   11:L P[11] 100mm/sec CNT0    ;
   12:L P[12] 100mm/sec CNT0    ;
   13:L P[13] 100mm/sec CNT0    ;
   14:L P[14] 100mm/sec CNT0    ;
   15:L P[15] 100mm/sec CNT0    ;
   16:L P[16] 100mm/sec CNT0    ;
   17:L P[17] 100mm/sec CNT0    ;
   18:L P[18] 100mm/sec CNT0    ;
   19:L P[19] 100mm/sec CNT0    ;
   20:L P[20] 100mm/sec CNT0    ;
   21:L P[21] 100mm/sec CNT0    ;
   22:L P[22] 100mm/sec CNT0    ;
   23:L P[23] 100mm/sec CNT0    ;
   24:L P[24] 100mm/sec CNT0    ;
   25:L P[25] 100mm/sec CNT0    ;
   26:L P[26] 100mm/sec CNT0    ;
   27:L P[27] 100mm/sec CNT0    ;
   28:L P[28] 100mm/sec CNT0    ;
   29:L P[29] 100mm/sec CNT0    ;
   30:L P[30] 100mm/sec CNT0    ;
   31:L P[31] 100mm/sec CNT0    ;
   32:L P[32] 100mm/sec CNT0    ;
   33:L P[33] 100mm/sec CNT0    ;
   34:L P[34] 100mm/sec CNT0    ;
   35:L P[35] 100mm/sec CNT0    ;
   36:L P[36] 100mm/sec CNT0    ;
   37:L P[37] 100mm/sec CNT0    ;
   38:L P[38] 100mm/sec CNT0    ;
   39:L P[39] 100mm/sec CNT0    ;
   40:L P[40] 100mm/sec CNT0    ;
   41:L P[41] 100mm/sec CNT0    ;
   42:L P[42] 100mm/sec CNT0    ;
   43:L P[43] 100mm/sec CNT0    ;
   44:L P[44] 100mm/sec CNT0    ;
   45:L P[45] 100mm/sec CNT0    ;
   46:L P[46] 100mm/sec CNT0    ;
   47:L P[47] 100mm/sec CNT0    ;
   48:L P[48] 100mm/sec CNT0    ;
   49:L P[49] 100mm/sec CNT0    ;
   50:L P[50] 100mm/sec CNT0    ;
   51:L P[51] 100mm/sec CNT0    ;
   52:L P[52] 100mm/sec CNT0    ;
   53:L P[53] 100mm/sec CNT0    ;
   54:L P[54] 100mm/sec CNT0    ;
   55:L P[55] 100mm/sec CNT0    ;
   56:L P[56] 100mm/sec CNT0    ;
   57:L P[57] 100mm/sec CNT0    ;
   58:L P[58] 100mm/sec CNT0    ;
   59:L P[59] 100mm/sec CNT0    ;
   60:L P[60] 100mm/sec CNT0    ;
   61:L P[61] 100mm/sec CNT0    ;
   62:L P[62] 100mm/sec CNT0    ;
   63:L P[63] 100mm/sec CNT0    ;
   64:L P[64] 100mm/sec CNT0    ;
   65:L P[65] 100mm/sec CNT0    ;
   66:L P[66] 100mm/sec CNT0    ;
   67:L P[67] 100mm/sec CNT0    ;
   68:L P[68] 100mm/sec CNT0    ;
   69:L P[69] 100mm/sec CNT0    ;
   70:L P[70] 100mm/sec CNT0    ;
   71:L P[71] 100mm/sec CNT0    ;
   72:L P[72] 100mm/sec CNT0    ;
   73:L P[73] 100mm/sec CNT0    ;
   74:L P[74] 100mm/sec CNT0    ;
   75:L P[75] 100mm/sec CNT0    ;
   76:L P[76] 100mm/sec CNT0    ;
   77:L P[77] 100mm/sec CNT0    ;
   78:L P[78] 100mm/sec CNT0    ;
   79:L P[79] 100mm/sec CNT0    ;
   80:L P[80] 100mm/sec CNT0    ;
   81:L P[81] 100mm/sec CNT0    ;
   82:L P[82] 100mm/sec CNT0    ;
   83:L P[83] 100mm/sec CNT0    ;
   84:L P[84] 100mm/sec CNT0    ;
   85:L P[85] 100mm/sec CNT0    ;
   86:L P[86] 100mm/sec CNT0    ;
   87:L P[87] 100mm/sec CNT0    ;
   88:L P[88] 100mm/sec CNT0    ;
   89:L P[89] 100mm/sec CNT0    ;
   90:L P[90] 100mm/sec CNT0    ;
   91:L P[91] 100mm/sec CNT0    ;
   92:L P[92] 100mm/sec CNT0    ;
   93:L P[93] 100mm/sec CNT0    ;
   94:L P[94] 100mm/sec CNT0    ;
   95:L P[95] 100mm/sec CNT0    ;
   96:L P[96] 100mm/sec CNT0    ;
   97:L P[97] 100mm/sec CNT0    ;
   98:L P[98] 100mm/sec CNT0    ;
   99:L P[99] 100mm/sec CNT0    ;
   100:L P[100] 100mm/sec CNT0    ;
   101:L P[101] 100mm/sec CNT0    ;
   102:L P[102] 100mm/sec CNT0    ;
   103:L P[103] 100mm/sec CNT0    ;
   104:L P[104] 100mm/sec CNT0    ;
   105:L P[105] 100mm/sec CNT0    ;
   106:L P[106] 100mm/sec CNT0    ;
   107:L P[107] 100mm/sec CNT0    ;
   108:L P[108] 100mm/sec CNT0    ;
   109:L P[109] 100mm/sec CNT0    ;
   110:L P[110] 100mm/sec CNT0    ;
   111:L P[111] 100mm/sec CNT0    ;
   112:L P[112] 100mm/sec CNT0    ;
   113:L P[113] 100mm/sec CNT0    ;
   114:L P[114] 100mm/sec CNT0    ;
   115:L P[115] 100mm/sec CNT0    ;
   116:L P[116] 100mm/sec CNT0    ;
   117:L P[117] 100mm/sec CNT0    ;
   118:L P[118] 100mm/sec CNT0    ;
   119:L P[119] 100mm/sec CNT0    ;
   120:L P[120] 100mm/sec CNT0    ;
   121:L P[121] 100mm/sec CNT0    ;
   122:L P[122] 100mm/sec CNT0    ;
   123:L P[123] 100mm/sec CNT0    ;
   124:L P[124] 100mm/sec CNT0    ;
   125:L P[125] 100mm/sec CNT0    ;
   126:L P[126] 100mm/sec CNT0    ;
   127:L P[127] 100mm/sec CNT0    ;
   128:L P[128] 100mm/sec CNT0    ;
   129:L P[129] 100mm/sec CNT0    ;
   130:L P[130] 100mm/sec CNT0    ;
   131:L P[131] 100mm/sec CNT0    ;
   132:L P[132] 100mm/sec CNT0    ;
   133:L P[133] 100mm/sec CNT0    ;
   134:L P[134] 100mm/sec CNT0    ;
   135:L P[135] 100mm/sec CNT0    ;
   136:L P[136] 100mm/sec CNT0    ;
   137:L P[137] 100mm/sec CNT0    ;
   138:L P[138] 100mm/sec CNT0    ;
   139:L P[139] 100mm/sec CNT0    ;
   140:L P[140] 100mm/sec CNT0    ;
   141:L P[141] 100mm/sec CNT0    ;
   142:L P[142] 100mm/sec CNT0    ;
   143:L P[143] 100mm/sec CNT0    ;
   144:L P[144] 100mm/sec CNT0    ;
   145:L P[145] 100mm/sec CNT0    ;
   146:L P[146] 100mm/sec CNT0    ;
   147:L P[147] 100mm/sec CNT0    ;
   148:L P[148] 100mm/sec CNT0    ;
   149:L P[149] 100mm/sec CNT0    ;
   150:L P[150] 100mm/sec CNT0    ;
   151:L P[151] 100mm/sec CNT0    ;
   152:L P[152] 100mm/sec CNT0    ;
   153:L P[153] 100mm/sec CNT0    ;
   154:L P[154] 100mm/sec CNT0    ;
   155:L P[155] 100mm/sec CNT0    ;
   156:L P[156] 100mm/sec CNT0    ;
   157:L P[157] 100mm/sec CNT0    ;
   158:L P[158] 100mm/sec CNT0    ;
   159:L P[159] 100mm/sec CNT0    ;
   160:L P[160] 100mm/sec CNT0    ;
   161:L P[161] 100mm/sec CNT0    ;
   162:L P[162] 100mm/sec CNT0    ;
   163:L P[163] 100mm/sec CNT0    ;
   164:L P[164] 100mm/sec CNT0    ;
   165:L P[165] 100mm/sec CNT0    ;
   166:L P[166] 100mm/sec CNT0    ;
   167:L P[167] 100mm/sec CNT0    ;
   168:L P[168] 100mm/sec CNT0    ;
   169:L P[169] 100mm/sec CNT0    ;
   170:L P[170] 100mm/sec CNT0    ;
   171:L P[171] 100mm/sec CNT0    ;
   172:L P[172] 100mm/sec CNT0    ;
   173:L P[173] 100mm/sec CNT0    ;
   174:L P[174] 100mm/sec CNT0    ;
   175:L P[175] 100mm/sec CNT0    ;
   176:L P[176] 100mm/sec CNT0    ;
   177:L P[177] 100mm/sec CNT0    ;
   178:L P[178] 100mm/sec CNT0    ;
   179:L P[179] 100mm/sec CNT0    ;
   180:L P[180] 100mm/sec CNT0    ;
   181:L P[181] 100mm/sec CNT0    ;
   182:L P[182] 100mm/sec CNT0    ;
   183:L P[183] 100mm/sec CNT0    ;
   184:L P[184] 100mm/sec CNT0    ;
   185:L P[185] 100mm/sec CNT0    ;
   186:L P[186] 100mm/sec CNT0    ;
   187:L P[187] 100mm/sec CNT0    ;
   188:L P[188] 100mm/sec CNT0    ;
   189:L P[189] 100mm/sec CNT0    ;
   190:L P[190] 100mm/sec CNT0    ;
   191:L P[191] 100mm/sec CNT0    ;
   192:L P[192] 100mm/sec CNT0    ;
   193:L P[193] 100mm/sec CNT0    ;
   194:L P[194] 100mm/sec CNT0    ;
   195:L P[195] 100mm/sec CNT0    ;
   196:L P[196] 100mm/sec CNT0    ;
   197:L P[197] 100mm/sec CNT0    ;
   198:L P[198] 100mm/sec CNT0    ;
   199:L P[199] 100mm/sec CNT0    ;
   200:L P[200] 100mm/sec CNT0    ;
   201:L P[201] 100mm/sec CNT0    ;
   202:L P[202] 100mm/sec CNT0    ;
   203:L P[203] 100mm/sec CNT0    ;
   204:L P[204] 100mm/sec CNT0    ;
   205:L P[205] 100mm/sec CNT0    ;
   206:L P[206] 100mm/sec CNT0    ;
   207:L P[207] 100mm/sec CNT0    ;
/POS
P[1]{
   GP1:
	UF : 0, UT : 6,		CONFIG : 'N U T, 0, 0, 0',
	X =  240.000  mm,	Y =   -370.000  mm,	Z =   -170.000  mm,
	W =  90.000 deg,	P =   0.000 deg,	R =   30.000 deg
};
P[2]{
   GP1:
	UF : 0, UT : 6,		CONFIG : 'N U T, 0, 0, 0',
	X =  233.067  mm,	Y =   -408.864  mm,	Z =   -237.006  mm,
	W =  90.000 deg,	P =   0.000 deg,	R =   30.000 deg
};
P[3]{
   GP1:
	UF : 0, UT : 6,		CONFIG : 'N U T, 0, 0, 0',
	X =  293.646  mm,	Y =   -373.886  mm,	Z =   -237.006  mm,
	W =  90.000 deg,	P =   0.000 deg,	R =   30.000 deg
};
P[4]{
   GP1:
	UF : 0, UT : 6,		CONFIG : 'N U T, 0, 0, 0',
	X =  304.751  mm,	Y =   -337.772  mm,	Z =   -237.006  mm,
	W =  90.000 deg,	P =   0.000 deg,	R =   30.000 deg
};
P[5]{
   GP1:
	UF : 0, UT : 6,		CONFIG : 'N U T, 0, 0, 0',
	X =  166.243  mm,	Y =   -385.508  mm,	Z =   -237.006  mm,
	W =  90.000 deg,	P =   0.000 deg,	R =   30.000 deg
};
P[6]{
   GP1:
	UF : 0, UT : 6,		CONFIG : 'N U T, 0, 0, 0',
	X =  309.749  mm,	Y =   -346.429  mm,	Z =   -237.005  mm,
	W =  90.000 deg,	P =   0.000 deg,	R =   30.000 deg
};
P[7]{
   GP1:
	UF : 0, UT : 6,		CONFIG : 'N U T, 0, 0, 0',
	X =  252.065  mm,	Y =   -397.894  mm,	Z =   -237.005  mm,
	W =  90.000 deg,	P =   0.000 deg,	R =   30.000 deg
};
P[8]{
   GP1:
	UF : 0, UT : 6,		CONFIG : 'N U T, 0, 0, 0',
	X =  253.126  mm,	Y =   -327.561  mm,	Z =   -237.004  mm,
	W =  90.000 deg,	P =   0.000 deg,	R =   30.000 deg
};
P[9]{
   GP1:
	UF : 0, UT : 6,		CONFIG : 'N U T, 0, 0, 0',
	X =  306.764  mm,	Y =   -341.259  mm,	Z =   -237.003  mm,
	W =  90.000 deg,	P =   0.000 deg,	R =   30.000 deg
};
P[10]{
   GP1:
	UF : 0, UT : 6,		CONFIG : 'N U T, 0, 0, 0',
	X =  176.659  mm,	Y =   -404.671  mm,	Z =   -237.002  mm,
	W =  90.000 deg,	P =   0.000 deg,	R =   30.000 deg
};
P[11]{
   GP1:
	UF : 0, UT : 6,		CONFIG : 'N U T, 0, 0, 0',
	X =  290.134  mm,	Y =   -375.914  mm,	Z =   -236.999  mm,
	W =  90.000 deg,	P =   0.000 deg,	R =   30.000 deg
};
P[12]{
   GP1:
	UF : 0, UT : 6,		CONFIG : 'N U T, 0, 0, 0',
	X =  177.761  mm,	Y =   -406.580  mm,	Z =   -236.999  mm,
	W =  90.000 deg,	P =   0.000 deg,	R =   30.000 deg
};
P[13]{
   GP1:
	UF : 0, UT : 6,		CONFIG : 'N U T, 0, 0, 0',
	X =  180.230  mm,	Y =   -369.650  mm,	Z =   -236.998  mm,
	W =  90.000 deg,	P =   0.000 deg,	R =   30.000 deg
};
P[14]{
   GP1:
	UF : 0, UT : 6,		CONFIG : 'N U T, 0, 0, 0',
	X =  197.077  mm,	Y =   -428.540  mm,	Z =   -236.997  mm,
	W =  90.000 deg,	P =   0.000 deg,	R =   30.000 deg
};
P[15]{
   GP1:
	UF : 0, UT : 6,		CONFIG : 'N U T, 0, 0, 0',
	X =  269.531  mm,	Y =   -318.088  mm,	Z =   -236.997  mm,
	W =  90.000 deg,	P =   0.000 deg,	R =   30.000 deg
};
P[16]{
   GP1:
	UF : 0, UT : 6,		CONFIG : 'N U T, 0, 0, 0',
	X =  313.168  mm,	Y =   -352.544  mm,	Z =   -236.996  mm,
	W =  90.000 deg,	P =   0.000 deg,	R =   30.000 deg
};
P[17]{
   GP1:
	UF : 0, UT : 6,		CONFIG : 'N U T, 0, 0, 0',
	X =  250.553  mm,	Y =   -329.045  mm,	Z =   -236.995  mm,
	W =  90.000 deg,	P =   0.000 deg,	R =   30.000 deg
};
P[18]{
   GP1:
	UF : 0, UT : 6,		CONFIG : 'N U T, 0, 0, 0',
	X =  174.665  mm,	Y =   -401.218  mm,	Z =   -236.994  mm,
	W =  90.000 deg,	P =   0.000 deg,	R =   30.000 deg
};
P[19]{
   GP1:
	UF : 0, UT : 6,		CONFIG : 'N U T, 0, 0, 0',
	X =  172.721  mm,	Y =   -397.851  mm,	Z =   -236.993  mm,
	W =  90.000 deg,	P =   0.000 deg,	R =   30.000 deg
};
P[20]{
   GP1:
	UF : 0, UT : 6,		CONFIG : 'N U T, 0, 0, 0',
	X =  310.797  mm,	Y =   -348.243  mm,	Z =   -236.993  mm,
	W =  90.000 deg,	P =   0.000 deg,	R =   30.000 deg
};
P[21]{
   GP1:
	UF : 0, UT : 6,		CONFIG : 'N U T, 0, 0, 0',
	X =  304.021  mm,	Y =   -367.896  mm,	Z =   -236.993  mm,
	W =  90.000 deg,	P =   0.000 deg,	R =   30.000 deg
};
P[22]{
   GP1:
	UF : 0, UT : 6,		CONFIG : 'N U T, 0, 0, 0',
	X =  257.333  mm,	Y =   -325.130  mm,	Z =   -236.992  mm,
	W =  90.000 deg,	P =   0.000 deg,	R =   30.000 deg
};
P[23]{
   GP1:
	UF : 0, UT : 6,		CONFIG : 'N U T, 0, 0, 0',
	X =  246.903  mm,	Y =   -400.876  mm,	Z =   -236.991  mm,
	W =  90.000 deg,	P =   0.000 deg,	R =   30.000 deg
};
P[24]{
   GP1:
	UF : 0, UT : 6,		CONFIG : 'N U T, 0, 0, 0',
	X =  166.821  mm,	Y =   -379.783  mm,	Z =   -236.991  mm,
	W =  90.000 deg,	P =   0.000 deg,	R =   30.000 deg
};
P[25]{
   GP1:
	UF : 0, UT : 6,		CONFIG : 'N U T, 0, 0, 0',
	X =  251.280  mm,	Y =   -328.625  mm,	Z =   -236.991  mm,
	W =  90.000 deg,	P =   0.000 deg,	R =   30.000 deg
};
P[26]{
   GP1:
	UF : 0, UT : 6,		CONFIG : 'N U T, 0, 0, 0',
	X =  215.644  mm,	Y =   -418.924  mm,	Z =   -236.991  mm,
	W =  90.000 deg,	P =   0.000 deg,	R =   30.000 deg
};
P[27]{
   GP1:
	UF : 0, UT : 6,		CONFIG : 'N U T, 0, 0, 0',
	X =  248.652  mm,	Y =   -399.866  mm,	Z =   -236.989  mm,
	W =  90.000 deg,	P =   0.000 deg,	R =   30.000 deg
};
P[28]{
   GP1:
	UF : 0, UT : 6,		CONFIG : 'N U T, 0, 0, 0',
	X =  234.874  mm,	Y =   -407.822  mm,	Z =   -236.988  mm,
	W =  90.000 deg,	P =   0.000 deg,	R =   30.000 deg
};
P[29]{
   GP1:
	UF : 0, UT : 6,		CONFIG : 'N U T, 0, 0, 0',
	X =  207.094  mm,	Y =   -423.862  mm,	Z =   -236.986  mm,
	W =  90.000 deg,	P =   0.000 deg,	R =   30.000 deg
};
P[30]{
   GP1:
	UF : 0, UT : 6,		CONFIG : 'N U T, 0, 0, 0',
	X =  258.071  mm,	Y =   -394.428  mm,	Z =   -236.985  mm,
	W =  90.000 deg,	P =   0.000 deg,	R =   30.000 deg
};
P[31]{
   GP1:
	UF : 0, UT : 6,		CONFIG : 'N U T, 0, 0, 0',
	X =  295.728  mm,	Y =   -322.142  mm,	Z =   -236.983  mm,
	W =  90.000 deg,	P =   0.000 deg,	R =   30.000 deg
};
P[32]{
   GP1:
	UF : 0, UT : 6,		CONFIG : 'N U T, 0, 0, 0',
	X =  228.701  mm,	Y =   -411.386  mm,	Z =   -236.983  mm,
	W =  90.000 deg,	P =   0.000 deg,	R =   30.000 deg
};
P[33]{
   GP1:
	UF : 0, UT : 6,		CONFIG : 'N U T, 0, 0, 0',
	X =  210.644  mm,	Y =   -352.087  mm,	Z =   -236.983  mm,
	W =  90.000 deg,	P =   0.000 deg,	R =   30.000 deg
};
P[34]{
   GP1:
	UF : 0, UT : 6,		CONFIG : 'N U T, 0, 0, 0',
	X =  218.247  mm,	Y =   -417.422  mm,	Z =   -236.983  mm,
	W =  90.000 deg,	P =   0.000 deg,	R =   30.000 deg
};
P[35]{
   GP1:
	UF : 0, UT : 6,		CONFIG : 'N U T, 0, 0, 0',
	X =  225.333  mm,	Y =   -343.606  mm,	Z =   -236.982  mm,
	W =  90.000 deg,	P =   0.000 deg,	R =   30.000 deg
};
P[36]{
   GP1:
	UF : 0, UT : 6,		CONFIG : 'N U T, 0, 0, 0',
	X =  306.670  mm,	Y =   -366.367  mm,	Z =   -236.982  mm,
	W =  90.000 deg,	P =   0.000 deg,	R =   30.000 deg
};
P[37]{
   GP1:
	UF : 0, UT : 6,		CONFIG : 'N U T, 0, 0, 0',
	X =  227.817  mm,	Y =   -411.897  mm,	Z =   -236.982  mm,
	W =  90.000 deg,	P =   0.000 deg,	R =   30.000 deg
};
P[38]{
   GP1:
	UF : 0, UT : 6,		CONFIG : 'N U T, 0, 0, 0',
	X =  266.769  mm,	Y =   -319.681  mm,	Z =   -236.981  mm,
	W =  90.000 deg,	P =   0.000 deg,	R =   30.000 deg
};
P[39]{
   GP1:
	UF : 0, UT : 6,		CONFIG : 'N U T, 0, 0, 0',
	X =  171.756  mm,	Y =   -396.180  mm,	Z =   -236.981  mm,
	W =  90.000 deg,	P =   0.000 deg,	R =   30.000 deg
};
P[40]{
   GP1:
	UF : 0, UT : 6,		CONFIG : 'N U T, 0, 0, 0',
	X =  273.678  mm,	Y =   -385.417  mm,	Z =   -236.981  mm,
	W =  90.000 deg,	P =   0.000 deg,	R =   30.000 deg
};
P[41]{
   GP1:
	UF : 0, UT : 6,		CONFIG : 'N U T, 0, 0, 0',
	X =  207.238  mm,	Y =   -354.054  mm,	Z =   -236.980  mm,
	W =  90.000 deg,	P =   0.000 deg,	R =   30.000 deg
};
P[42]{
   GP1:
	UF : 0, UT : 6,		CONFIG : 'N U T, 0, 0, 0',
	X =  281.397  mm,	Y =   -380.961  mm,	Z =   -236.980  mm,
	W =  90.000 deg,	P =   0.000 deg,	R =   30.000 deg
};
P[43]{
   GP1:
	UF : 0, UT : 6,		CONFIG : 'N U T, 0, 0, 0',
	X =  204.460  mm,	Y =   -425.383  mm,	Z =   -236.979  mm,
	W =  90.000 deg,	P =   0.000 deg,	R =   30.000 deg
};
P[44]{
   GP1:
	UF : 0, UT : 6,		CONFIG : 'N U T, 0, 0, 0',
	X =  175.047  mm,	Y =   -372.640  mm,	Z =   -236.979  mm,
	W =  90.000 deg,	P =   0.000 deg,	R =   30.000 deg
};
P[45]{
   GP1:
	UF : 0, UT : 6,		CONFIG : 'N U T, 0, 0, 0',
	X =  215.744  mm,	Y =   -349.143  mm,	Z =   -236.978  mm,
	W =  90.000 deg,	P =   0.000 deg,	R =   30.000 deg
};
P[46]{
   GP1:
	UF : 0, UT : 6,		CONFIG : 'N U T, 0, 0, 0',
	X =  247.834  mm,	Y =   -330.614  mm,	Z =   -236.978  mm,
	W =  90.000 deg,	P =   0.000 deg,	R =   30.000 deg
};
P[47]{
   GP1:
	UF : 0, UT : 6,		CONFIG : 'N U T, 0, 0, 0',
	X =  223.481  mm,	Y =   -414.401  mm,	Z =   -236.978  mm,
	W =  90.000 deg,	P =   0.000 deg,	R =   30.000 deg
};
P[48]{
   GP1:
	UF : 0, UT : 6,		CONFIG : 'N U T, 0, 0, 0',
	X =  306.240  mm,	Y =   -340.348  mm,	Z =   -236.978  mm,
	W =  90.000 deg,	P =   0.000 deg,	R =   30.000 deg
};
P[49]{
   GP1:
	UF : 0, UT : 6,		CONFIG : 'N U T, 0, 0, 0',
	X =  188.960  mm,	Y =   -425.414  mm,	Z =   -236.978  mm,
	W =  90.000 deg,	P =   0.000 deg,	R =   30.000 deg
};
P[50]{
   GP1:
	UF : 0, UT : 6,		CONFIG : 'N U T, 0, 0, 0',
	X =  173.233  mm,	Y =   -398.740  mm,	Z =   -236.977  mm,
	W =  90.000 deg,	P =   0.000 deg,	R =   30.000 deg
};
P[51]{
   GP1:
	UF : 0, UT : 6,		CONFIG : 'N U T, 0, 0, 0',
	X =  221.938  mm,	Y =   -415.292  mm,	Z =   -236.977  mm,
	W =  90.000 deg,	P =   0.000 deg,	R =   30.000 deg
};
P[52]{
   GP1:
	UF : 0, UT : 6,		CONFIG : 'N U T, 0, 0, 0',
	X =  277.995  mm,	Y =   -382.925  mm,	Z =   -236.977  mm,
	W =  90.000 deg,	P =   0.000 deg,	R =   30.000 deg
};
P[53]{
   GP1:
	UF : 0, UT : 6,		CONFIG : 'N U T, 0, 0, 0',
	X =  222.917  mm,	Y =   -345.001  mm,	Z =   -236.973  mm,
	W =  90.000 deg,	P =   0.000 deg,	R =   30.000 deg
};
P[54]{
   GP1:
	UF : 0, UT : 6,		CONFIG : 'N U T, 0, 0, 0',
	X =  304.211  mm,	Y =   -336.834  mm,	Z =   -236.973  mm,
	W =  90.000 deg,	P =   0.000 deg,	R =   30.000 deg
};
P[55]{
   GP1:
	UF : 0, UT : 6,		CONFIG : 'N U T, 0, 0, 0',
	X =  231.483  mm,	Y =   -340.054  mm,	Z =   -236.972  mm,
	W =  90.000 deg,	P =   0.000 deg,	R =   30.000 deg
};
P[56]{
   GP1:
	UF : 0, UT : 6,		CONFIG : 'N U T, 0, 0, 0',
	X =  291.908  mm,	Y =   -374.892  mm,	Z =   -236.971  mm,
	W =  90.000 deg,	P =   0.000 deg,	R =   30.000 deg
};
P[57]{
   GP1:
	UF : 0, UT : 6,		CONFIG : 'N U T, 0, 0, 0',
	X =  177.797  mm,	Y =   -371.052  mm,	Z =   -236.971  mm,
	W =  90.000 deg,	P =   0.000 deg,	R =   30.000 deg
};
P[58]{
   GP1:
	UF : 0, UT : 6,		CONFIG : 'N U T, 0, 0, 0',
	X =  313.752  mm,	Y =   -354.443  mm,	Z =   -236.970  mm,
	W =  90.000 deg,	P =   0.000 deg,	R =   30.000 deg
};
P[59]{
   GP1:
	UF : 0, UT : 6,		CONFIG : 'N U T, 0, 0, 0',
	X =  207.922  mm,	Y =   -423.385  mm,	Z =   -236.969  mm,
	W =  90.000 deg,	P =   0.000 deg,	R =   30.000 deg
};
P[60]{
   GP1:
	UF : 0, UT : 6,		CONFIG : 'N U T, 0, 0, 0',
	X =  244.287  mm,	Y =   -402.388  mm,	Z =   -236.969  mm,
	W =  90.000 deg,	P =   0.000 deg,	R =   30.000 deg
};
P[61]{
   GP1:
	UF : 0, UT : 6,		CONFIG : 'N U T, 0, 0, 0',
	X =  235.547  mm,	Y =   -407.434  mm,	Z =   -236.969  mm,
	W =  90.000 deg,	P =   0.000 deg,	R =   30.000 deg
};
P[62]{
   GP1:
	UF : 0, UT : 6,		CONFIG : 'N U T, 0, 0, 0',
	X =  188.259  mm,	Y =   -424.595  mm,	Z =   -236.969  mm,
	W =  90.000 deg,	P =   0.000 deg,	R =   30.000 deg
};
P[63]{
   GP1:
	UF : 0, UT : 6,		CONFIG : 'N U T, 0, 0, 0',
	X =  298.716  mm,	Y =   -327.314  mm,	Z =   -236.968  mm,
	W =  90.000 deg,	P =   0.000 deg,	R =   30.000 deg
};
P[64]{
   GP1:
	UF : 0, UT : 6,		CONFIG : 'N U T, 0, 0, 0',
	X =  168.753  mm,	Y =   -390.983  mm,	Z =   -236.968  mm,
	W =  90.000 deg,	P =   0.000 deg,	R =   30.000 deg
};
P[65]{
   GP1:
	UF : 0, UT : 6,		CONFIG : 'N U T, 0, 0, 0',
	X =  310.318  mm,	Y =   -347.409  mm,	Z =   -236.968  mm,
	W =  90.000 deg,	P =   0.000 deg,	R =   30.000 deg
};
P[66]{
   GP1:
	UF : 0, UT : 6,		CONFIG : 'N U T, 0, 0, 0',
	X =  300.748  mm,	Y =   -330.834  mm,	Z =   -236.966  mm,
	W =  90.000 deg,	P =   0.000 deg,	R =   30.000 deg
};
P[67]{
   GP1:
	UF : 0, UT : 6,		CONFIG : 'N U T, 0, 0, 0',
	X =  305.209  mm,	Y =   -338.560  mm,	Z =   -236.965  mm,
	W =  90.000 deg,	P =   0.000 deg,	R =   30.000 deg
};
P[68]{
   GP1:
	UF : 0, UT : 6,		CONFIG : 'N U T, 0, 0, 0',
	X =  167.266  mm,	Y =   -388.371  mm,	Z =   -236.964  mm,
	W =  90.000 deg,	P =   0.000 deg,	R =   30.000 deg
};
P[69]{
   GP1:
	UF : 0, UT : 6,		CONFIG : 'N U T, 0, 0, 0',
	X =  220.962  mm,	Y =   -415.857  mm,	Z =   -236.963  mm,
	W =  90.000 deg,	P =   0.000 deg,	R =   30.000 deg
};
P[70]{
   GP1:
	UF : 0, UT : 6,		CONFIG : 'N U T, 0, 0, 0',
	X =  208.892  mm,	Y =   -353.097  mm,	Z =   -236.963  mm,
	W =  90.000 deg,	P =   0.000 deg,	R =   30.000 deg
};
P[71]{
   GP1:
	UF : 0, UT : 6,		CONFIG : 'N U T, 0, 0, 0',
	X =  196.819  mm,	Y =   -360.068  mm,	Z =   -236.962  mm,
	W =  90.000 deg,	P =   0.000 deg,	R =   30.000 deg
};
P[72]{
   GP1:
	UF : 0, UT : 6,		CONFIG : 'N U T, 0, 0, 0',
	X =  178.673  mm,	Y =   -370.545  mm,	Z =   -236.961  mm,
	W =  90.000 deg,	P =   0.000 deg,	R =   30.000 deg
};
P[73]{
   GP1:
	UF : 0, UT : 6,		CONFIG : 'N U T, 0, 0, 0',
	X =  310.067  mm,	Y =   -364.284  mm,	Z =   -236.960  mm,
	W =  90.000 deg,	P =   0.000 deg,	R =   30.000 deg
};
P[74]{
   GP1:
	UF : 0, UT : 6,		CONFIG : 'N U T, 0, 0, 0',
	X =  303.736  mm,	Y =   -336.007  mm,	Z =   -236.960  mm,
	W =  90.000 deg,	P =   0.000 deg,	R =   30.000 deg
};
P[75]{
   GP1:
	UF : 0, UT : 6,		CONFIG : 'N U T, 0, 0, 0',
	X =  221.912  mm,	Y =   -345.579  mm,	Z =   -236.959  mm,
	W =  90.000 deg,	P =   0.000 deg,	R =   30.000 deg
};
P[76]{
   GP1:
	UF : 0, UT : 6,		CONFIG : 'N U T, 0, 0, 0',
	X =  240.064  mm,	Y =   -335.099  mm,	Z =   -236.958  mm,
	W =  90.000 deg,	P =   0.000 deg,	R =   30.000 deg
};
P[77]{
   GP1:
	UF : 0, UT : 6,		CONFIG : 'N U T, 0, 0, 0',
	X =  176.854  mm,	Y =   -371.596  mm,	Z =   -236.958  mm,
	W =  90.000 deg,	P =   0.000 deg,	R =   30.000 deg
};
P[78]{
   GP1:
	UF : 0, UT : 6,		CONFIG : 'N U T, 0, 0, 0',
	X =  244.558  mm,	Y =   -332.504  mm,	Z =   -236.958  mm,
	W =  90.000 deg,	P =   0.000 deg,	R =   30.000 deg
};
P[79]{
   GP1:
	UF : 0, UT : 6,		CONFIG : 'N U T, 0, 0, 0',
	X =  187.223  mm,	Y =   -422.972  mm,	Z =   -236.957  mm,
	W =  90.000 deg,	P =   0.000 deg,	R =   30.000 deg
};
P[80]{
   GP1:
	UF : 0, UT : 6,		CONFIG : 'N U T, 0, 0, 0',
	X =  275.450  mm,	Y =   -384.397  mm,	Z =   -236.956  mm,
	W =  90.000 deg,	P =   0.000 deg,	R =   30.000 deg
};
P[81]{
   GP1:
	UF : 0, UT : 6,		CONFIG : 'N U T, 0, 0, 0',
	X =  234.949  mm,	Y =   -338.052  mm,	Z =   -236.954  mm,
	W =  90.000 deg,	P =   0.000 deg,	R =   30.000 deg
};
P[82]{
   GP1:
	UF : 0, UT : 6,		CONFIG : 'N U T, 0, 0, 0',
	X =  239.239  mm,	Y =   -405.304  mm,	Z =   -236.954  mm,
	W =  90.000 deg,	P =   0.000 deg,	R =   30.000 deg
};
P[83]{
   GP1:
	UF : 0, UT : 6,		CONFIG : 'N U T, 0, 0, 0',
	X =  256.359  mm,	Y =   -395.420  mm,	Z =   -236.952  mm,
	W =  90.000 deg,	P =   0.000 deg,	R =   30.000 deg
};
P[84]{
   GP1:
	UF : 0, UT : 6,		CONFIG : 'N U T, 0, 0, 0',
	X =  173.328  mm,	Y =   -373.631  mm,	Z =   -236.950  mm,
	W =  90.000 deg,	P =   0.000 deg,	R =   30.000 deg
};
P[85]{
   GP1:
	UF : 0, UT : 6,		CONFIG : 'N U T, 0, 0, 0',
	X =  313.941  mm,	Y =   -356.820  mm,	Z =   -236.949  mm,
	W =  90.000 deg,	P =   0.000 deg,	R =   30.000 deg
};
P[86]{
   GP1:
	UF : 0, UT : 6,		CONFIG : 'N U T, 0, 0, 0',
	X =  294.215  mm,	Y =   -319.517  mm,	Z =   -236.948  mm,
	W =  90.000 deg,	P =   0.000 deg,	R =   30.000 deg
};
P[87]{
   GP1:
	UF : 0, UT : 6,		CONFIG : 'N U T, 0, 0, 0',
	X =  202.889  mm,	Y =   -356.562  mm,	Z =   -236.948  mm,
	W =  90.000 deg,	P =   0.000 deg,	R =   30.000 deg
};
P[88]{
   GP1:
	UF : 0, UT : 6,		CONFIG : 'N U T, 0, 0, 0',
	X =  259.899  mm,	Y =   -323.645  mm,	Z =   -236.948  mm,
	W =  90.000 deg,	P =   0.000 deg,	R =   30.000 deg
};
P[89]{
   GP1:
	UF : 0, UT : 6,		CONFIG : 'N U T, 0, 0, 0',
	X =  213.126  mm,	Y =   -350.651  mm,	Z =   -236.948  mm,
	W =  90.000 deg,	P =   0.000 deg,	R =   30.000 deg
};
P[90]{
   GP1:
	UF : 0, UT : 6,		CONFIG : 'N U T, 0, 0, 0',
	X =  285.787  mm,	Y =   -378.429  mm,	Z =   -236.947  mm,
	W =  90.000 deg,	P =   0.000 deg,	R =   30.000 deg
};
P[91]{
   GP1:
	UF : 0, UT : 6,		CONFIG : 'N U T, 0, 0, 0',
	X =  216.737  mm,	Y =   -348.566  mm,	Z =   -236.946  mm,
	W =  90.000 deg,	P =   0.000 deg,	R =   30.000 deg
};
P[92]{
   GP1:
	UF : 0, UT : 6,		CONFIG : 'N U T, 0, 0, 0',
	X =  292.282  mm,	Y =   -316.200  mm,	Z =   -236.945  mm,
	W =  90.000 deg,	P =   0.000 deg,	R =   30.000 deg
};
P[93]{
   GP1:
	UF : 0, UT : 6,		CONFIG : 'N U T, 0, 0, 0',
	X =  169.143  mm,	Y =   -376.395  mm,	Z =   -236.945  mm,
	W =  90.000 deg,	P =   0.000 deg,	R =   30.000 deg
};
P[94]{
   GP1:
	UF : 0, UT : 6,		CONFIG : 'N U T, 0, 0, 0',
	X =  216.532  mm,	Y =   -418.416  mm,	Z =   -236.944  mm,
	W =  90.000 deg,	P =   0.000 deg,	R =   30.000 deg
};
P[95]{
   GP1:
	UF : 0, UT : 6,		CONFIG : 'N U T, 0, 0, 0',
	X =  183.768  mm,	Y =   -416.990  mm,	Z =   -236.943  mm,
	W =  90.000 deg,	P =   0.000 deg,	R =   30.000 deg
};
P[96]{
   GP1:
	UF : 0, UT : 6,		CONFIG : 'N U T, 0, 0, 0',
	X =  170.208  mm,	Y =   -393.506  mm,	Z =   -236.943  mm,
	W =  90.000 deg,	P =   0.000 deg,	R =   30.000 deg
};
P[97]{
   GP1:
	UF : 0, UT : 6,		CONFIG : 'N U T, 0, 0, 0',
	X =  169.871  mm,	Y =   -375.761  mm,	Z =   -236.942  mm,
	W =  90.000 deg,	P =   0.000 deg,	R =   30.000 deg
};
P[98]{
   GP1:
	UF : 0, UT : 6,		CONFIG : 'N U T, 0, 0, 0',
	X =  220.868  mm,	Y =   -346.181  mm,	Z =   -236.942  mm,
	W =  90.000 deg,	P =   0.000 deg,	R =   30.000 deg
};
P[99]{
   GP1:
	UF : 0, UT : 6,		CONFIG : 'N U T, 0, 0, 0',
	X =  220.035  mm,	Y =   -346.661  mm,	Z =   -236.940  mm,
	W =  90.000 deg,	P =   0.000 deg,	R =   30.000 deg
};
P[100]{
   GP1:
	UF : 0, UT : 6,		CONFIG : 'N U T, 0, 0, 0',
	X =  212.152  mm,	Y =   -420.945  mm,	Z =   -236.939  mm,
	W =  90.000 deg,	P =   0.000 deg,	R =   30.000 deg
};
P[101]{
   GP1:
	UF : 0, UT : 6,		CONFIG : 'N U T, 0, 0, 0',
	X =  230.301  mm,	Y =   -410.466  mm,	Z =   -236.938  mm,
	W =  90.000 deg,	P =   0.000 deg,	R =   30.000 deg
};
P[102]{
   GP1:
	UF : 0, UT : 6,		CONFIG : 'N U T, 0, 0, 0',
	X =  295.297  mm,	Y =   -372.938  mm,	Z =   -236.938  mm,
	W =  90.000 deg,	P =   0.000 deg,	R =   30.000 deg
};
P[103]{
   GP1:
	UF : 0, UT : 6,		CONFIG : 'N U T, 0, 0, 0',
	X =  298.247  mm,	Y =   -326.498  mm,	Z =   -236.937  mm,
	W =  90.000 deg,	P =   0.000 deg,	R =   30.000 deg
};
P[104]{
   GP1:
	UF : 0, UT : 6,		CONFIG : 'N U T, 0, 0, 0',
	X =  183.736  mm,	Y =   -367.620  mm,	Z =   -236.936  mm,
	W =  90.000 deg,	P =   0.000 deg,	R =   30.000 deg
};
P[105]{
   GP1:
	UF : 0, UT : 6,		CONFIG : 'N U T, 0, 0, 0',
	X =  217.431  mm,	Y =   -348.165  mm,	Z =   -236.935  mm,
	W =  90.000 deg,	P =   0.000 deg,	R =   30.000 deg
};
P[106]{
   GP1:
	UF : 0, UT : 6,		CONFIG : 'N U T, 0, 0, 0',
	X =  182.945  mm,	Y =   -368.077  mm,	Z =   -236.935  mm,
	W =  90.000 deg,	P =   0.000 deg,	R =   30.000 deg
};
P[107]{
   GP1:
	UF : 0, UT : 6,		CONFIG : 'N U T, 0, 0, 0',
	X =  175.999  mm,	Y =   -372.087  mm,	Z =   -236.935  mm,
	W =  90.000 deg,	P =   0.000 deg,	R =   30.000 deg
};
P[108]{
   GP1:
	UF : 0, UT : 6,		CONFIG : 'N U T, 0, 0, 0',
	X =  190.538  mm,	Y =   -426.792  mm,	Z =   -236.931  mm,
	W =  90.000 deg,	P =   0.000 deg,	R =   30.000 deg
};
P[109]{
   GP1:
	UF : 0, UT : 6,		CONFIG : 'N U T, 0, 0, 0',
	X =  298.772  mm,	Y =   -370.932  mm,	Z =   -236.930  mm,
	W =  90.000 deg,	P =   0.000 deg,	R =   30.000 deg
};
P[110]{
   GP1:
	UF : 0, UT : 6,		CONFIG : 'N U T, 0, 0, 0',
	X =  214.180  mm,	Y =   -350.042  mm,	Z =   -236.928  mm,
	W =  90.000 deg,	P =   0.000 deg,	R =   30.000 deg
};
P[111]{
   GP1:
	UF : 0, UT : 6,		CONFIG : 'N U T, 0, 0, 0',
	X =  242.677  mm,	Y =   -403.321  mm,	Z =   -236.928  mm,
	W =  90.000 deg,	P =   0.000 deg,	R =   30.000 deg
};
P[112]{
   GP1:
	UF : 0, UT : 6,		CONFIG : 'N U T, 0, 0, 0',
	X =  312.177  mm,	Y =   -362.074  mm,	Z =   -236.926  mm,
	W =  90.000 deg,	P =   0.000 deg,	R =   30.000 deg
};
P[113]{
   GP1:
	UF : 0, UT : 6,		CONFIG : 'N U T, 0, 0, 0',
	X =  270.374  mm,	Y =   -387.329  mm,	Z =   -236.926  mm,
	W =  90.000 deg,	P =   0.000 deg,	R =   30.000 deg
};
P[114]{
   GP1:
	UF : 0, UT : 6,		CONFIG : 'N U T, 0, 0, 0',
	X =  272.132  mm,	Y =   -316.580  mm,	Z =   -236.926  mm,
	W =  90.000 deg,	P =   0.000 deg,	R =   30.000 deg
};
P[115]{
   GP1:
	UF : 0, UT : 6,		CONFIG : 'N U T, 0, 0, 0',
	X =  167.258  mm,	Y =   -378.845  mm,	Z =   -236.926  mm,
	W =  90.000 deg,	P =   0.000 deg,	R =   30.000 deg
};
P[116]{
   GP1:
	UF : 0, UT : 6,		CONFIG : 'N U T, 0, 0, 0',
	X =  169.504  mm,	Y =   -376.065  mm,	Z =   -236.925  mm,
	W =  90.000 deg,	P =   0.000 deg,	R =   30.000 deg
};
P[117]{
   GP1:
	UF : 0, UT : 6,		CONFIG : 'N U T, 0, 0, 0',
	X =  301.454  mm,	Y =   -369.384  mm,	Z =   -236.925  mm,
	W =  90.000 deg,	P =   0.000 deg,	R =   30.000 deg
};
P[118]{
   GP1:
	UF : 0, UT : 6,		CONFIG : 'N U T, 0, 0, 0',
	X =  212.337  mm,	Y =   -351.105  mm,	Z =   -236.924  mm,
	W =  90.000 deg,	P =   0.000 deg,	R =   30.000 deg
};
P[119]{
   GP1:
	UF : 0, UT : 6,		CONFIG : 'N U T, 0, 0, 0',
	X =  179.767  mm,	Y =   -410.064  mm,	Z =   -236.922  mm,
	W =  90.000 deg,	P =   0.000 deg,	R =   30.000 deg
};
P[120]{
   GP1:
	UF : 0, UT : 6,		CONFIG : 'N U T, 0, 0, 0',
	X =  265.941  mm,	Y =   -389.889  mm,	Z =   -236.922  mm,
	W =  90.000 deg,	P =   0.000 deg,	R =   30.000 deg
};
P[121]{
   GP1:
	UF : 0, UT : 6,		CONFIG : 'N U T, 0, 0, 0',
	X =  253.879  mm,	Y =   -396.854  mm,	Z =   -236.919  mm,
	W =  90.000 deg,	P =   0.000 deg,	R =   30.000 deg
};
P[122]{
   GP1:
	UF : 0, UT : 6,		CONFIG : 'N U T, 0, 0, 0',
	X =  293.173  mm,	Y =   -317.708  mm,	Z =   -236.918  mm,
	W =  90.000 deg,	P =   0.000 deg,	R =   30.000 deg
};
P[123]{
   GP1:
	UF : 0, UT : 6,		CONFIG : 'N U T, 0, 0, 0',
	X =  279.085  mm,	Y =   -312.593  mm,	Z =   -236.918  mm,
	W =  90.000 deg,	P =   0.000 deg,	R =   30.000 deg
};
P[124]{
   GP1:
	UF : 0, UT : 6,		CONFIG : 'N U T, 0, 0, 0',
	X =  195.894  mm,	Y =   -360.598  mm,	Z =   -236.917  mm,
	W =  90.000 deg,	P =   0.000 deg,	R =   30.000 deg
};
P[125]{
   GP1:
	UF : 0, UT : 6,		CONFIG : 'N U T, 0, 0, 0',
	X =  168.226  mm,	Y =   -390.076  mm,	Z =   -236.917  mm,
	W =  90.000 deg,	P =   0.000 deg,	R =   30.000 deg
};
P[126]{
   GP1:
	UF : 0, UT : 6,		CONFIG : 'N U T, 0, 0, 0',
	X =  194.386  mm,	Y =   -428.417  mm,	Z =   -236.916  mm,
	W =  90.000 deg,	P =   0.000 deg,	R =   30.000 deg
};
P[127]{
   GP1:
	UF : 0, UT : 6,		CONFIG : 'N U T, 0, 0, 0',
	X =  291.762  mm,	Y =   -315.430  mm,	Z =   -236.915  mm,
	W =  90.000 deg,	P =   0.000 deg,	R =   30.000 deg
};
P[128]{
   GP1:
	UF : 0, UT : 6,		CONFIG : 'N U T, 0, 0, 0',
	X =  166.388  mm,	Y =   -381.035  mm,	Z =   -236.914  mm,
	W =  90.000 deg,	P =   0.000 deg,	R =   30.000 deg
};
P[129]{
   GP1:
	UF : 0, UT : 6,		CONFIG : 'N U T, 0, 0, 0',
	X =  198.338  mm,	Y =   -359.188  mm,	Z =   -236.913  mm,
	W =  90.000 deg,	P =   0.000 deg,	R =   30.000 deg
};
P[130]{
   GP1:
	UF : 0, UT : 6,		CONFIG : 'N U T, 0, 0, 0',
	X =  300.451  mm,	Y =   -369.964  mm,	Z =   -236.913  mm,
	W =  90.000 deg,	P =   0.000 deg,	R =   30.000 deg
};
P[131]{
   GP1:
	UF : 0, UT : 6,		CONFIG : 'N U T, 0, 0, 0',
	X =  280.935  mm,	Y =   -311.837  mm,	Z =   -236.913  mm,
	W =  90.000 deg,	P =   0.000 deg,	R =   30.000 deg
};
P[132]{
   GP1:
	UF : 0, UT : 6,		CONFIG : 'N U T, 0, 0, 0',
	X =  245.143  mm,	Y =   -401.899  mm,	Z =   -236.911  mm,
	W =  90.000 deg,	P =   0.000 deg,	R =   30.000 deg
};
P[133]{
   GP1:
	UF : 0, UT : 6,		CONFIG : 'N U T, 0, 0, 0',
	X =  219.252  mm,	Y =   -347.112  mm,	Z =   -236.909  mm,
	W =  90.000 deg,	P =   0.000 deg,	R =   30.000 deg
};
P[134]{
   GP1:
	UF : 0, UT : 6,		CONFIG : 'N U T, 0, 0, 0',
	X =  226.161  mm,	Y =   -343.122  mm,	Z =   -236.908  mm,
	W =  90.000 deg,	P =   0.000 deg,	R =   30.000 deg
};
P[135]{
   GP1:
	UF : 0, UT : 6,		CONFIG : 'N U T, 0, 0, 0',
	X =  223.574  mm,	Y =   -344.615  mm,	Z =   -236.908  mm,
	W =  90.000 deg,	P =   0.000 deg,	R =   30.000 deg
};
P[136]{
   GP1:
	UF : 0, UT : 6,		CONFIG : 'N U T, 0, 0, 0',
	X =  233.099  mm,	Y =   -339.116  mm,	Z =   -236.905  mm,
	W =  90.000 deg,	P =   0.000 deg,	R =   30.000 deg
};
P[137]{
   GP1:
	UF : 0, UT : 6,		CONFIG : 'N U T, 0, 0, 0',
	X =  203.471  mm,	Y =   -425.960  mm,	Z =   -236.903  mm,
	W =  90.000 deg,	P =   0.000 deg,	R =   30.000 deg
};
P[138]{
   GP1:
	UF : 0, UT : 6,		CONFIG : 'N U T, 0, 0, 0',
	X =  292.735  mm,	Y =   -316.947  mm,	Z =   -236.902  mm,
	W =  90.000 deg,	P =   0.000 deg,	R =   30.000 deg
};
P[139]{
   GP1:
	UF : 0, UT : 6,		CONFIG : 'N U T, 0, 0, 0',
	X =  302.487  mm,	Y =   -368.789  mm,	Z =   -236.902  mm,
	W =  90.000 deg,	P =   0.000 deg,	R =   30.000 deg
};
P[140]{
   GP1:
	UF : 0, UT : 6,		CONFIG : 'N U T, 0, 0, 0',
	X =  184.722  mm,	Y =   -418.649  mm,	Z =   -236.902  mm,
	W =  90.000 deg,	P =   0.000 deg,	R =   30.000 deg
};
P[141]{
   GP1:
	UF : 0, UT : 6,		CONFIG : 'N U T, 0, 0, 0',
	X =  242.584  mm,	Y =   -333.639  mm,	Z =   -236.901  mm,
	W =  90.000 deg,	P =   0.000 deg,	R =   30.000 deg
};
P[142]{
   GP1:
	UF : 0, UT : 6,		CONFIG : 'N U T, 0, 0, 0',
	X =  220.032  mm,	Y =   -416.398  mm,	Z =   -236.900  mm,
	W =  90.000 deg,	P =   0.000 deg,	R =   30.000 deg
};
P[143]{
   GP1:
	UF : 0, UT : 6,		CONFIG : 'N U T, 0, 0, 0',
	X =  210.433  mm,	Y =   -421.941  mm,	Z =   -236.898  mm,
	W =  90.000 deg,	P =   0.000 deg,	R =   30.000 deg
};
P[144]{
   GP1:
	UF : 0, UT : 6,		CONFIG : 'N U T, 0, 0, 0',
	X =  267.736  mm,	Y =   -319.116  mm,	Z =   -236.894  mm,
	W =  90.000 deg,	P =   0.000 deg,	R =   30.000 deg
};
P[145]{
   GP1:
	UF : 0, UT : 6,		CONFIG : 'N U T, 0, 0, 0',
	X =  181.692  mm,	Y =   -413.402  mm,	Z =   -236.893  mm,
	W =  90.000 deg,	P =   0.000 deg,	R =   30.000 deg
};
P[146]{
   GP1:
	UF : 0, UT : 6,		CONFIG : 'N U T, 0, 0, 0',
	X =  186.341  mm,	Y =   -366.112  mm,	Z =   -236.892  mm,
	W =  90.000 deg,	P =   0.000 deg,	R =   30.000 deg
};
P[147]{
   GP1:
	UF : 0, UT : 6,		CONFIG : 'N U T, 0, 0, 0',
	X =  308.213  mm,	Y =   -343.753  mm,	Z =   -236.891  mm,
	W =  90.000 deg,	P =   0.000 deg,	R =   30.000 deg
};
P[148]{
   GP1:
	UF : 0, UT : 6,		CONFIG : 'N U T, 0, 0, 0',
	X =  313.588  mm,	Y =   -359.064  mm,	Z =   -236.890  mm,
	W =  90.000 deg,	P =   0.000 deg,	R =   30.000 deg
};
P[149]{
   GP1:
	UF : 0, UT : 6,		CONFIG : 'N U T, 0, 0, 0',
	X =  312.787  mm,	Y =   -351.727  mm,	Z =   -236.889  mm,
	W =  90.000 deg,	P =   0.000 deg,	R =   30.000 deg
};
P[150]{
   GP1:
	UF : 0, UT : 6,		CONFIG : 'N U T, 0, 0, 0',
	X =  195.009  mm,	Y =   -361.107  mm,	Z =   -236.885  mm,
	W =  90.000 deg,	P =   0.000 deg,	R =   30.000 deg
};
P[151]{
   GP1:
	UF : 0, UT : 6,		CONFIG : 'N U T, 0, 0, 0',
	X =  268.659  mm,	Y =   -318.581  mm,	Z =   -236.883  mm,
	W =  90.000 deg,	P =   0.000 deg,	R =   30.000 deg
};
P[152]{
   GP1:
	UF : 0, UT : 6,		CONFIG : 'N U T, 0, 0, 0',
	X =  290.956  mm,	Y =   -314.482  mm,	Z =   -236.883  mm,
	W =  90.000 deg,	P =   0.000 deg,	R =   30.000 deg
};
P[153]{
   GP1:
	UF : 0, UT : 6,		CONFIG : 'N U T, 0, 0, 0',
	X =  185.239  mm,	Y =   -419.546  mm,	Z =   -236.883  mm,
	W =  90.000 deg,	P =   0.000 deg,	R =   30.000 deg
};
P[154]{
   GP1:
	UF : 0, UT : 6,		CONFIG : 'N U T, 0, 0, 0',
	X =  275.730  mm,	Y =   -314.499  mm,	Z =   -236.882  mm,
	W =  90.000 deg,	P =   0.000 deg,	R =   30.000 deg
};
P[155]{
   GP1:
	UF : 0, UT : 6,		CONFIG : 'N U T, 0, 0, 0',
	X =  232.345  mm,	Y =   -339.549  mm,	Z =   -236.882  mm,
	W =  90.000 deg,	P =   0.000 deg,	R =   30.000 deg
};
P[156]{
   GP1:
	UF : 0, UT : 6,		CONFIG : 'N U T, 0, 0, 0',
	X =  175.205  mm,	Y =   -402.169  mm,	Z =   -236.879  mm,
	W =  90.000 deg,	P =   0.000 deg,	R =   30.000 deg
};
P[157]{
   GP1:
	UF : 0, UT : 6,		CONFIG : 'N U T, 0, 0, 0',
	X =  296.250  mm,	Y =   -323.032  mm,	Z =   -236.875  mm,
	W =  90.000 deg,	P =   0.000 deg,	R =   30.000 deg
};
P[158]{
   GP1:
	UF : 0, UT : 6,		CONFIG : 'N U T, 0, 0, 0',
	X =  288.417  mm,	Y =   -312.561  mm,	Z =   -236.875  mm,
	W =  90.000 deg,	P =   0.000 deg,	R =   30.000 deg
};
P[159]{
   GP1:
	UF : 0, UT : 6,		CONFIG : 'N U T, 0, 0, 0',
	X =  292.695  mm,	Y =   -374.446  mm,	Z =   -236.874  mm,
	W =  90.000 deg,	P =   0.000 deg,	R =   30.000 deg
};
P[160]{
   GP1:
	UF : 0, UT : 6,		CONFIG : 'N U T, 0, 0, 0',
	X =  246.967  mm,	Y =   -331.106  mm,	Z =   -236.873  mm,
	W =  90.000 deg,	P =   0.000 deg,	R =   30.000 deg
};
P[161]{
   GP1:
	UF : 0, UT : 6,		CONFIG : 'N U T, 0, 0, 0',
	X =  197.446  mm,	Y =   -359.699  mm,	Z =   -236.871  mm,
	W =  90.000 deg,	P =   0.000 deg,	R =   30.000 deg
};
P[162]{
   GP1:
	UF : 0, UT : 6,		CONFIG : 'N U T, 0, 0, 0',
	X =  274.744  mm,	Y =   -315.068  mm,	Z =   -236.871  mm,
	W =  90.000 deg,	P =   0.000 deg,	R =   30.000 deg
};
P[163]{
   GP1:
	UF : 0, UT : 6,		CONFIG : 'N U T, 0, 0, 0',
	X =  312.781  mm,	Y =   -361.087  mm,	Z =   -236.871  mm,
	W =  90.000 deg,	P =   0.000 deg,	R =   30.000 deg
};
P[164]{
   GP1:
	UF : 0, UT : 6,		CONFIG : 'N U T, 0, 0, 0',
	X =  261.655  mm,	Y =   -392.368  mm,	Z =   -236.871  mm,
	W =  90.000 deg,	P =   0.000 deg,	R =   30.000 deg
};
P[165]{
   GP1:
	UF : 0, UT : 6,		CONFIG : 'N U T, 0, 0, 0',
	X =  308.742  mm,	Y =   -344.667  mm,	Z =   -236.871  mm,
	W =  90.000 deg,	P =   0.000 deg,	R =   30.000 deg
};
P[166]{
   GP1:
	UF : 0, UT : 6,		CONFIG : 'N U T, 0, 0, 0',
	X =  226.182  mm,	Y =   -412.850  mm,	Z =   -236.870  mm,
	W =  90.000 deg,	P =   0.000 deg,	R =   30.000 deg
};
P[167]{
   GP1:
	UF : 0, UT : 6,		CONFIG : 'N U T, 0, 0, 0',
	X =  278.954  mm,	Y =   -382.380  mm,	Z =   -236.870  mm,
	W =  90.000 deg,	P =   0.000 deg,	R =   30.000 deg
};
P[168]{
   GP1:
	UF : 0, UT : 6,		CONFIG : 'N U T, 0, 0, 0',
	X =  192.435  mm,	Y =   -427.832  mm,	Z =   -236.869  mm,
	W =  90.000 deg,	P =   0.000 deg,	R =   30.000 deg
};
P[169]{
   GP1:
	UF : 0, UT : 6,		CONFIG : 'N U T, 0, 0, 0',
	X =  290.440  mm,	Y =   -313.972  mm,	Z =   -236.869  mm,
	W =  90.000 deg,	P =   0.000 deg,	R =   30.000 deg
};
P[170]{
   GP1:
	UF : 0, UT : 6,		CONFIG : 'N U T, 0, 0, 0',
	X =  252.856  mm,	Y =   -397.448  mm,	Z =   -236.868  mm,
	W =  90.000 deg,	P =   0.000 deg,	R =   30.000 deg
};
P[171]{
   GP1:
	UF : 0, UT : 6,		CONFIG : 'N U T, 0, 0, 0',
	X =  182.204  mm,	Y =   -414.292  mm,	Z =   -236.867  mm,
	W =  90.000 deg,	P =   0.000 deg,	R =   30.000 deg
};
P[172]{
   GP1:
	UF : 0, UT : 6,		CONFIG : 'N U T, 0, 0, 0',
	X =  214.850  mm,	Y =   -419.394  mm,	Z =   -236.863  mm,
	W =  90.000 deg,	P =   0.000 deg,	R =   30.000 deg
};
P[173]{
   GP1:
	UF : 0, UT : 6,		CONFIG : 'N U T, 0, 0, 0',
	X =  241.771  mm,	Y =   -334.105  mm,	Z =   -236.862  mm,
	W =  90.000 deg,	P =   0.000 deg,	R =   30.000 deg
};
P[174]{
   GP1:
	UF : 0, UT : 6,		CONFIG : 'N U T, 0, 0, 0',
	X =  174.201  mm,	Y =   -400.434  mm,	Z =   -236.858  mm,
	W =  90.000 deg,	P =   0.000 deg,	R =   30.000 deg
};
P[175]{
   GP1:
	UF : 0, UT : 6,		CONFIG : 'N U T, 0, 0, 0',
	X =  299.250  mm,	Y =   -328.224  mm,	Z =   -236.854  mm,
	W =  90.000 deg,	P =   0.000 deg,	R =   30.000 deg
};
P[176]{
   GP1:
	UF : 0, UT : 6,		CONFIG : 'N U T, 0, 0, 0',
	X =  227.976  mm,	Y =   -342.070  mm,	Z =   -236.853  mm,
	W =  90.000 deg,	P =   0.000 deg,	R =   30.000 deg
};
P[177]{
   GP1:
	UF : 0, UT : 6,		CONFIG : 'N U T, 0, 0, 0',
	X =  264.154  mm,	Y =   -390.926  mm,	Z =   -236.853  mm,
	W =  90.000 deg,	P =   0.000 deg,	R =   30.000 deg
};
P[178]{
   GP1:
	UF : 0, UT : 6,		CONFIG : 'N U T, 0, 0, 0',
	X =  205.352  mm,	Y =   -355.132  mm,	Z =   -236.853  mm,
	W =  90.000 deg,	P =   0.000 deg,	R =   30.000 deg
};
P[179]{
   GP1:
	UF : 0, UT : 6,		CONFIG : 'N U T, 0, 0, 0',
	X =  277.087  mm,	Y =   -383.460  mm,	Z =   -236.849  mm,
	W =  90.000 deg,	P =   0.000 deg,	R =   30.000 deg
};
P[180]{
   GP1:
	UF : 0, UT : 6,		CONFIG : 'N U T, 0, 0, 0',
	X =  186.725  mm,	Y =   -422.125  mm,	Z =   -236.848  mm,
	W =  90.000 deg,	P =   0.000 deg,	R =   30.000 deg
};
P[181]{
   GP1:
	UF : 0, UT : 6,		CONFIG : 'N U T, 0, 0, 0',
	X =  313.554  mm,	Y =   -353.603  mm,	Z =   -236.841  mm,
	W =  90.000 deg,	P =   0.000 deg,	R =   30.000 deg
};
P[182]{
   GP1:
	UF : 0, UT : 6,		CONFIG : 'N U T, 0, 0, 0',
	X =  247.789  mm,	Y =   -400.377  mm,	Z =   -236.833  mm,
	W =  90.000 deg,	P =   0.000 deg,	R =   30.000 deg
};
P[183]{
   GP1:
	UF : 0, UT : 6,		CONFIG : 'N U T, 0, 0, 0',
	X =  167.675  mm,	Y =   -389.134  mm,	Z =   -236.827  mm,
	W =  90.000 deg,	P =   0.000 deg,	R =   30.000 deg
};
P[184]{
   GP1:
	UF : 0, UT : 6,		CONFIG : 'N U T, 0, 0, 0',
	X =  313.922  mm,	Y =   -355.565  mm,	Z =   -236.824  mm,
	W =  90.000 deg,	P =   0.000 deg,	R =   30.000 deg
};
P[185]{
   GP1:
	UF : 0, UT : 6,		CONFIG : 'N U T, 0, 0, 0',
	X =  199.239  mm,	Y =   -358.660  mm,	Z =   -236.824  mm,
	W =  90.000 deg,	P =   0.000 deg,	R =   30.000 deg
};
P[186]{
   GP1:
	UF : 0, UT : 6,		CONFIG : 'N U T, 0, 0, 0',
	X =  171.507  mm,	Y =   -374.672  mm,	Z =   -236.821  mm,
	W =  90.000 deg,	P =   0.000 deg,	R =   30.000 deg
};
P[187]{
   GP1:
	UF : 0, UT : 6,		CONFIG : 'N U T, 0, 0, 0',
	X =  222.630  mm,	Y =   -414.905  mm,	Z =   -236.820  mm,
	W =  90.000 deg,	P =   0.000 deg,	R =   30.000 deg
};
P[188]{
   GP1:
	UF : 0, UT : 6,		CONFIG : 'N U T, 0, 0, 0',
	X =  249.684  mm,	Y =   -329.533  mm,	Z =   -236.818  mm,
	W =  90.000 deg,	P =   0.000 deg,	R =   30.000 deg
};
P[189]{
   GP1:
	UF : 0, UT : 6,		CONFIG : 'N U T, 0, 0, 0',
	X =  169.201  mm,	Y =   -391.778  mm,	Z =   -236.817  mm,
	W =  90.000 deg,	P =   0.000 deg,	R =   30.000 deg
};
P[190]{
   GP1:
	UF : 0, UT : 6,		CONFIG : 'N U T, 0, 0, 0',
	X =  285.665  mm,	Y =   -311.582  mm,	Z =   -236.812  mm,
	W =  90.000 deg,	P =   0.000 deg,	R =   30.000 deg
};
P[191]{
   GP1:
	UF : 0, UT : 6,		CONFIG : 'N U T, 0, 0, 0',
	X =  304.943  mm,	Y =   -367.380  mm,	Z =   -236.803  mm,
	W =  90.000 deg,	P =   0.000 deg,	R =   30.000 deg
};
P[192]{
   GP1:
	UF : 0, UT : 6,		CONFIG : 'N U T, 0, 0, 0',
	X =  313.167  mm,	Y =   -360.292  mm,	Z =   -236.800  mm,
	W =  90.000 deg,	P =   0.000 deg,	R =   30.000 deg
};
P[193]{
   GP1:
	UF : 0, UT : 6,		CONFIG : 'N U T, 0, 0, 0',
	X =  300.297  mm,	Y =   -330.028  mm,	Z =   -236.793  mm,
	W =  90.000 deg,	P =   0.000 deg,	R =   30.000 deg
};
P[194]{
   GP1:
	UF : 0, UT : 6,		CONFIG : 'N U T, 0, 0, 0',
	X =  214.915  mm,	Y =   -349.606  mm,	Z =   -236.789  mm,
	W =  90.000 deg,	P =   0.000 deg,	R =   30.000 deg
};
P[195]{
   GP1:
	UF : 0, UT : 6,		CONFIG : 'N U T, 0, 0, 0',
	X =  187.243  mm,	Y =   -365.583  mm,	Z =   -236.787  mm,
	W =  90.000 deg,	P =   0.000 deg,	R =   30.000 deg
};
P[196]{
   GP1:
	UF : 0, UT : 6,		CONFIG : 'N U T, 0, 0, 0',
	X =  166.540  mm,	Y =   -380.416  mm,	Z =   -236.784  mm,
	W =  90.000 deg,	P =   0.000 deg,	R =   30.000 deg
};
P[197]{
   GP1:
	UF : 0, UT : 6,		CONFIG : 'N U T, 0, 0, 0',
	X =  178.219  mm,	Y =   -407.403  mm,	Z =   -236.781  mm,
	W =  90.000 deg,	P =   0.000 deg,	R =   30.000 deg
};
P[198]{
   GP1:
	UF : 0, UT : 6,		CONFIG : 'N U T, 0, 0, 0',
	X =  291.341  mm,	Y =   -314.893  mm,	Z =   -236.779  mm,
	W =  90.000 deg,	P =   0.000 deg,	R =   30.000 deg
};
P[199]{
   GP1:
	UF : 0, UT : 6,		CONFIG : 'N U T, 0, 0, 0',
	X =  269.356  mm,	Y =   -387.930  mm,	Z =   -236.772  mm,
	W =  90.000 deg,	P =   0.000 deg,	R =   30.000 deg
};
P[200]{
   GP1:
	UF : 0, UT : 6,		CONFIG : 'N U T, 0, 0, 0',
	X =  200.052  mm,	Y =   -427.829  mm,	Z =   -236.739  mm,
	W =  90.000 deg,	P =   0.000 deg,	R =   30.000 deg
};
P[201]{
   GP1:
	UF : 0, UT : 6,		CONFIG : 'N U T, 0, 0, 0',
	X =  206.163  mm,	Y =   -424.420  mm,	Z =   -236.734  mm,
	W =  90.000 deg,	P =   0.000 deg,	R =   30.000 deg
};
P[202]{
   GP1:
	UF : 0, UT : 6,		CONFIG : 'N U T, 0, 0, 0',
	X =  188.684  mm,	Y =   -425.147  mm,	Z =   -236.687  mm,
	W =  90.000 deg,	P =   0.000 deg,	R =   30.000 deg
};
P[203]{
   GP1:
	UF : 0, UT : 6,		CONFIG : 'N U T, 0, 0, 0',
	X =  166.072  mm,	Y =   -382.578  mm,	Z =   -236.603  mm,
	W =  90.000 deg,	P =   0.000 deg,	R =   30.000 deg
};
P[204]{
   GP1:
	UF : 0, UT : 6,		CONFIG : 'N U T, 0, 0, 0',
	X =  280.539  mm,	Y =   -311.935  mm,	Z =   -236.591  mm,
	W =  90.000 deg,	P =   0.000 deg,	R =   30.000 deg
};
P[205]{
   GP1:
	UF : 0, UT : 6,		CONFIG : 'N U T, 0, 0, 0',
	X =  167.889  mm,	Y =   -374.118  mm,	Z =   -204.012  mm,
	W =  90.000 deg,	P =   0.000 deg,	R =   30.000 deg
};
P[206]{
   GP1:
	UF : 0, UT : 6,		CONFIG : 'N U T, 0, 0, 0',
	X =  240.000  mm,	Y =   -370.000  mm,	Z =   -270.000  mm,
	W =  90.000 deg,	P =   0.000 deg,	R =   30.000 deg
};
P[207]{
   GP1:
	UF : 0, UT : 6,		CONFIG : 'N U T, 0, 0, 0',
	X =  240.000  mm,	Y =   -370.000  mm,	Z =   -170.000  mm,
	W =  90.000 deg,	P =   0.000 deg,	R =   30.000 deg
};
/END
