/PROG  WALL01.LS
/ATTR
OWNER       = MNEDITOR;
COMMENT     = "";
PROG_SIZE   = 636;
CREATE      = DATE 23-01-07  TIME 11:59:14;
MODIFIED    = DATE 23-01-07  TIME 12:02:18;
FILE_NAME   = ;
VERSION     = 0;
LINE_COUNT  = 4;
MEMORY_SIZE = 992;
PROTECT     = READ_WRITE;
TCD:  STACK_SIZE	= 0,
      TASK_PRIORITY	= 50,
      TIME_SLICE	= 0,
      BUSY_LAMP_OFF	= 0,
      ABORT_REQUEST	= 0,
      PAUSE_REQUEST	= 0;
DEFAULT_GROUP	= 1,*,*,*,*;
CONTROL_CODE	= 00000000 00000000;
/MN
   1:J P[1] 100% FINE    ;
   2:L P[2] 100mm/sec CNT0    ;
   3:L P[3] 100mm/sec CNT0    ;
   4:L P[4] 100mm/sec CNT0    ;
   5:L P[5] 100mm/sec CNT0    ;
   6:L P[6] 100mm/sec CNT0    ;
   7:L P[7] 100mm/sec CNT0    ;
   8:L P[8] 100mm/sec CNT0    ;
   9:L P[9] 100mm/sec CNT0    ;
   10:L P[10] 100mm/sec CNT0    ;
   11:L P[11] 100mm/sec CNT0    ;
   12:L P[12] 100mm/sec CNT0    ;
   13:L P[13] 100mm/sec CNT0    ;
   14:L P[14] 100mm/sec CNT0    ;
   15:L P[15] 100mm/sec CNT0    ;
   16:L P[16] 100mm/sec CNT0    ;
   17:L P[17] 100mm/sec CNT0    ;
   18:L P[18] 100mm/sec CNT0    ;
   19:L P[19] 100mm/sec CNT0    ;
   20:L P[20] 100mm/sec CNT0    ;
   21:L P[21] 100mm/sec CNT0    ;
   22:L P[22] 100mm/sec CNT0    ;
   23:L P[23] 100mm/sec CNT0    ;
   24:L P[24] 100mm/sec CNT0    ;
   25:L P[25] 100mm/sec CNT0    ;
   26:L P[26] 100mm/sec CNT0    ;
   27:L P[27] 100mm/sec CNT0    ;
   28:L P[28] 100mm/sec CNT0    ;
   29:L P[29] 100mm/sec CNT0    ;
   30:L P[30] 100mm/sec CNT0    ;
   31:L P[31] 100mm/sec CNT0    ;
   32:L P[32] 100mm/sec CNT0    ;
   33:L P[33] 100mm/sec CNT0    ;
   34:L P[34] 100mm/sec CNT0    ;
   35:L P[35] 100mm/sec CNT0    ;
   36:L P[36] 100mm/sec CNT0    ;
   37:L P[37] 100mm/sec CNT0    ;
   38:L P[38] 100mm/sec CNT0    ;
   39:L P[39] 100mm/sec CNT0    ;
   40:L P[40] 100mm/sec CNT0    ;
   41:L P[41] 100mm/sec CNT0    ;
   42:L P[42] 100mm/sec CNT0    ;
   43:L P[43] 100mm/sec CNT0    ;
   44:L P[44] 100mm/sec CNT0    ;
   45:L P[45] 100mm/sec CNT0    ;
   46:L P[46] 100mm/sec CNT0    ;
   47:L P[47] 100mm/sec CNT0    ;
   48:L P[48] 100mm/sec CNT0    ;
   49:L P[49] 100mm/sec CNT0    ;
   50:L P[50] 100mm/sec CNT0    ;
   51:L P[51] 100mm/sec CNT0    ;
   52:L P[52] 100mm/sec CNT0    ;
   53:L P[53] 100mm/sec CNT0    ;
   54:L P[54] 100mm/sec CNT0    ;
   55:L P[55] 100mm/sec CNT0    ;
   56:L P[56] 100mm/sec CNT0    ;
   57:L P[57] 100mm/sec CNT0    ;
   58:L P[58] 100mm/sec CNT0    ;
   59:L P[59] 100mm/sec CNT0    ;
   60:L P[60] 100mm/sec CNT0    ;
   61:L P[61] 100mm/sec CNT0    ;
/POS
P[1]{
   GP1:
	UF : 0, UT : 6,		CONFIG : 'N U T, 0, 0, 0',
	X =  180.565  mm,	Y =   -380.216  mm,	Z =   -263.286  mm,
	W =  89.588 deg,	P =   -0.714 deg,	R =   90.000 deg
};
P[2]{
   GP1:
	UF : 0, UT : 6,		CONFIG : 'N U T, 0, 0, 0',
	X =  279.055  mm,	Y =   -323.526  mm,	Z =   -263.123  mm,
	W =  90.412 deg,	P =   0.714 deg,	R =   90.000 deg
};
P[3]{
   GP1:
	UF : 0, UT : 6,		CONFIG : 'N U T, 0, 0, 0',
	X =  221.423  mm,	Y =   -403.145  mm,	Z =   -247.952  mm,
	W =  89.286 deg,	P =   0.412 deg,	R =   90.000 deg
};
P[4]{
   GP1:
	UF : 0, UT : 6,		CONFIG : 'N U T, 0, 0, 0',
	X =  235.686  mm,	Y =   -394.912  mm,	Z =   -247.922  mm,
	W =  89.286 deg,	P =   0.412 deg,	R =   90.000 deg
};
P[5]{
   GP1:
	UF : 0, UT : 6,		CONFIG : 'N U T, 0, 0, 0',
	X =  250.014  mm,	Y =   -386.630  mm,	Z =   -248.043  mm,
	W =  89.286 deg,	P =   0.412 deg,	R =   90.000 deg
};
P[6]{
   GP1:
	UF : 0, UT : 6,		CONFIG : 'N U T, 0, 0, 0',
	X =  264.278  mm,	Y =   -378.402  mm,	Z =   -247.947  mm,
	W =  89.286 deg,	P =   0.412 deg,	R =   90.000 deg
};
P[7]{
   GP1:
	UF : 0, UT : 6,		CONFIG : 'N U T, 0, 0, 0',
	X =  278.567  mm,	Y =   -370.143  mm,	Z =   -247.988  mm,
	W =  89.286 deg,	P =   0.412 deg,	R =   90.000 deg
};
P[8]{
   GP1:
	UF : 0, UT : 6,		CONFIG : 'N U T, 0, 0, 0',
	X =  216.089  mm,	Y =   -361.055  mm,	Z =   -243.844  mm,
	W =  90.714 deg,	P =   -0.412 deg,	R =   90.000 deg
};
P[9]{
   GP1:
	UF : 0, UT : 6,		CONFIG : 'N U T, 0, 0, 0',
	X =  201.670  mm,	Y =   -369.384  mm,	Z =   -243.871  mm,
	W =  90.714 deg,	P =   -0.412 deg,	R =   90.000 deg
};
P[10]{
   GP1:
	UF : 0, UT : 6,		CONFIG : 'N U T, 0, 0, 0',
	X =  178.486  mm,	Y =   -379.773  mm,	Z =   -243.355  mm,
	W =  89.588 deg,	P =   -0.714 deg,	R =   90.000 deg
};
P[11]{
   GP1:
	UF : 0, UT : 6,		CONFIG : 'N U T, 0, 0, 0',
	X =  183.348  mm,	Y =   -395.275  mm,	Z =   -243.884  mm,
	W =  89.588 deg,	P =   -0.714 deg,	R =   90.000 deg
};
P[12]{
   GP1:
	UF : 0, UT : 6,		CONFIG : 'N U T, 0, 0, 0',
	X =  196.165  mm,	Y =   -414.225  mm,	Z =   -243.838  mm,
	W =  89.588 deg,	P =   -0.714 deg,	R =   90.000 deg
};
P[13]{
   GP1:
	UF : 0, UT : 6,		CONFIG : 'N U T, 0, 0, 0',
	X =  300.279  mm,	Y =   -353.868  mm,	Z =   -243.759  mm,
	W =  90.412 deg,	P =   0.714 deg,	R =   90.000 deg
};
P[14]{
   GP1:
	UF : 0, UT : 6,		CONFIG : 'N U T, 0, 0, 0',
	X =  290.173  mm,	Y =   -333.506  mm,	Z =   -243.892  mm,
	W =  90.412 deg,	P =   0.714 deg,	R =   90.000 deg
};
P[15]{
   GP1:
	UF : 0, UT : 6,		CONFIG : 'N U T, 0, 0, 0',
	X =  279.692  mm,	Y =   -321.595  mm,	Z =   -243.369  mm,
	W =  90.412 deg,	P =   0.714 deg,	R =   90.000 deg
};
P[16]{
   GP1:
	UF : 0, UT : 6,		CONFIG : 'N U T, 0, 0, 0',
	X =  259.189  mm,	Y =   -336.173  mm,	Z =   -243.841  mm,
	W =  90.714 deg,	P =   -0.412 deg,	R =   90.000 deg
};
P[17]{
   GP1:
	UF : 0, UT : 6,		CONFIG : 'N U T, 0, 0, 0',
	X =  244.802  mm,	Y =   -344.482  mm,	Z =   -243.910  mm,
	W =  90.714 deg,	P =   -0.412 deg,	R =   90.000 deg
};
P[18]{
   GP1:
	UF : 0, UT : 6,		CONFIG : 'N U T, 0, 0, 0',
	X =  230.451  mm,	Y =   -352.763  mm,	Z =   -243.849  mm,
	W =  90.714 deg,	P =   -0.412 deg,	R =   90.000 deg
};
P[19]{
   GP1:
	UF : 0, UT : 6,		CONFIG : 'N U T, 0, 0, 0',
	X =  213.347  mm,	Y =   -408.763  mm,	Z =   -234.553  mm,
	W =  89.286 deg,	P =   0.412 deg,	R =   90.000 deg
};
P[20]{
   GP1:
	UF : 0, UT : 6,		CONFIG : 'N U T, 0, 0, 0',
	X =  221.413  mm,	Y =   -404.156  mm,	Z =   -235.502  mm,
	W =  89.286 deg,	P =   0.412 deg,	R =   90.000 deg
};
P[21]{
   GP1:
	UF : 0, UT : 6,		CONFIG : 'N U T, 0, 0, 0',
	X =  236.009  mm,	Y =   -395.730  mm,	Z =   -235.487  mm,
	W =  89.286 deg,	P =   0.412 deg,	R =   90.000 deg
};
P[22]{
   GP1:
	UF : 0, UT : 6,		CONFIG : 'N U T, 0, 0, 0',
	X =  250.400  mm,	Y =   -387.422  mm,	Z =   -235.462  mm,
	W =  89.286 deg,	P =   0.412 deg,	R =   90.000 deg
};
P[23]{
   GP1:
	UF : 0, UT : 6,		CONFIG : 'N U T, 0, 0, 0',
	X =  264.929  mm,	Y =   -379.036  mm,	Z =   -235.438  mm,
	W =  89.286 deg,	P =   0.412 deg,	R =   90.000 deg
};
P[24]{
   GP1:
	UF : 0, UT : 6,		CONFIG : 'N U T, 0, 0, 0',
	X =  279.409  mm,	Y =   -370.674  mm,	Z =   -235.442  mm,
	W =  89.286 deg,	P =   0.412 deg,	R =   90.000 deg
};
P[25]{
   GP1:
	UF : 0, UT : 6,		CONFIG : 'N U T, 0, 0, 0',
	X =  287.219  mm,	Y =   -366.070  mm,	Z =   -234.059  mm,
	W =  89.286 deg,	P =   0.412 deg,	R =   90.000 deg
};
P[26]{
   GP1:
	UF : 0, UT : 6,		CONFIG : 'N U T, 0, 0, 0',
	X =  214.749  mm,	Y =   -359.813  mm,	Z =   -218.881  mm,
	W =  90.714 deg,	P =   -0.412 deg,	R =   90.000 deg
};
P[27]{
   GP1:
	UF : 0, UT : 6,		CONFIG : 'N U T, 0, 0, 0',
	X =  200.056  mm,	Y =   -368.298  mm,	Z =   -218.898  mm,
	W =  90.714 deg,	P =   -0.412 deg,	R =   90.000 deg
};
P[28]{
   GP1:
	UF : 0, UT : 6,		CONFIG : 'N U T, 0, 0, 0',
	X =  176.612  mm,	Y =   -379.341  mm,	Z =   -218.414  mm,
	W =  89.588 deg,	P =   -0.714 deg,	R =   90.000 deg
};
P[29]{
   GP1:
	UF : 0, UT : 6,		CONFIG : 'N U T, 0, 0, 0',
	X =  181.847  mm,	Y =   -396.168  mm,	Z =   -218.906  mm,
	W =  89.588 deg,	P =   -0.714 deg,	R =   90.000 deg
};
P[30]{
   GP1:
	UF : 0, UT : 6,		CONFIG : 'N U T, 0, 0, 0',
	X =  193.564  mm,	Y =   -415.078  mm,	Z =   -218.986  mm,
	W =  89.588 deg,	P =   -0.714 deg,	R =   90.000 deg
};
P[31]{
   GP1:
	UF : 0, UT : 6,		CONFIG : 'N U T, 0, 0, 0',
	X =  212.062  mm,	Y =   -410.550  mm,	Z =   -217.286  mm,
	W =  89.286 deg,	P =   0.412 deg,	R =   90.000 deg
};
P[32]{
   GP1:
	UF : 0, UT : 6,		CONFIG : 'N U T, 0, 0, 0',
	X =  221.528  mm,	Y =   -405.427  mm,	Z =   -218.938  mm,
	W =  89.286 deg,	P =   0.412 deg,	R =   90.000 deg
};
P[33]{
   GP1:
	UF : 0, UT : 6,		CONFIG : 'N U T, 0, 0, 0',
	X =  236.299  mm,	Y =   -396.905  mm,	Z =   -218.867  mm,
	W =  89.286 deg,	P =   0.412 deg,	R =   90.000 deg
};
P[34]{
   GP1:
	UF : 0, UT : 6,		CONFIG : 'N U T, 0, 0, 0',
	X =  251.018  mm,	Y =   -388.411  mm,	Z =   -218.802  mm,
	W =  89.286 deg,	P =   0.412 deg,	R =   90.000 deg
};
P[35]{
   GP1:
	UF : 0, UT : 6,		CONFIG : 'N U T, 0, 0, 0',
	X =  265.784  mm,	Y =   -379.891  mm,	Z =   -218.734  mm,
	W =  89.286 deg,	P =   0.412 deg,	R =   90.000 deg
};
P[36]{
   GP1:
	UF : 0, UT : 6,		CONFIG : 'N U T, 0, 0, 0',
	X =  280.576  mm,	Y =   -371.334  mm,	Z =   -218.935  mm,
	W =  89.286 deg,	P =   0.412 deg,	R =   90.000 deg
};
P[37]{
   GP1:
	UF : 0, UT : 6,		CONFIG : 'N U T, 0, 0, 0',
	X =  289.340  mm,	Y =   -365.846  mm,	Z =   -217.112  mm,
	W =  89.286 deg,	P =   0.412 deg,	R =   90.000 deg
};
P[38]{
   GP1:
	UF : 0, UT : 6,		CONFIG : 'N U T, 0, 0, 0',
	X =  302.232  mm,	Y =   -352.246  mm,	Z =   -218.966  mm,
	W =  90.412 deg,	P =   0.714 deg,	R =   90.000 deg
};
P[39]{
   GP1:
	UF : 0, UT : 6,		CONFIG : 'N U T, 0, 0, 0',
	X =  291.720  mm,	Y =   -332.694  mm,	Z =   -218.933  mm,
	W =  90.412 deg,	P =   0.714 deg,	R =   90.000 deg
};
P[40]{
   GP1:
	UF : 0, UT : 6,		CONFIG : 'N U T, 0, 0, 0',
	X =  280.240  mm,	Y =   -319.718  mm,	Z =   -218.409  mm,
	W =  90.412 deg,	P =   0.714 deg,	R =   90.000 deg
};
P[41]{
   GP1:
	UF : 0, UT : 6,		CONFIG : 'N U T, 0, 0, 0',
	X =  259.096  mm,	Y =   -334.210  mm,	Z =   -218.913  mm,
	W =  90.714 deg,	P =   -0.412 deg,	R =   90.000 deg
};
P[42]{
   GP1:
	UF : 0, UT : 6,		CONFIG : 'N U T, 0, 0, 0',
	X =  244.331  mm,	Y =   -342.736  mm,	Z =   -218.919  mm,
	W =  90.714 deg,	P =   -0.412 deg,	R =   90.000 deg
};
P[43]{
   GP1:
	UF : 0, UT : 6,		CONFIG : 'N U T, 0, 0, 0',
	X =  229.536  mm,	Y =   -351.272  mm,	Z =   -218.831  mm,
	W =  90.714 deg,	P =   -0.412 deg,	R =   90.000 deg
};
P[44]{
   GP1:
	UF : 0, UT : 6,		CONFIG : 'N U T, 0, 0, 0',
	X =  214.149  mm,	Y =   -359.047  mm,	Z =   -205.099  mm,
	W =  90.714 deg,	P =   -0.412 deg,	R =   90.000 deg
};
P[45]{
   GP1:
	UF : 0, UT : 6,		CONFIG : 'N U T, 0, 0, 0',
	X =  199.214  mm,	Y =   -367.667  mm,	Z =   -205.056  mm,
	W =  90.714 deg,	P =   -0.412 deg,	R =   90.000 deg
};
P[46]{
   GP1:
	UF : 0, UT : 6,		CONFIG : 'N U T, 0, 0, 0',
	X =  175.605  mm,	Y =   -379.261  mm,	Z =   -205.040  mm,
	W =  89.588 deg,	P =   -0.714 deg,	R =   90.000 deg
};
P[47]{
   GP1:
	UF : 0, UT : 6,		CONFIG : 'N U T, 0, 0, 0',
	X =  180.976  mm,	Y =   -396.592  mm,	Z =   -205.091  mm,
	W =  89.588 deg,	P =   -0.714 deg,	R =   90.000 deg
};
P[48]{
   GP1:
	UF : 0, UT : 6,		CONFIG : 'N U T, 0, 0, 0',
	X =  192.331  mm,	Y =   -415.463  mm,	Z =   -205.075  mm,
	W =  89.588 deg,	P =   -0.714 deg,	R =   90.000 deg
};
P[49]{
   GP1:
	UF : 0, UT : 6,		CONFIG : 'N U T, 0, 0, 0',
	X =  211.329  mm,	Y =   -411.725  mm,	Z =   -205.054  mm,
	W =  89.286 deg,	P =   0.412 deg,	R =   90.000 deg
};
P[50]{
   GP1:
	UF : 0, UT : 6,		CONFIG : 'N U T, 0, 0, 0',
	X =  221.557  mm,	Y =   -406.530  mm,	Z =   -205.074  mm,
	W =  89.286 deg,	P =   0.412 deg,	R =   90.000 deg
};
P[51]{
   GP1:
	UF : 0, UT : 6,		CONFIG : 'N U T, 0, 0, 0',
	X =  236.608  mm,	Y =   -397.842  mm,	Z =   -205.047  mm,
	W =  89.286 deg,	P =   0.412 deg,	R =   90.000 deg
};
P[52]{
   GP1:
	UF : 0, UT : 6,		CONFIG : 'N U T, 0, 0, 0',
	X =  251.520  mm,	Y =   -389.230  mm,	Z =   -205.066  mm,
	W =  89.286 deg,	P =   0.412 deg,	R =   90.000 deg
};
P[53]{
   GP1:
	UF : 0, UT : 6,		CONFIG : 'N U T, 0, 0, 0',
	X =  266.558  mm,	Y =   -380.549  mm,	Z =   -205.057  mm,
	W =  89.286 deg,	P =   0.412 deg,	R =   90.000 deg
};
P[54]{
   GP1:
	UF : 0, UT : 6,		CONFIG : 'N U T, 0, 0, 0',
	X =  281.529  mm,	Y =   -371.902  mm,	Z =   -205.082  mm,
	W =  89.286 deg,	P =   0.412 deg,	R =   90.000 deg
};
P[55]{
   GP1:
	UF : 0, UT : 6,		CONFIG : 'N U T, 0, 0, 0',
	X =  290.706  mm,	Y =   -365.827  mm,	Z =   -205.011  mm,
	W =  89.286 deg,	P =   0.412 deg,	R =   90.000 deg
};
P[56]{
   GP1:
	UF : 0, UT : 6,		CONFIG : 'N U T, 0, 0, 0',
	X =  303.159  mm,	Y =   -351.359  mm,	Z =   -205.055  mm,
	W =  90.412 deg,	P =   0.714 deg,	R =   90.000 deg
};
P[57]{
   GP1:
	UF : 0, UT : 6,		CONFIG : 'N U T, 0, 0, 0',
	X =  292.515  mm,	Y =   -332.131  mm,	Z =   -205.066  mm,
	W =  90.412 deg,	P =   0.714 deg,	R =   90.000 deg
};
P[58]{
   GP1:
	UF : 0, UT : 6,		CONFIG : 'N U T, 0, 0, 0',
	X =  280.372  mm,	Y =   -318.785  mm,	Z =   -205.069  mm,
	W =  90.412 deg,	P =   0.714 deg,	R =   90.000 deg
};
P[59]{
   GP1:
	UF : 0, UT : 6,		CONFIG : 'N U T, 0, 0, 0',
	X =  259.105  mm,	Y =   -333.085  mm,	Z =   -205.044  mm,
	W =  90.714 deg,	P =   -0.412 deg,	R =   90.000 deg
};
P[60]{
   GP1:
	UF : 0, UT : 6,		CONFIG : 'N U T, 0, 0, 0',
	X =  244.118  mm,	Y =   -341.740  mm,	Z =   -205.066  mm,
	W =  90.714 deg,	P =   -0.412 deg,	R =   90.000 deg
};
P[61]{
   GP1:
	UF : 0, UT : 6,		CONFIG : 'N U T, 0, 0, 0',
	X =  224.432  mm,	Y =   -341.561  mm,	Z =   -205.213  mm,
	W =  90.000 deg,	P =   0.000 deg,	R =   90.000 deg
};
/END
